; generated by Slic3r 1.2.9 on 2017-03-01 at 00:22:08

; external perimeters extrusion width = 0.40mm
; perimeters extrusion width = 0.68mm
; infill extrusion width = 1.28mm
; solid infill extrusion width = 0.68mm
; top infill extrusion width = 0.68mm
; support material extrusion width = 0.40mm

M107
M190 S70 ; set bed temperature
M104 S240 ; set temperature
G28 ; home all axes
G1 Z5 F5000 ; lift nozzle

M109 S240 ; wait for temperature to be reached
G21 ; set units to millimeters
G90 ; use absolute coordinates
M82 ; use absolute distances for extrusion
G92 E0
G1 Z0.300 F9000.000
G1 E-4.50000 F2400.00000
G92 E0
G1 X41.864 Y38.126 F9000.000
G1 E4.50000 F2400.00000
G1 X43.632 Y36.547 E4.65833 F1200.000
G1 X45.822 Y35.641 E4.81666
G1 X47.354 Y35.465 E4.91966
G1 X58.571 Y35.405 E5.66907
G1 X60.910 Y35.790 E5.82740
G1 X62.990 Y36.926 E5.98573 F1200.000
G1 X64.578 Y38.685 E6.14406
G1 X65.495 Y40.870 E6.30239
G1 X65.680 Y42.476 E6.41038
G1 X65.680 Y69.464 E8.21329
G1 X65.283 Y71.800 E8.37162
G1 X64.136 Y73.874 E8.52995
G1 X62.368 Y75.453 E8.68828
G1 X60.178 Y76.359 E8.84661
G1 X58.646 Y76.535 E8.94961
G1 X47.429 Y76.595 E9.69902
G1 X45.090 Y76.210 E9.85735
G1 X43.010 Y75.074 E10.01568
G1 X41.422 Y73.315 E10.17401
G1 X40.505 Y71.130 E10.33235
G1 X40.320 Y69.524 E10.44034
G1 X40.320 Y42.536 E12.24325
G1 X40.717 Y40.200 E12.40158
G1 X41.835 Y38.178 E12.55590
G1 X42.347 Y38.406 F9000.000
G1 X42.395 Y38.323 E12.56231 F1200.000
G1 X44.145 Y36.864 E12.71448
G1 X47.356 Y36.001 E12.93667
G1 X58.574 Y35.941 E13.68608
G1 X60.819 Y36.326 E13.83825
G1 X62.796 Y37.458 E13.99042 F1200.000
G1 X64.264 Y39.200 E14.14259
G1 X65.144 Y42.476 E14.36926
G1 X65.144 Y69.464 E16.17217
G1 X64.748 Y71.707 E16.32435
G1 X63.605 Y73.677 E16.47652
G1 X61.855 Y75.136 E16.62869
G1 X58.644 Y75.999 E16.85087
G1 X47.426 Y76.059 E17.60028
G1 X45.181 Y75.674 E17.75245
G1 X43.204 Y74.542 E17.90463
G1 X41.736 Y72.800 E18.05680
G1 X40.856 Y69.524 E18.28347
G1 X40.856 Y42.536 E20.08638
G1 X41.252 Y40.293 E20.23855
G1 X42.317 Y38.457 E20.38030
G1 X43.340 Y39.393 F9000.000
G1 X45.264 Y37.459 E20.56259 F1200.000
G1 X60.697 Y37.377 E21.59361
G1 X63.697 Y40.361 E21.87628
G1 X63.697 Y71.564 E23.96080 F1200.000
G1 X60.736 Y74.541 E24.24135
G1 X45.303 Y74.623 E25.27237
G1 X42.303 Y71.639 E25.55503
G1 X42.303 Y40.436 E27.63955
G1 X43.298 Y39.436 E27.73381
G1 X43.720 Y39.771 F9000.000
G1 X45.488 Y37.993 E27.90133 F1200.000
G1 X60.478 Y37.914 E28.90271
G1 X63.162 Y40.584 E29.15562 F1200.000
G1 X63.162 Y71.343 E31.21050
G1 X60.512 Y74.007 E31.46152
G1 X45.523 Y74.086 E32.46289
G1 X42.838 Y71.416 E32.71581
G1 X42.838 Y40.657 E34.77068
G1 X43.678 Y39.814 E34.85017
G1 X44.100 Y40.149 F9000.000
G1 X45.712 Y38.528 E35.00293 F1200.000
G1 X60.258 Y38.450 E35.97466
G1 X62.626 Y40.806 E36.19782
G1 X62.626 Y71.122 E38.22305 F1200.000
G1 X60.288 Y73.472 E38.44454
G1 X45.742 Y73.550 E39.41627
G1 X43.374 Y71.194 E39.63943
G1 X43.374 Y40.878 E41.66467
G1 X44.057 Y40.191 E41.72939
G1 X44.479 Y40.527 F9000.000
G1 X45.936 Y39.062 E41.86738 F1200.000
G1 X60.038 Y38.987 E42.80947
G1 X62.090 Y41.029 E43.00288 F1200.000
G1 X62.090 Y70.901 E44.99847
G1 X60.064 Y72.938 E45.19042
G1 X45.962 Y73.013 E46.13251
G1 X43.910 Y70.971 E46.32592
G1 X43.910 Y41.099 E48.32151
G1 X44.437 Y40.569 E48.37147
G1 X44.859 Y40.904 F9000.000
G1 X46.160 Y39.597 E48.49469 F1200.000
G1 X59.818 Y39.524 E49.40714
G1 X61.555 Y41.252 E49.57079
G1 X61.555 Y70.680 E51.53673 F1200.000
G1 X59.840 Y72.403 E51.69916
G1 X46.182 Y72.476 E52.61160
G1 X44.445 Y70.748 E52.77525
G1 X44.445 Y41.320 E54.74120
G1 X44.817 Y40.947 E54.77640
G1 X45.239 Y41.282 F9000.000
G1 X46.384 Y40.131 E54.88485 F1200.000
G1 X59.598 Y40.061 E55.76766
G1 X61.019 Y41.474 E55.90155 F1200.000
G1 X61.019 Y70.459 E57.83786
G1 X59.616 Y71.869 E57.97075
G1 X46.402 Y71.939 E58.85355
G1 X44.981 Y70.526 E58.98745
G1 X44.981 Y41.541 E60.92375
G1 X45.197 Y41.325 E60.94418
G1 X45.619 Y41.660 F9000.000
G1 X46.608 Y40.666 E61.03787 F1200.000
G1 X59.378 Y40.598 E61.89103
G1 X60.483 Y41.697 E61.99517
G1 X60.483 Y70.238 E63.90184 F1200.000
G1 X59.392 Y71.334 E64.00520
G1 X46.622 Y71.402 E64.85836
G1 X45.517 Y70.303 E64.96250
G1 X45.517 Y41.762 E66.86916
G1 X45.576 Y41.702 E66.87482
G1 X46.052 Y41.984 F9000.000
G1 X46.831 Y41.200 E66.94865 F1200.000
G1 X59.158 Y41.134 E67.77217
G1 X59.948 Y41.920 E67.84656 F1200.000
G1 X59.948 Y70.016 E69.72357
G1 X59.169 Y70.800 E69.79740
G1 X46.842 Y70.866 E70.62092
G1 X46.052 Y70.080 E70.69531
G1 X46.052 Y42.044 E72.56832
G1 X46.588 Y42.205 F9000.000
G1 X47.055 Y41.734 E72.61262 F1200.000
G1 X58.939 Y41.671 E73.40649
G1 X59.412 Y42.142 E73.45112
G1 X59.412 Y69.795 E75.29850 F1200.000
G1 X58.945 Y70.266 E75.34280
G1 X47.061 Y70.329 E76.13667
G1 X46.588 Y69.858 E76.18130
G1 X46.588 Y42.265 E78.02467
G1 X47.123 Y42.426 F9000.000
G1 X47.279 Y42.269 E78.03944 F1200.000
G1 X58.719 Y42.208 E78.80367
G1 X58.877 Y42.365 E78.81855
G1 X58.877 Y69.574 E80.63628
G1 X58.721 Y69.731 E80.65104
G1 X47.281 Y69.792 E81.41528
G1 X47.123 Y69.635 E81.43015
G1 X47.123 Y42.486 E83.24388
G1 E78.74388 F2400.00000
G92 E0
G1 X58.309 Y69.166 F9000.000
G1 E4.50000 F2400.00000
G1 X47.691 Y69.222 E5.20933 F1200.000
G1 X47.691 Y42.834 E6.97215
G1 X58.309 Y42.778 E7.68148
G1 X58.309 Y69.106 E9.44030
G1 X57.962 Y68.967 F9000.000
G1 X57.773 Y68.633 F9000.000
G1 X48.227 Y68.684 E10.07806 F1200.000
G1 X48.227 Y43.367 E11.76932
G1 X57.773 Y43.316 E12.40709
G1 X57.773 Y68.573 E14.09434
G1 X57.238 Y68.100 F9000.000
G1 X48.762 Y68.145 E14.66053 F1200.000
G1 X48.762 Y43.900 E16.28023
G1 X57.238 Y43.855 E16.84643
G1 X57.238 Y68.040 E18.46211
G1 X49.084 Y67.554 F9000.000
G1 X49.351 Y67.821 E18.48788 F1200.000
G1 X50.121 Y67.817 E18.54037
G1 X49.084 Y66.780 E18.64036
G1 X49.084 Y66.007 E18.69313
G1 X50.890 Y67.813 E18.86735
G1 X51.659 Y67.809 E18.91984
G1 X49.084 Y65.233 E19.16828
G1 X49.084 Y64.460 E19.22105
G1 X52.429 Y67.804 E19.54372
G1 X53.198 Y67.800 E19.59621
G1 X49.084 Y63.686 E19.99310
G1 X49.084 Y62.913 E20.04587
G1 X53.968 Y67.796 E20.51699
G1 X54.737 Y67.792 E20.56948
G1 X49.084 Y62.139 E21.11483
G1 X49.084 Y61.366 E21.16759
G1 X55.506 Y67.788 E21.78717
G1 X56.276 Y67.784 E21.83965
G1 X49.084 Y60.592 E22.53346
G1 X49.084 Y59.819 E22.58622
G1 X56.916 Y67.651 E23.34179
G1 X56.916 Y66.877 E23.39456
G1 X49.084 Y59.045 E24.15013
G1 X49.084 Y58.272 E24.20289
G1 X56.916 Y66.104 E24.95846
G1 X56.916 Y65.330 E25.01123
G1 X49.084 Y57.498 E25.76680
G1 X49.084 Y56.725 E25.81956
G1 X56.916 Y64.557 E26.57513
G1 X56.916 Y63.783 E26.62790
G1 X49.084 Y55.951 E27.38347
G1 X49.084 Y55.178 E27.43623
G1 X56.916 Y63.010 E28.19180
G1 X56.916 Y62.236 E28.24457
G1 X49.084 Y54.405 E29.00014
G1 X49.084 Y53.631 E29.05290
G1 X56.916 Y61.463 E29.80847
G1 X56.916 Y60.689 E29.86124
G1 X49.084 Y52.858 E30.61681
G1 X49.084 Y52.084 E30.66957
G1 X56.916 Y59.916 E31.42515
G1 X56.916 Y59.142 E31.47791
G1 X49.084 Y51.311 E32.23348
G1 X49.084 Y50.537 E32.28625
G1 X56.916 Y58.369 E33.04182
G1 X56.916 Y57.596 E33.09458
G1 X49.084 Y49.764 E33.85015
G1 X49.084 Y48.990 E33.90292
G1 X56.916 Y56.822 E34.65849
G1 X56.916 Y56.049 E34.71125
G1 X49.084 Y48.217 E35.46682
G1 X49.084 Y47.443 E35.51959
G1 X56.916 Y55.275 E36.27516
G1 X56.916 Y54.502 E36.32792
G1 X49.084 Y46.670 E37.08349
G1 X49.084 Y45.896 E37.13626
G1 X56.916 Y53.728 E37.89183
G1 X56.916 Y52.955 E37.94459
G1 X49.084 Y45.123 E38.70016
G1 X49.084 Y44.349 E38.75293
G1 X56.916 Y52.181 E39.50850
G1 X56.916 Y51.408 E39.56126
G1 X49.724 Y44.216 E40.25507
G1 X50.494 Y44.212 E40.30755
G1 X56.916 Y50.634 E40.92713
G1 X56.916 Y49.861 E40.97990
G1 X51.263 Y44.208 E41.52525
G1 X52.032 Y44.204 E41.57774
G1 X56.916 Y49.087 E42.04886
G1 X56.916 Y48.314 E42.10163
G1 X52.802 Y44.200 E42.49853
G1 X53.571 Y44.196 E42.55102
G1 X56.916 Y47.540 E42.87369
G1 X56.916 Y46.767 E42.92646
G1 X54.341 Y44.191 E43.17490
G1 X55.110 Y44.187 E43.22739
G1 X56.916 Y45.993 E43.40161
G1 X56.916 Y45.220 E43.45438
G1 X55.879 Y44.183 E43.55438
G1 X56.649 Y44.179 E43.60686
G1 X56.916 Y44.446 E43.63263
G1 Z0.300 F9000.000
M104 S220 ; set temperature
M140 S60 ; wait for bed temperature to be reached
G1 Z0.400 F9000.000
G1 X57.232 Y68.094 F9000.000
G1 X48.768 Y68.139 E43.86436 F3600.000
G1 X48.768 Y43.906 E44.52784
G1 X57.232 Y43.861 E44.75957
G1 X57.232 Y68.034 E45.42140
G1 X57.890 Y68.749 F9000.000
G1 X48.110 Y68.801 E45.68919 F3600.000
G1 X48.110 Y43.251 E46.38873
G1 X57.890 Y43.199 E46.65652
G1 X57.890 Y68.689 E47.35442
G1 X58.409 Y69.265 F9000.000
G1 X47.591 Y69.323 E47.52467 F1800.000
G1 X47.591 Y42.735 E47.94310
G1 X58.409 Y42.677 E48.11334
G1 X58.409 Y69.205 E48.53083
G1 X58.062 Y69.066 F9000.000
G1 X56.512 Y67.697 F9000.000
G1 X56.832 Y67.378 E48.54346 F1200.000
G1 X56.832 Y66.427 E48.57002
G1 X55.557 Y67.702 E48.62042
G1 X54.601 Y67.707 E48.64713
G1 X56.832 Y65.476 E48.73529
G1 X56.832 Y64.526 E48.76185
G1 X53.645 Y67.712 E48.88779
G1 X52.690 Y67.718 E48.91450
G1 X56.832 Y63.575 E49.07820
G1 X56.832 Y62.625 E49.10476
G1 X51.734 Y67.723 E49.30623
G1 X50.778 Y67.728 E49.33294
G1 X56.832 Y61.674 E49.57218
G1 X56.832 Y60.724 E49.59875
G1 X49.823 Y67.733 E49.87576
G1 X49.168 Y67.436 E49.89583
G1 X56.832 Y59.773 E50.19869
G1 X56.832 Y58.822 E50.22526
G1 X49.168 Y66.486 E50.52812
G1 X49.168 Y65.535 E50.55469
G1 X56.832 Y57.872 E50.85755
G1 X56.832 Y56.921 E50.88412
G1 X49.168 Y64.585 E51.18698
G1 X49.168 Y63.634 E51.21355
G1 X56.832 Y55.971 E51.51641
G1 X56.832 Y55.020 E51.54297
G1 X49.168 Y62.683 E51.84584
G1 X49.168 Y61.733 E51.87240
G1 X56.832 Y54.069 E52.17527
G1 X56.832 Y53.119 E52.20183
G1 X49.168 Y60.782 E52.50470
G1 X49.168 Y59.832 E52.53126
G1 X56.832 Y52.168 E52.83413
G1 X56.832 Y51.218 E52.86069
G1 X49.168 Y58.881 E53.16356
G1 X49.168 Y57.931 E53.19012
G1 X56.832 Y50.267 E53.49299
G1 X56.832 Y49.317 E53.51955
G1 X49.168 Y56.980 E53.82242
G1 X49.168 Y56.029 E53.84898
G1 X56.832 Y48.366 E54.15185
G1 X56.832 Y47.415 E54.17841
G1 X49.168 Y55.079 E54.48128
G1 X49.168 Y54.128 E54.50784
G1 X56.832 Y46.465 E54.81071
G1 X56.832 Y45.514 E54.83727
G1 X49.168 Y53.178 E55.14013
G1 X49.168 Y52.227 E55.16670
G1 X56.832 Y44.564 E55.46956
G1 X56.177 Y44.267 E55.48964
G1 X49.168 Y51.276 E55.76664
G1 X49.168 Y50.326 E55.79321
G1 X55.222 Y44.272 E56.03245
G1 X54.266 Y44.277 E56.05915
G1 X49.168 Y49.375 E56.26062
G1 X49.168 Y48.425 E56.28719
G1 X53.310 Y44.282 E56.45089
G1 X52.355 Y44.288 E56.47760
G1 X49.168 Y47.474 E56.60353
G1 X49.168 Y46.523 E56.63009
G1 X51.399 Y44.293 E56.71826
G1 X50.443 Y44.298 E56.74496
G1 X49.168 Y45.573 E56.79536
G1 X49.168 Y44.622 E56.82192
G1 X49.488 Y44.303 E56.83455
G1 Z0.500 F9000.000
G1 X57.232 Y68.094 F9000.000
G1 X48.768 Y68.139 E57.06627 F3600.000
G1 X48.768 Y43.906 E57.72975
G1 X57.232 Y43.861 E57.96148
G1 X57.232 Y68.034 E58.62332
G1 X57.890 Y68.749 F9000.000
G1 X48.110 Y68.801 E58.89110 F3600.000
G1 X48.110 Y43.251 E59.59065
G1 X57.890 Y43.199 E59.85843
G1 X57.890 Y68.689 E60.55633
G1 X58.409 Y69.265 F9000.000
G1 X47.591 Y69.323 E60.72658 F1800.000
G1 X47.591 Y42.735 E61.14501
G1 X58.409 Y42.677 E61.31526
G1 X58.409 Y69.205 E61.73274
G1 X58.062 Y69.066 F9000.000
G1 X49.168 Y67.417 F9000.000
G1 X49.488 Y67.736 E61.74539 F1200.000
G1 X50.436 Y67.731 E61.77195
G1 X49.168 Y66.464 E61.82217
G1 X49.168 Y65.511 E61.84887
G1 X51.384 Y67.726 E61.93664
G1 X52.332 Y67.721 E61.96320
G1 X49.168 Y64.558 E62.08853
G1 X49.168 Y63.605 E62.11523
G1 X53.279 Y67.716 E62.27813
G1 X54.227 Y67.711 E62.30469
G1 X49.168 Y62.652 E62.50515
G1 X49.168 Y61.699 E62.53185
G1 X55.175 Y67.706 E62.76987
G1 X56.123 Y67.701 E62.79643
G1 X49.168 Y60.746 E63.07201
G1 X49.168 Y59.793 E63.09871
G1 X56.832 Y67.456 E63.40235
G1 X56.832 Y66.503 E63.42905
G1 X49.168 Y58.840 E63.73269
G1 X49.168 Y57.886 E63.75940
G1 X56.832 Y65.550 E64.06304
G1 X56.832 Y64.597 E64.08974
G1 X49.168 Y56.933 E64.39338
G1 X49.168 Y55.980 E64.42008
G1 X56.832 Y63.644 E64.72373
G1 X56.832 Y62.691 E64.75043
G1 X49.168 Y55.027 E65.05407
G1 X49.168 Y54.074 E65.08077
G1 X56.832 Y61.738 E65.38441
G1 X56.832 Y60.785 E65.41112
G1 X49.168 Y53.121 E65.71476
G1 X49.168 Y52.168 E65.74146
G1 X56.832 Y59.832 E66.04510
G1 X56.832 Y58.879 E66.07180
G1 X49.168 Y51.215 E66.37545
G1 X49.168 Y50.262 E66.40215
G1 X56.832 Y57.926 E66.70579
G1 X56.832 Y56.973 E66.73249
G1 X49.168 Y49.309 E67.03613
G1 X49.168 Y48.356 E67.06284
G1 X56.832 Y56.020 E67.36648
G1 X56.832 Y55.067 E67.39318
G1 X49.168 Y47.403 E67.69682
G1 X49.168 Y46.450 E67.72352
G1 X56.832 Y54.114 E68.02717
G1 X56.832 Y53.161 E68.05387
G1 X49.168 Y45.497 E68.35751
G1 X49.168 Y44.544 E68.38421
G1 X56.832 Y52.207 E68.68785
G1 X56.832 Y51.254 E68.71456
G1 X49.877 Y44.299 E68.99014
G1 X50.824 Y44.294 E69.01670
G1 X56.832 Y50.301 E69.25472
G1 X56.832 Y49.348 E69.28142
G1 X51.772 Y44.289 E69.48188
G1 X52.720 Y44.284 E69.50844
G1 X56.832 Y48.395 E69.67133
G1 X56.832 Y47.442 E69.69804
G1 X53.668 Y44.279 E69.82337
G1 X54.616 Y44.274 E69.84993
G1 X56.832 Y46.489 E69.93771
G1 X56.832 Y45.536 E69.96441
G1 X55.564 Y44.269 E70.01462
G1 X56.512 Y44.264 E70.04118
G1 X56.832 Y44.583 E70.05383
M106 S252.45
G1 Z0.600 F9000.000
G1 X57.232 Y68.094 F9000.000
G1 X48.768 Y68.139 E70.28555 F3600.000
G1 X48.768 Y43.906 E70.94904
G1 X57.232 Y43.861 E71.18076
G1 X57.232 Y68.034 E71.84260
G1 X57.890 Y68.749 F9000.000
G1 X48.110 Y68.801 E72.11038 F3600.000
G1 X48.110 Y43.251 E72.80993
G1 X57.890 Y43.199 E73.07771
G1 X57.890 Y68.689 E73.77561
G1 X58.409 Y69.265 F9000.000
G1 X47.591 Y69.323 E73.94586 F1800.000
G1 X47.591 Y42.735 E74.36429
G1 X58.409 Y42.677 E74.53454
G1 X58.409 Y69.205 E74.95203
G1 X58.062 Y69.066 F9000.000
G1 X49.340 Y66.638 F9000.000
G1 X56.660 Y59.319 E75.49280 F3600.000
G1 X49.340 Y57.752 E75.88384
G1 X56.660 Y50.433 E76.42462
G1 X53.754 Y44.453 E76.77197
G1 X49.340 Y48.866 E77.09806
G1 Z0.700 F9000.000
G1 X57.232 Y68.094 F9000.000
G1 X48.768 Y68.139 E77.32978 F3600.000
G1 X48.768 Y43.906 E77.99327
G1 X57.232 Y43.861 E78.22499
G1 X57.232 Y68.034 E78.88683
G1 X57.890 Y68.749 F9000.000
G1 X48.110 Y68.801 E79.15461 F3600.000
G1 X48.110 Y43.251 E79.85416
G1 X57.890 Y43.199 E80.12194
G1 X57.890 Y68.689 E80.81984
G1 X58.409 Y69.265 F9000.000
G1 X47.591 Y69.323 E80.99009 F1800.000
G1 X47.591 Y42.735 E81.40852
G1 X58.409 Y42.677 E81.57877
G1 X58.409 Y69.205 E81.99626
G1 X58.062 Y69.066 F9000.000
G1 X49.340 Y63.134 F9000.000
G1 X53.749 Y67.542 E82.32196 F3600.000
G1 X56.660 Y61.567 E82.66919
G1 X49.340 Y54.248 E83.20997
G1 X49.340 Y45.362 E83.67420
G1 X56.660 Y52.681 E84.21497
G1 Z0.800 F9000.000
G1 X57.232 Y68.094 F9000.000
G1 X48.768 Y68.139 E84.44670 F3600.000
G1 X48.768 Y43.906 E85.11018
G1 X57.232 Y43.861 E85.34190
G1 X57.232 Y68.034 E86.00374
G1 X57.890 Y68.749 F9000.000
G1 X48.110 Y68.801 E86.27153 F3600.000
G1 X48.110 Y43.251 E86.97107
G1 X57.890 Y43.199 E87.23886
G1 X57.890 Y68.689 E87.93675
G1 X58.409 Y69.265 F9000.000
G1 X47.591 Y69.323 E88.10700 F1800.000
G1 X47.591 Y42.735 E88.52543
G1 X58.409 Y42.677 E88.69568
G1 X58.409 Y69.205 E89.11317
G1 X58.062 Y69.066 F9000.000
G1 X49.340 Y66.638 F9000.000
G1 X56.660 Y59.319 E89.65394 F3600.000
G1 X49.340 Y57.752 E90.04499
G1 X56.660 Y50.433 E90.58576
G1 X53.754 Y44.453 E90.93312
G1 X49.340 Y48.866 E91.25920
G1 Z0.900 F9000.000
G1 X57.232 Y68.094 F9000.000
G1 X48.768 Y68.139 E91.49093 F3600.000
G1 X48.768 Y43.906 E92.15441
G1 X57.232 Y43.861 E92.38613
G1 X57.232 Y68.034 E93.04797
G1 X57.890 Y68.749 F9000.000
G1 X48.110 Y68.801 E93.31576 F3600.000
G1 X48.110 Y43.251 E94.01530
G1 X57.890 Y43.199 E94.28309
G1 X57.890 Y68.689 E94.98098
G1 X58.409 Y69.265 F9000.000
G1 X47.591 Y69.323 E95.15123 F1800.000
G1 X47.591 Y42.735 E95.56966
G1 X58.409 Y42.677 E95.73991
G1 X58.409 Y69.205 E96.15740
G1 X58.062 Y69.066 F9000.000
G1 X49.340 Y63.134 F9000.000
G1 X53.749 Y67.542 E96.48310 F3600.000
G1 X56.660 Y61.567 E96.83034
G1 X49.340 Y54.248 E97.37111
G1 X49.340 Y45.362 E97.83535
G1 X56.660 Y52.681 E98.37612
G1 Z1.000 F9000.000
G1 X57.232 Y68.094 F9000.000
G1 X48.768 Y68.139 E98.60784 F3600.000
G1 X48.768 Y43.906 E99.27132
G1 X57.232 Y43.861 E99.50305
G1 X57.232 Y68.034 E100.16489
G1 X57.890 Y68.749 F9000.000
G1 X48.110 Y68.801 E100.43267 F3600.000
