; generated by Slic3r 1.2.9 on 2017-03-01 at 08:43:44

; external perimeters extrusion width = 0.40mm
; perimeters extrusion width = 0.68mm
; infill extrusion width = 1.28mm
; solid infill extrusion width = 0.68mm
; top infill extrusion width = 0.68mm
; support material extrusion width = 0.40mm

M107
M190 S70 ; set bed temperature
M104 S240 ; set temperature
G28 ; home all axes
G1 Z5 F5000 ; lift nozzle

M109 S240 ; wait for temperature to be reached
G21 ; set units to millimeters
G90 ; use absolute coordinates
M82 ; use absolute distances for extrusion
G92 E0
G1 Z0.300 F9000.000
G1 E-4.50000 F2400.00000
G92 E0
G1 X38.053 Y35.235 F9000.000
G1 E4.50000 F2400.00000
G1 X39.010 Y34.252 E4.59169 F1200.000
G1 X41.876 Y31.830 E4.84237
G1 X43.917 Y30.625 E5.00070
G1 X46.441 Y30.160 E5.17211
G1 X65.678 Y30.160 E6.45730
G1 X68.015 Y30.557 E6.61563
G1 X70.731 Y32.284 E6.83066 F1200.000
G1 X74.029 Y35.652 E7.14555
G1 X75.379 Y37.599 E7.30388
G1 X76.047 Y40.591 E7.50869
G1 X76.062 Y75.933 E9.86969
G1 X76.033 Y76.626 E9.91603
G1 X75.495 Y78.934 E10.07436
G1 X74.224 Y80.935 E10.23269
G1 X72.506 Y82.324 E10.38030
G1 X64.573 Y86.896 E10.99198
G1 X62.350 Y87.718 E11.15031
G1 X61.042 Y87.840 E11.23810
G1 X51.691 Y87.840 E11.86277
G1 X49.354 Y87.443 E12.02110
G1 X46.478 Y85.547 E12.25130
G1 X38.361 Y76.690 E13.05386
G1 X37.075 Y74.699 E13.21219
G1 X36.508 Y72.172 E13.38518
G1 X36.476 Y71.216 E13.44910
G1 X36.503 Y39.644 E15.55828
G1 X36.903 Y37.308 E15.71662
G1 X38.024 Y35.288 E15.87094
G1 X38.658 Y35.659 F9000.000
G1 X39.356 Y34.661 E15.95228 F1200.000
G1 X42.222 Y32.239 E16.20296
G1 X44.192 Y31.094 E16.35513
G1 X46.441 Y30.695 E16.50773
G1 X65.678 Y30.695 E17.79291
G1 X67.921 Y31.092 E17.94508
G1 X70.348 Y32.659 E18.13806 F1200.000
G1 X73.646 Y36.027 E18.45294
G1 X74.931 Y37.907 E18.60512
G1 X75.511 Y40.592 E18.78863
G1 X75.526 Y75.933 E21.14960
G1 X75.498 Y76.593 E21.19376
G1 X74.966 Y78.808 E21.34593
G1 X73.706 Y80.706 E21.49811
G1 X72.238 Y81.859 E21.62282
G1 X64.305 Y86.432 E22.23451
G1 X61.042 Y87.305 E22.46020
G1 X51.691 Y87.305 E23.08487
G1 X49.448 Y86.908 E23.23704
G1 X46.872 Y85.185 E23.44406
G1 X38.756 Y76.328 E24.24662
G1 X37.533 Y74.406 E24.39879
G1 X37.043 Y72.152 E24.55286
G1 X37.012 Y71.212 E24.61571
G1 X37.039 Y39.644 E26.72460
G1 X37.439 Y37.402 E26.87677
G1 X38.624 Y35.708 E27.01490
G1 X39.446 Y36.470 F9000.000
G1 X42.768 Y33.700 E27.30385 F1200.000
G1 X43.370 Y33.030 E27.36400
G1 X45.354 Y32.142 E27.50920
G1 X66.705 Y32.142 E28.93554
G1 X68.596 Y32.938 E29.07264
G1 X73.310 Y37.752 E29.52277 F1200.000
G1 X74.064 Y39.601 E29.65615
G1 X74.079 Y76.117 E32.09559
G1 X74.063 Y76.348 E32.11111
G1 X74.063 Y77.561 E32.19216
G1 X72.698 Y79.924 E32.37446
G1 X63.003 Y85.512 E33.12199
G1 X61.710 Y85.858 E33.21136
G1 X50.621 Y85.858 E33.95220
G1 X48.662 Y84.996 E34.09516
G1 X39.211 Y74.682 E35.02974
G1 X38.523 Y73.005 E35.15083
G1 X38.459 Y71.239 E35.26885
G1 X38.448 Y69.647 E35.37524
G1 X38.486 Y68.036 E35.48291
G1 X38.486 Y38.521 E37.45467
G1 X39.421 Y36.524 E37.60193
G1 X39.881 Y36.805 F9000.000
G1 X43.141 Y34.086 E37.88555 F1200.000
G1 X43.693 Y33.472 E37.94068
G1 X45.468 Y32.678 E38.07060
G1 X66.597 Y32.678 E39.48208
G1 X68.289 Y33.390 E39.60475 F1200.000
G1 X72.854 Y38.052 E40.04064
G1 X73.529 Y39.706 E40.15998
G1 X73.543 Y76.097 E42.59111
G1 X73.527 Y76.329 E42.60663
G1 X73.527 Y77.418 E42.67937
G1 X72.306 Y79.532 E42.84249
G1 X62.796 Y85.013 E43.57572
G1 X61.640 Y85.322 E43.65569
G1 X50.734 Y85.322 E44.38430
G1 X48.981 Y84.551 E44.51220
G1 X39.670 Y74.390 E45.43289
G1 X39.055 Y72.890 E45.54123
G1 X38.995 Y71.232 E45.65208
G1 X38.983 Y69.647 E45.75793
G1 X39.022 Y68.042 E45.86518
G1 X39.022 Y38.640 E47.82942
G1 X39.855 Y36.859 E47.96076
G1 X40.315 Y37.140 F9000.000
G1 X43.514 Y34.472 E48.23904 F1200.000
G1 X44.016 Y33.915 E48.28916
G1 X45.583 Y33.214 E48.40380
G1 X66.488 Y33.214 E49.80042
G1 X67.982 Y33.842 E49.90866
G1 X72.398 Y38.352 E50.33031 F1200.000
G1 X72.993 Y39.811 E50.43561
G1 X73.008 Y76.078 E52.85844
G1 X72.992 Y76.310 E52.87396
G1 X72.992 Y77.274 E52.93839
G1 X71.914 Y79.140 E53.08232
G1 X62.590 Y84.513 E53.80125
G1 X61.570 Y84.786 E53.87181
G1 X50.846 Y84.786 E54.58819
G1 X49.300 Y84.106 E54.70105
G1 X40.129 Y74.099 E55.60784
G1 X39.586 Y72.775 E55.70343
G1 X39.530 Y71.224 E55.80712
G1 X39.519 Y69.648 E55.91241
G1 X39.557 Y68.049 E56.01926
G1 X39.557 Y38.759 E57.97598
G1 X40.290 Y37.194 E58.09139
G1 X40.750 Y37.475 F9000.000
G1 X43.888 Y34.858 E58.36434 F1200.000
G1 X44.340 Y34.357 E58.40944
G1 X45.697 Y33.749 E58.50879
G1 X66.380 Y33.749 E59.89056
G1 X67.675 Y34.293 E59.98437 F1200.000
G1 X71.941 Y38.651 E60.39178
G1 X72.457 Y39.916 E60.48304
G1 X72.472 Y76.059 E62.89756
G1 X72.456 Y76.290 E62.91308
G1 X72.456 Y77.131 E62.96921
G1 X71.522 Y78.747 E63.09395
G1 X62.383 Y84.014 E63.79858
G1 X61.499 Y84.251 E63.85973
G1 X50.959 Y84.251 E64.56389
G1 X49.619 Y83.661 E64.66170
G1 X40.589 Y73.807 E65.55459
G1 X40.118 Y72.660 E65.63744
G1 X40.066 Y71.216 E65.73395
G1 X40.055 Y69.648 E65.83870
G1 X40.093 Y68.055 E65.94513
G1 X40.093 Y38.878 E67.89433
G1 X40.724 Y37.529 E67.99382
G1 X41.184 Y37.810 F9000.000
G1 X44.261 Y35.245 E68.26144 F1200.000
G1 X44.663 Y34.799 E68.30153
G1 X45.811 Y34.285 E68.38559
G1 X66.272 Y34.285 E69.75250
G1 X67.368 Y34.745 E69.83187
G1 X71.485 Y38.951 E70.22505 F1200.000
G1 X71.922 Y40.021 E70.30227
G1 X71.936 Y76.039 E72.70848
G1 X71.920 Y76.987 E72.77180
G1 X71.130 Y78.355 E72.87735
G1 X62.177 Y83.515 E73.56768
G1 X61.429 Y83.715 E73.61942
G1 X51.071 Y83.715 E74.31135
G1 X49.937 Y83.216 E74.39411
G1 X41.048 Y73.516 E75.27311
G1 X40.650 Y72.545 E75.34321
G1 X40.601 Y71.208 E75.43256
G1 X40.590 Y69.649 E75.53676
G1 X40.629 Y68.062 E75.64278
G1 X40.629 Y38.997 E77.58446
G1 X41.159 Y37.864 E77.66802
G1 X41.619 Y38.145 F9000.000
G1 X44.634 Y35.631 E77.93030 F1200.000
G1 X44.986 Y35.241 E77.96538
G1 X45.926 Y34.821 E78.03416
G1 X66.164 Y34.821 E79.38621
G1 X67.061 Y35.197 E79.45115 F1200.000
G1 X71.029 Y39.250 E79.83010
G1 X71.386 Y40.126 E79.89328
G1 X71.401 Y76.020 E82.29118
G1 X71.385 Y76.843 E82.34620
G1 X70.738 Y77.963 E82.43255
G1 X61.971 Y83.016 E83.10858
G1 X61.358 Y83.179 E83.15092
G1 X51.184 Y83.179 E83.83062
G1 X50.256 Y82.771 E83.89833
G1 X41.507 Y73.224 E84.76343
G1 X41.182 Y72.430 E84.82079
G1 X41.137 Y71.200 E84.90297
G1 X41.126 Y69.649 E85.00662
G1 X41.164 Y68.069 E85.11222
G1 X41.164 Y39.117 E87.04638
G1 X41.594 Y38.200 E87.11403
G1 X42.054 Y38.480 F9000.000
G1 X45.007 Y36.017 E87.37097 F1200.000
G1 X45.309 Y35.683 E87.40103
G1 X46.040 Y35.356 E87.45453
G1 X66.056 Y35.356 E88.79172
G1 X66.753 Y35.649 E88.84223
G1 X70.573 Y39.550 E89.20694 F1200.000
G1 X70.851 Y40.231 E89.25608
G1 X70.865 Y76.001 E91.64567
G1 X70.849 Y76.700 E91.69239
G1 X70.346 Y77.570 E91.75956
G1 X61.764 Y82.516 E92.42129
G1 X61.288 Y82.644 E92.45422
G1 X51.297 Y82.644 E93.12169
G1 X50.575 Y82.326 E93.17436
G1 X41.967 Y72.933 E94.02556
G1 X41.713 Y72.315 E94.07017
G1 X41.673 Y71.193 E94.14518
G1 X41.662 Y69.649 E94.24828
G1 X41.700 Y68.075 E94.35347
G1 X41.700 Y39.236 E96.28011
G1 X42.028 Y38.535 E96.33183
G1 X42.488 Y38.815 F9000.000
G1 X45.381 Y36.403 E96.58344 F1200.000
G1 X45.633 Y36.125 E96.60849
G1 X46.155 Y35.892 E96.64670
G1 X65.948 Y35.892 E97.96903
G1 X66.446 Y36.101 E98.00511 F1200.000
G1 X70.116 Y39.850 E98.35559
G1 X70.315 Y40.336 E98.39069
G1 X70.330 Y75.981 E100.77197
G1 X70.314 Y76.556 E100.81039
G1 X69.954 Y77.178 E100.85836
G1 X61.558 Y82.017 E101.50580
G1 X61.218 Y82.108 E101.52932
G1 X51.409 Y82.108 E102.18456
G1 X50.894 Y81.881 E102.22218
G1 X42.426 Y72.641 E103.05948
G1 X42.245 Y72.200 E103.09135
G1 X42.208 Y71.185 E103.15919
G1 X42.197 Y69.650 E103.26174
G1 X42.235 Y68.082 E103.36652
G1 X42.235 Y39.355 E105.28564
G1 X42.463 Y38.870 E105.32144
G1 X42.923 Y39.150 F9000.000
G1 X45.754 Y36.789 E105.56772 F1200.000
G1 X45.956 Y36.568 E105.58775
G1 X46.269 Y36.427 E105.61068
G1 X65.840 Y36.427 E106.91815
G1 X66.139 Y36.553 E106.93980
G1 X69.660 Y40.149 E107.27604 F1200.000
G1 X69.779 Y40.441 E107.29710
G1 X69.794 Y75.962 E109.67007
G1 X69.778 Y76.412 E109.70019
G1 X69.562 Y76.786 E109.72897
G1 X61.351 Y81.518 E110.36211
G1 X61.147 Y81.573 E110.37622
G1 X51.522 Y81.573 E111.01924
G1 X51.213 Y81.437 E111.04181
G1 X42.885 Y72.350 E111.86521
G1 X42.777 Y72.085 E111.88433
G1 X42.744 Y71.177 E111.94501
G1 X42.733 Y69.650 E112.04701
G1 X42.771 Y68.089 E112.15138
G1 X42.771 Y39.474 E114.06298
G1 X42.897 Y39.205 E114.08285
G1 X43.357 Y39.485 F9000.000
G1 X46.127 Y37.175 E114.32380 F1200.000
G1 X46.279 Y37.010 E114.33881
G1 X46.383 Y36.963 E114.34646
G1 X65.732 Y36.963 E115.63907
G1 X65.832 Y37.005 E115.64629 F1200.000
G1 X69.204 Y40.449 E115.96829
G1 X69.244 Y40.546 E115.97531
G1 X69.258 Y75.943 E118.33998
G1 X69.242 Y76.269 E118.36180
G1 X69.170 Y76.393 E118.37139
G1 X61.145 Y81.019 E118.99023
G1 X61.077 Y81.037 E118.99493
G1 X51.635 Y81.037 E119.62572
G1 X51.531 Y80.992 E119.63324
G1 X43.345 Y72.058 E120.44275
G1 X43.309 Y71.970 E120.44913
G1 X43.279 Y71.173 E120.50237
G1 X43.268 Y69.651 E120.60408
G1 X43.307 Y68.095 E120.70804
G1 X43.307 Y39.593 E122.61212
G1 X43.332 Y39.540 E122.61607
G1 E118.11607 F2400.00000
G92 E0
G1 X68.685 Y76.018 F9000.000
G1 E4.50000 F2400.00000
G1 X60.961 Y80.469 E5.09554 F1200.000
G1 X51.823 Y80.469 E5.70603
G1 X43.870 Y71.791 E6.49240
G1 X43.847 Y71.159 E6.53466
G1 X43.836 Y69.654 E6.63521
G1 X43.874 Y68.105 E6.73868
G1 X43.874 Y39.793 E8.63008
G1 X46.588 Y37.531 E8.86608
G1 X65.552 Y37.531 E10.13303
G1 X68.676 Y40.721 E10.43131
G1 X68.688 Y75.958 E12.78530
G1 X68.291 Y75.948 F9000.000
G1 X67.591 Y67.233 F9000.000
G1 X44.982 Y67.233 E14.29574 F1200.000
G1 X55.647 Y79.934 E15.40370
G1 X52.059 Y79.934 E15.64346
G1 X44.398 Y71.574 E16.40092
G1 X44.372 Y69.658 E16.52892
G1 X44.410 Y68.112 E16.63226
G1 X44.410 Y49.873 E17.85074
G1 X44.698 Y49.843 E17.87010
G1 X44.952 Y51.055 E17.95282
G1 X45.518 Y52.176 E18.03673
G1 X46.356 Y53.112 E18.12064
G1 X47.407 Y53.800 E18.20456
G1 X48.600 Y54.192 E18.28847
G1 X49.854 Y54.262 E18.37238
G1 X51.084 Y54.005 E18.45629
G1 X52.205 Y53.438 E18.54021
G1 X53.141 Y52.601 E18.62412
G1 X53.829 Y51.550 E18.70803
G1 X54.195 Y50.435 E18.78639
G1 X54.465 Y50.479 E18.80470
G1 X54.465 Y55.349 E19.13007
G1 X64.740 Y55.349 E19.81644
G1 X64.740 Y39.570 E20.87056
G1 X54.465 Y39.570 E21.55693
G1 X54.465 Y48.529 E22.15544
G1 X54.177 Y48.559 E22.17481
G1 X54.034 Y47.873 E22.22165
G1 X53.467 Y46.752 E22.30556
G1 X52.630 Y45.815 E22.38947
G1 X51.579 Y45.128 E22.47338
G1 X50.385 Y44.736 E22.55730
G1 X49.131 Y44.666 E22.64121
G1 X47.902 Y44.923 E22.72512
G1 X46.781 Y45.489 E22.80903
G1 X45.844 Y46.327 E22.89295
G1 X45.157 Y47.378 E22.97686
G1 X44.765 Y48.571 E23.06077
G1 X44.723 Y49.327 E23.11133
G1 X44.410 Y49.318 E23.13221
G1 X44.410 Y40.044 E23.75177
G1 X46.782 Y38.066 E23.95805
G1 X65.327 Y38.066 E25.19699
G1 X68.140 Y40.940 E25.46564
G1 X68.155 Y75.705 E27.78814
G1 X60.818 Y79.934 E28.35386
G1 X56.843 Y79.934 E28.61942
G1 X67.552 Y67.279 E29.72694
G1 X65.275 Y55.885 F9000.000
G1 X65.275 Y39.035 E30.85261 F1200.000
G1 X53.930 Y39.035 E31.61056
G1 X53.930 Y46.466 E32.10699
G1 X52.982 Y45.406 E32.20197
G1 X51.813 Y44.641 E32.29531
G1 X50.485 Y44.205 E32.38864
G1 X49.090 Y44.127 E32.48198
G1 X47.723 Y44.413 E32.57531
G1 X46.476 Y45.043 E32.66864
G1 X45.435 Y45.975 E32.76198
G1 X45.175 Y46.371 E32.79363
G1 X44.946 Y46.303 E32.80964
G1 X44.946 Y40.295 E33.21100
G1 X46.976 Y38.602 E33.38757
G1 X65.102 Y38.602 E34.59851
G1 X67.605 Y41.159 E34.83752
G1 X67.615 Y66.697 E36.54365
G1 X44.946 Y66.697 E38.05811
G1 X44.946 Y52.339 E39.01732
G1 X46.004 Y53.522 E39.12332
G1 X47.173 Y54.287 E39.21665
G1 X48.500 Y54.723 E39.30999
G1 X49.895 Y54.800 E39.40332
G1 X51.262 Y54.515 E39.49665
G1 X52.509 Y53.884 E39.58999
G1 X53.551 Y52.953 E39.68332
G1 X53.700 Y52.724 E39.70156
G1 X53.930 Y52.793 E39.71757
G1 X53.930 Y55.885 E39.92411
G1 X65.215 Y55.885 E40.67805
G1 X44.948 Y68.026 F9000.000
G1 X54.498 Y79.398 E41.67012 F1200.000
G1 X52.294 Y79.398 E41.81736
G1 X44.926 Y71.358 E42.54591
G1 X44.908 Y69.663 E42.65913
G1 X44.947 Y68.086 E42.76453
G1 E38.26453 F2400.00000
G92 E0
G1 X57.998 Y79.398 F9000.000
G1 E4.50000 F2400.00000
G1 X67.616 Y68.033 E5.49467 F1200.000
G1 X67.619 Y75.396 E5.98655
G1 X60.675 Y79.398 E6.52201
G1 X58.058 Y79.398 E6.69683
G1 E2.19683 F2400.00000
G92 E0
G1 X55.001 Y54.813 F9000.000
G1 E4.50000 F2400.00000
G1 X55.001 Y40.106 E5.48255 F1200.000
G1 X64.204 Y40.106 E6.09736
G1 X64.204 Y54.813 E7.07991
G1 X55.061 Y54.813 E7.69071
G1 X54.601 Y54.813 F9000.000
G1 X52.718 Y52.261 F9000.000
G1 X51.900 Y52.992 E7.76398 F1200.000
G1 X50.905 Y53.495 E7.83847
G1 X49.814 Y53.723 E7.91297
G1 X48.700 Y53.661 E7.98746
G1 X47.641 Y53.313 E8.06195
G1 X46.708 Y52.703 E8.13644
G1 X45.965 Y51.871 E8.21093
G1 X45.462 Y50.876 E8.28542
G1 X45.233 Y49.785 E8.35991
G1 X45.296 Y48.672 E8.43440
G1 X45.644 Y47.612 E8.50889
G1 X46.254 Y46.679 E8.58338
G1 X47.085 Y45.936 E8.65788
G1 X48.080 Y45.433 E8.73237
G1 X48.206 Y45.407 E8.74092
G1 X49.172 Y45.205 E8.80686 F1200.000
G1 X50.285 Y45.267 E8.88135
G1 X51.344 Y45.615 E8.95584
G1 X52.277 Y46.225 E9.03033
G1 X53.021 Y47.056 E9.10482
G1 X53.524 Y48.051 E9.17931
G1 X53.752 Y49.143 E9.25380
G1 X53.690 Y50.256 E9.32829
G1 X53.342 Y51.315 E9.40278
G1 X52.754 Y52.214 E9.47449
G1 X52.833 Y52.644 F9000.000
G1 X46.131 Y67.769 F9000.000
G1 X66.436 Y67.769 E10.83098 F1200.000
G1 X56.244 Y79.812 E11.88496
G1 X46.169 Y67.815 E12.93155
G1 X46.039 Y67.379 F9000.000
G1 X45.535 Y66.376 F9000.000
G1 X45.267 Y66.108 E12.95705 F1200.000
G1 X45.267 Y65.343 E13.00869
G1 X46.300 Y66.376 E13.10722
G1 X47.065 Y66.376 E13.15886
G1 X45.267 Y64.578 E13.33042
G1 X45.267 Y63.813 E13.38206
G1 X47.830 Y66.376 E13.62665
G1 X48.595 Y66.376 E13.67829
G1 X45.267 Y63.048 E13.99591
G1 X45.267 Y62.283 E14.04755
G1 X49.361 Y66.376 E14.43820
G1 X50.126 Y66.376 E14.48984
G1 X45.267 Y61.517 E14.95352
G1 X45.267 Y60.752 E15.00516
G1 X50.891 Y66.376 E15.54186
G1 X51.656 Y66.376 E15.59350
G1 X45.267 Y59.987 E16.20324
G1 X45.267 Y59.222 E16.25488
G1 X52.421 Y66.376 E16.93764
G1 X53.186 Y66.376 E16.98928
G1 X45.267 Y58.457 E17.74508
G1 X45.267 Y57.691 E17.79672
G1 X53.952 Y66.376 E18.62554
G1 X54.717 Y66.376 E18.67718
G1 X45.267 Y56.926 E19.57903
G1 X45.267 Y56.161 E19.63067
G1 X55.482 Y66.376 E20.60556
G1 X56.247 Y66.376 E20.65720
G1 X45.267 Y55.396 E21.70511
G1 X45.267 Y54.631 F9000.000
G1 X57.012 Y66.376 E22.82605 F1200.000
G1 X57.778 Y66.376 E22.87769
G1 X45.267 Y53.865 E24.07166
G1 X46.484 Y54.317 F9000.000
G1 X58.543 Y66.376 E25.22253 F1200.000
G1 X59.308 Y66.376 E25.27417
G1 X47.810 Y54.878 E26.37150
G1 X48.764 Y55.066 E26.43707
G1 X60.073 Y66.376 E27.51645
G1 X60.838 Y66.376 E27.56809
G1 X49.574 Y55.111 E28.64316
G1 X50.259 Y55.032 E28.68973
G1 X61.604 Y66.376 E29.77241
G1 X62.369 Y66.376 E29.82405
G1 X50.892 Y54.899 E30.91935
G1 X53.334 Y53.515 F9000.000
G1 X53.608 Y53.789 E30.94549 F1200.000
G1 X53.608 Y54.554 E30.99713
G1 X52.930 Y53.877 E31.06181
G1 X52.496 Y54.208 E31.09866
G1 X53.608 Y55.319 E31.20477
G1 X53.608 Y56.085 E31.25641
G1 X51.988 Y54.465 E31.41103
G1 X51.480 Y54.721 E31.44947
G1 X63.134 Y66.376 E32.56175
G1 X63.899 Y66.376 E32.61339
G1 X53.730 Y56.206 E33.58395
G1 X54.495 Y56.206 E33.63559
G1 X64.664 Y66.376 E34.60615
G1 X65.430 Y66.376 E34.65779
G1 X55.260 Y56.206 E35.62835
G1 X56.025 Y56.206 E35.67999
G1 X66.195 Y66.376 E36.65055
G1 X66.960 Y66.376 E36.70219
G1 X56.791 Y56.206 E37.67275
G1 X57.556 Y56.206 E37.72439
G1 X67.293 Y65.944 E38.65375
G1 X67.293 Y65.178 E38.70541
G1 X58.321 Y56.206 E39.56172
G1 X59.086 Y56.206 E39.61336
G1 X67.293 Y64.413 E40.39660
G1 X67.293 Y63.647 E40.44826
G1 X59.851 Y56.206 E41.15844
G1 X60.617 Y56.206 E41.21008
G1 X67.292 Y62.882 E41.84720
G1 X67.292 Y62.116 E41.89886
G1 X61.382 Y56.206 E42.46293
G1 X62.147 Y56.206 E42.51457
G1 X67.292 Y61.351 E43.00557
G1 X67.291 Y60.585 E43.05723
G1 X62.912 Y56.206 E43.47517
G1 X63.677 Y56.206 E43.52681
G1 X67.291 Y59.820 E43.87170
G1 X67.291 Y59.054 E43.92336
G1 X64.442 Y56.206 E44.19518
G1 X65.208 Y56.206 E44.24682
G1 X67.290 Y58.289 E44.44558
