; generated by Slic3r 1.2.9 on 2017-02-25 at 20:25:47

; external perimeters extrusion width = 0.40mm
; perimeters extrusion width = 0.68mm
; infill extrusion width = 1.28mm
; solid infill extrusion width = 0.68mm
; top infill extrusion width = 0.68mm
; support material extrusion width = 0.40mm

M107
M190 S70 ; set bed temperature
M104 S240 ; set temperature
G28 ; home all axes
G1 Z5 F5000 ; lift nozzle

M109 S240 ; wait for temperature to be reached
G21 ; set units to millimeters
G90 ; use absolute coordinates
M82 ; use absolute distances for extrusion
G92 E0
G1 Z0.300 F9000.000
G1 E-4.50000 F2400.00000
G92 E0
G1 X36.772 Y32.820 F9000.000
G1 E4.50000 F2400.00000
G1 X38.540 Y31.242 E4.65833 F1200.000
G1 X40.730 Y30.336 E4.81666
G1 X42.299 Y30.160 E4.92216
G1 X67.699 Y30.160 E6.61901
G1 X70.036 Y30.557 E6.77734
G1 X72.110 Y31.704 E6.93567 F1200.000
G1 X73.688 Y33.471 E7.09400
G1 X74.594 Y35.662 E7.25233
G1 X74.770 Y37.231 E7.35781
G1 X74.772 Y80.769 E10.26641
G1 X74.375 Y83.105 E10.42474
G1 X73.228 Y85.180 E10.58307
G1 X71.460 Y86.758 E10.74140
G1 X69.270 Y87.664 E10.89973
G1 X67.701 Y87.840 E11.00525
G1 X42.299 Y87.840 E12.70222
G1 X39.963 Y87.443 E12.86055
G1 X37.889 Y86.296 E13.01888
G1 X36.310 Y84.529 E13.17721
G1 X35.404 Y82.338 E13.33554
G1 X35.228 Y80.769 E13.44104
G1 X35.228 Y37.231 E16.34964
G1 X35.625 Y34.894 E16.50797
G1 X36.743 Y32.873 E16.66229
G1 X37.255 Y33.100 F9000.000
G1 X37.303 Y33.017 E16.66870 F1200.000
G1 X39.053 Y31.559 E16.82087
G1 X42.299 Y30.695 E17.04530
G1 X67.699 Y30.695 E18.74216
G1 X69.942 Y31.092 E18.89433
G1 X71.913 Y32.235 E19.04650 F1200.000
G1 X73.371 Y33.984 E19.19867
G1 X74.235 Y37.231 E19.42308
G1 X74.236 Y80.769 E22.33168
G1 X73.840 Y83.012 E22.48385
G1 X72.697 Y84.982 E22.63602
G1 X70.948 Y86.441 E22.78820
G1 X67.701 Y87.305 E23.01264
G1 X42.299 Y87.305 E24.70961
G1 X40.056 Y86.908 E24.86178
G1 X38.086 Y85.765 E25.01396
G1 X36.627 Y84.016 E25.16613
G1 X35.764 Y80.769 E25.39056
G1 X35.764 Y37.231 E28.29916
G1 X36.160 Y34.988 E28.45133
G1 X37.225 Y33.152 E28.59308
G1 X38.244 Y34.090 F9000.000
G1 X40.191 Y32.142 E28.77705 F1200.000
G1 X69.807 Y32.142 E30.75551
G1 X72.788 Y35.123 E31.03712
G1 X72.788 Y65.594 E33.07276 F1200.000
G1 X71.971 Y66.411 E33.14990
G1 X71.971 Y66.855 E33.17956
G1 X72.760 Y67.641 E33.25397
G1 X72.794 Y82.869 E34.27124
G1 X69.812 Y85.858 E34.55329
G1 X40.191 Y85.858 E36.53210
G1 X37.211 Y82.877 E36.81370
G1 X37.211 Y35.123 E40.00391
G1 X38.202 Y34.132 E40.09755
G1 X38.623 Y34.468 F9000.000
G1 X40.413 Y32.678 E40.26669 F1200.000
G1 X69.585 Y32.678 E42.21551
G1 X72.252 Y35.345 E42.46748 F1200.000
G1 X72.252 Y65.372 E44.47347
G1 X71.484 Y66.140 E44.54602
G1 X71.403 Y66.337 E44.56026
G1 X71.403 Y66.928 E44.59975
G1 X71.484 Y67.125 E44.61401
G1 X72.225 Y67.864 E44.68387
G1 X72.258 Y82.648 E45.67150
G1 X69.590 Y85.322 E45.92387
G1 X40.413 Y85.322 E47.87301
G1 X37.746 Y82.655 E48.12497
G1 X37.746 Y35.345 E51.28554
G1 X38.581 Y34.511 E51.36435
G1 X39.002 Y34.847 F9000.000
G1 X40.635 Y33.214 E51.51867 F1200.000
G1 X69.363 Y33.214 E53.43785
G1 X71.716 Y35.567 E53.66017
G1 X71.716 Y65.151 E55.63653 F1200.000
G1 X70.948 Y65.918 E55.70907
G1 X70.867 Y66.115 E55.72331
G1 X70.867 Y67.151 E55.79247
G1 X70.949 Y67.348 E55.80673
G1 X71.689 Y68.087 E55.87664
G1 X71.722 Y82.427 E56.83462
G1 X69.367 Y84.786 E57.05730
G1 X40.635 Y84.786 E58.97677
G1 X38.282 Y82.433 E59.19909
G1 X38.282 Y35.567 E62.33002
G1 X38.959 Y34.890 E62.39401
G1 X39.380 Y35.226 F9000.000
G1 X40.857 Y33.749 E62.53351 F1200.000
G1 X69.141 Y33.749 E64.42305
G1 X71.181 Y35.789 E64.61573 F1200.000
G1 X71.181 Y64.929 E66.56243
G1 X70.413 Y65.697 E66.63498
G1 X70.331 Y65.893 E66.64922
G1 X70.331 Y67.373 E66.74805
G1 X70.413 Y67.570 E66.76230
G1 X71.154 Y68.310 E66.83226
G1 X71.186 Y82.206 E67.76060
G1 X69.145 Y84.251 E67.95359
G1 X40.857 Y84.251 E69.84339
G1 X38.818 Y82.211 E70.03607
G1 X38.818 Y35.789 E73.13735
G1 X39.338 Y35.268 E73.18652
G1 X39.759 Y35.605 F9000.000
G1 X41.079 Y34.285 E73.31120 F1200.000
G1 X68.919 Y34.285 E75.17110
G1 X70.645 Y36.011 E75.33413
G1 X70.645 Y64.707 E77.25120 F1200.000
G1 X69.877 Y65.475 E77.32374
G1 X69.796 Y65.672 E77.33798
G1 X69.796 Y67.595 E77.46648
G1 X69.877 Y67.792 E77.48073
G1 X70.619 Y68.532 E77.55074
G1 X70.650 Y81.985 E78.44944
G1 X68.923 Y83.715 E78.61273
G1 X41.079 Y83.715 E80.47287
G1 X39.353 Y81.989 E80.63591
G1 X39.353 Y36.011 E83.70754
G1 X39.717 Y35.647 E83.74189
G1 X40.138 Y35.983 F9000.000
G1 X41.301 Y34.821 E83.85175 F1200.000
G1 X68.698 Y34.821 E85.68200
G1 X70.109 Y36.232 E85.81540 F1200.000
G1 X70.109 Y64.485 E87.70282
G1 X69.342 Y65.253 E87.77536
G1 X69.260 Y65.450 E87.78960
G1 X69.260 Y67.817 E87.94776
G1 X69.342 Y68.014 E87.96202
G1 X70.084 Y68.755 E88.03207
G1 X70.113 Y81.764 E88.90113
G1 X68.701 Y83.179 E89.03473
G1 X41.301 Y83.179 E90.86521
G1 X39.889 Y81.768 E90.99860
G1 X39.889 Y36.232 E94.04059
G1 X40.096 Y36.026 E94.06012
G1 X40.517 Y36.362 F9000.000
G1 X41.523 Y35.356 E94.15516 F1200.000
G1 X68.476 Y35.356 E95.95576
G1 X69.574 Y36.454 E96.05951
G1 X69.574 Y64.263 E97.91729 F1200.000
G1 X68.806 Y65.031 E97.98984
G1 X68.724 Y65.228 E98.00408
G1 X68.724 Y68.039 E98.19190
G1 X68.806 Y68.237 E98.20616
G1 X69.549 Y68.978 E98.27626
G1 X69.577 Y81.543 E99.11568
G1 X68.479 Y82.644 E99.21959
G1 X41.523 Y82.644 E101.02040
G1 X40.424 Y81.546 E101.12415
G1 X40.424 Y36.454 E104.13650
G1 X40.474 Y36.404 E104.14120
G1 X40.960 Y36.676 F9000.000
G1 X41.744 Y35.892 E104.21531 F1200.000
G1 X68.254 Y35.892 E105.98627
G1 X69.038 Y36.676 E106.06038 F1200.000
G1 X69.038 Y64.041 E107.88852
G1 X68.270 Y64.809 E107.96106
G1 X68.189 Y65.006 E107.97530
G1 X68.189 Y68.262 E108.19279
G1 X68.271 Y68.459 E108.20705
G1 X69.014 Y69.200 E108.27720
G1 X69.041 Y81.322 E109.08697
G1 X68.256 Y82.108 E109.16119
G1 X41.744 Y82.108 E110.93233
G1 X40.960 Y81.324 E111.00644
G1 X40.960 Y36.736 E113.98514
G1 X41.496 Y36.898 F9000.000
G1 X41.966 Y36.427 E114.02960 F1200.000
G1 X68.032 Y36.427 E115.77093
G1 X68.503 Y36.898 E115.81539
G1 X68.503 Y63.819 E117.61388 F1200.000
G1 X68.032 Y64.290 E117.65835
G1 X67.967 Y64.290 E117.66269
G1 X67.653 Y64.604 E117.69234
G1 X67.653 Y68.640 E117.96197
G1 X67.967 Y68.954 E117.99162
G1 X68.008 Y68.954 E117.99438
G1 X68.479 Y69.423 E118.03878
G1 X68.505 Y81.101 E118.81891
G1 X68.034 Y81.573 E118.86344
G1 X41.966 Y81.573 E120.60491
G1 X41.496 Y81.102 E120.64938
G1 X41.496 Y36.958 E123.59843
G1 E119.09843 F2400.00000
G92 E0
G1 X67.118 Y64.068 F9000.000
G1 E4.50000 F2400.00000
G1 X67.118 Y69.176 E4.84120 F1200.000
G1 X67.431 Y69.489 E4.87085
G1 X67.787 Y69.489 E4.89460
G1 X67.944 Y69.646 E4.90939
G1 X67.969 Y80.880 E5.65988
G1 X67.812 Y81.037 E5.67473
G1 X42.188 Y81.037 E7.38653
G1 X42.031 Y80.880 E7.40135
G1 X42.031 Y37.120 E10.32477
G1 X42.188 Y36.963 E10.33960
G1 X67.810 Y36.963 E12.05127
G1 X67.967 Y37.120 E12.06610
G1 X67.967 Y63.598 E13.83495
G1 X67.810 Y63.754 E13.84977
G1 X67.431 Y63.754 E13.87507
G1 X67.160 Y64.026 E13.90071
G1 E9.40071 F2400.00000
G92 E0
G1 X66.550 Y70.057 F9000.000
G1 E4.50000 F2400.00000
G1 X67.377 Y70.057 E4.55525 F1200.000
G1 X67.400 Y80.469 E5.25083
G1 X42.599 Y80.469 E6.90767
G1 X42.599 Y37.531 E9.77619
G1 X67.399 Y37.531 E11.43296
G1 X67.399 Y63.187 E13.14691
G1 X66.550 Y63.187 E13.20366
G1 X66.550 Y69.997 E13.65864
G1 X66.550 Y70.457 F9000.000
G1 X66.014 Y70.593 F9000.000
G1 X66.842 Y70.593 E13.71397 F1200.000
G1 X66.863 Y79.934 E14.33798
G1 X43.135 Y79.934 E15.92318
G1 X43.135 Y38.066 E18.72013
G1 X54.372 Y38.066 E19.47084
G1 X43.706 Y50.767 E20.57881
G1 X66.316 Y50.767 E22.08924
G1 X55.567 Y38.066 E23.20077
G1 X66.864 Y38.066 E23.95540
G1 X66.864 Y62.651 E25.59779
G1 X66.014 Y62.651 E25.65453
G1 X66.014 Y70.533 E26.18108
G1 E21.68108 F2400.00000
G92 E0
G1 X43.670 Y49.977 F9000.000
G1 E4.50000 F2400.00000
G1 X43.670 Y38.602 E5.25990 F1200.000
G1 X53.223 Y38.602 E5.89805
G1 X43.709 Y49.931 E6.88636
G1 E2.38636 F2400.00000
G92 E0
G1 X56.722 Y38.602 F9000.000
G1 E4.50000 F2400.00000
G1 X66.328 Y38.602 E5.14170 F1200.000
G1 X66.328 Y49.952 E5.89996
G1 X56.761 Y38.648 E6.88930
G1 E2.38930 F2400.00000
G92 E0
G1 X52.654 Y62.115 F9000.000
G1 E4.50000 F2400.00000
G1 X52.654 Y78.965 E5.62568 F1200.000
G1 X65.270 Y78.965 E6.46846
G1 X65.270 Y71.128 E6.99202
G1 X66.308 Y71.128 E7.06136
G1 X66.327 Y79.398 E7.61381
G1 X43.670 Y79.398 E9.12736
G1 X43.670 Y51.303 E11.00428
G1 X66.328 Y51.303 E12.51792
G1 X66.328 Y62.115 E13.24027
G1 X52.714 Y62.115 E14.14972
G1 X53.726 Y63.187 F9000.000
G1 X64.199 Y63.187 E14.84938 F1200.000
G1 X64.199 Y77.894 E15.83193
G1 X53.726 Y77.894 E16.53158
G1 X53.726 Y63.247 E17.51012
G1 X53.726 Y62.787 F9000.000
G1 X53.190 Y62.651 F9000.000
G1 X64.734 Y62.651 E18.28134 F1200.000
G1 X64.734 Y78.430 E19.33545
G1 X53.190 Y78.430 E20.10668
G1 X53.190 Y62.711 E21.15678
G1 X44.856 Y50.231 F9000.000
G1 X54.969 Y38.188 E22.20738 F1200.000
G1 X65.161 Y50.231 E23.26136
G1 X44.916 Y50.231 E24.61385
G1 X44.498 Y50.052 F9000.000
G1 X43.992 Y48.593 F9000.000
G1 X44.239 Y48.841 E24.63770 F1200.000
G1 X44.607 Y48.434 E24.67505
G1 X43.992 Y47.820 E24.73433
G1 X43.992 Y47.046 E24.78710
G1 X44.960 Y48.014 E24.88044
G1 X45.313 Y47.593 E24.91789
G1 X43.992 Y46.273 E25.04529
G1 X43.992 Y45.499 E25.09805
G1 X45.666 Y47.173 E25.25952
G1 X46.019 Y46.753 E25.29697
G1 X43.992 Y44.726 E25.49249
G1 X43.992 Y43.952 E25.54525
G1 X46.372 Y46.332 E25.77483
G1 X46.725 Y45.912 E25.81228
G1 X43.992 Y43.179 E26.07593
G1 X43.992 Y42.405 E26.12869
G1 X47.078 Y45.491 E26.42639
G1 X47.431 Y45.071 E26.46384
G1 X43.992 Y41.632 E26.79560
G1 X43.992 Y40.859 E26.84837
G1 X47.784 Y44.651 E27.21419
G1 X48.137 Y44.230 E27.25164
G1 X43.992 Y40.085 E27.65152
G1 X43.992 Y39.312 E27.70428
G1 X48.490 Y43.810 E28.13823
G1 X48.843 Y43.389 E28.17568
G1 X44.378 Y38.924 E28.60648
G1 X45.151 Y38.924 E28.65925
G1 X49.196 Y42.969 E29.04950
G1 X49.549 Y42.548 E29.08695
G1 X45.925 Y38.924 E29.43664
G1 X46.698 Y38.924 E29.48940
G1 X49.902 Y42.128 E29.79853
G1 X50.255 Y41.708 E29.83598
G1 X47.471 Y38.924 E30.10455
G1 X48.245 Y38.924 E30.15732
G1 X50.608 Y41.287 E30.38533
G1 X50.962 Y40.867 E30.42278
G1 X49.018 Y38.924 E30.61024
G1 X49.792 Y38.924 E30.66300
G1 X51.315 Y40.446 E30.80990
G1 X51.668 Y40.026 E30.84735
G1 X50.565 Y38.924 E30.95369
G1 X51.339 Y38.924 E31.00645
G1 X52.021 Y39.606 E31.07223
G1 X52.112 Y38.924 E31.11916
G1 X52.374 Y39.185 E31.14438
G1 E26.64438 F2400.00000
G92 E0
G1 X57.695 Y38.924 F9000.000
G1 E4.50000 F2400.00000
G1 X66.006 Y47.235 E5.33378 F1200.000
G1 X66.006 Y46.430 E5.39085
G1 X58.500 Y38.924 E6.14393
G1 X59.304 Y38.924 E6.20099
G1 X66.006 Y45.626 E6.87338
G1 X66.006 Y44.821 E6.93044
G1 X60.108 Y38.924 E7.52214
G1 X60.913 Y38.924 E7.57920
G1 X66.006 Y44.017 E8.09019
G1 X66.006 Y43.213 E8.14725
G1 X61.717 Y38.924 E8.57755
G1 X62.522 Y38.924 E8.63461
G1 X66.006 Y42.408 E8.98421
G1 X66.006 Y41.604 E9.04127
G1 X63.326 Y38.924 E9.31018
G1 X64.130 Y38.924 E9.36724
G1 X66.006 Y40.800 E9.55544
G1 X66.006 Y39.995 E9.61251
G1 X64.935 Y38.924 E9.72001
G1 X65.739 Y38.924 E9.77708
G1 X66.006 Y39.191 E9.80389
G1 X61.160 Y43.193 F9000.000
G1 X66.006 Y48.039 E10.29004 F1200.000
G1 X65.589 Y48.426 E10.33042
G1 X65.986 Y48.823 E10.37031
G1 X66.006 Y51.892 F9000.000
G1 X65.739 Y51.624 E10.39580 F1200.000
G1 X64.974 Y51.624 E10.44735
G1 X66.006 Y52.656 E10.54574
G1 X66.006 Y53.421 E10.59730
G1 X64.210 Y51.624 E10.76860
G1 X63.445 Y51.624 E10.82015
G1 X66.006 Y54.185 E11.06436
G1 X66.006 Y54.950 E11.11592
G1 X62.681 Y51.624 E11.43304
G1 X61.916 Y51.624 E11.48459
G1 X66.006 Y55.714 E11.87462
G1 X66.006 Y56.479 E11.92617
G1 X61.152 Y51.624 E12.38911
G1 X60.387 Y51.624 E12.44066
G1 X66.006 Y57.243 E12.97651
G1 X66.006 Y58.008 E13.02806
G1 X59.623 Y51.624 E13.63681
G1 X58.858 Y51.624 E13.68837
G1 X66.006 Y58.773 E14.37003
G1 X66.006 Y59.537 E14.42158
G1 X58.093 Y51.624 E15.17615
G1 X57.329 Y51.624 E15.22771
G1 X66.006 Y60.302 E16.05519
G1 X66.006 Y61.066 E16.10674
G1 X56.564 Y51.624 E17.00713
G1 X55.800 Y51.624 E17.05868
G1 X65.969 Y61.794 E18.02844
G1 X65.205 Y61.794 E18.07999
G1 X55.035 Y51.624 E19.04975
G1 X54.271 Y51.624 E19.10130
G1 X64.440 Y61.794 E20.07106
G1 X63.675 Y61.794 E20.12262
G1 X53.506 Y51.624 E21.09237
G1 X52.742 Y51.624 E21.14393
G1 X62.911 Y61.794 E22.11368
G1 X62.146 Y61.794 E22.16524
G1 X51.977 Y51.624 E23.13500
G1 X51.212 Y51.624 E23.18655
G1 X61.382 Y61.794 E24.15631
G1 X60.617 Y61.794 E24.20786
G1 X50.448 Y51.624 E25.17762
G1 X49.683 Y51.624 E25.22917
G1 X59.853 Y61.794 E26.19893
G1 X59.088 Y61.794 E26.25049
G1 X48.919 Y51.624 E27.22024
G1 X48.154 Y51.624 E27.27180
G1 X58.324 Y61.794 E28.24156
G1 X57.559 Y61.794 E28.29311
G1 X47.390 Y51.624 E29.26287
G1 X46.625 Y51.624 E29.31442
G1 X56.794 Y61.794 E30.28418
G1 X56.030 Y61.794 E30.33573
G1 X45.860 Y51.624 E31.30549
G1 X45.096 Y51.624 E31.35705
G1 X55.265 Y61.794 E32.32680
G1 X54.501 Y61.794 E32.37836
G1 X44.331 Y51.624 E33.34812
G1 X43.992 Y52.050 E33.38480
G1 X53.736 Y61.794 E34.31401
G1 X52.972 Y61.794 E34.36556
G1 X43.992 Y52.814 E35.22186
G1 X43.992 Y53.579 E35.27342
G1 X52.333 Y61.919 E36.06880
G1 X52.333 Y62.684 E36.12035
G1 X43.992 Y54.343 E36.91573
G1 X43.992 Y55.108 E36.96729
G1 X52.333 Y63.449 E37.76267
G1 X52.333 Y64.213 E37.81422
G1 X43.992 Y55.872 E38.60960
G1 X43.992 Y56.637 E38.66116
G1 X52.333 Y64.978 E39.45654
G1 X52.333 Y65.742 E39.50809
G1 X43.992 Y57.401 E40.30347
G1 X43.992 Y58.166 E40.35503
G1 X52.333 Y66.507 E41.15041
G1 X52.333 Y67.271 E41.20196
G1 X43.992 Y58.931 E41.99734
G1 X43.992 Y59.695 E42.04889
G1 X52.333 Y68.036 E42.84428
G1 X52.333 Y68.800 E42.89583
G1 X43.992 Y60.460 E43.69121
G1 X43.992 Y61.224 E43.74276
G1 X52.333 Y69.565 E44.53814
G1 X52.333 Y70.330 E44.58970
G1 X43.992 Y61.989 E45.38508
G1 X43.992 Y62.753 E45.43663
G1 X52.333 Y71.094 E46.23201
G1 X52.333 Y71.859 E46.28357
G1 X43.992 Y63.518 E47.07895
G1 X43.992 Y64.282 E47.13050
G1 X52.333 Y72.623 E47.92588
G1 X52.333 Y73.388 E47.97744
G1 X43.992 Y65.047 E48.77282
G1 X43.992 Y65.812 E48.82437
G1 X52.333 Y74.152 E49.61975
G1 X52.333 Y74.917 E49.67131
G1 X43.992 Y66.576 E50.46669
G1 X43.992 Y67.341 E50.51824
G1 X52.333 Y75.682 E51.31362
G1 X52.333 Y76.446 E51.36518
G1 X43.992 Y68.105 E52.16056
G1 X43.992 Y68.870 E52.21211
G1 X52.333 Y77.211 E53.00749
G1 X52.333 Y77.975 E53.05905
G1 X43.992 Y69.634 E53.85443
G1 X43.992 Y70.399 E53.90598
G1 X52.333 Y78.740 E54.70136
G1 X51.905 Y79.076 E54.73807
G1 X43.992 Y71.164 E55.49264
G1 X43.992 Y71.928 E55.54419
G1 X51.140 Y79.076 E56.22585
G1 X50.376 Y79.076 E56.27741
G1 X43.992 Y72.693 E56.88615
G1 X43.992 Y73.457 E56.93771
G1 X49.611 Y79.076 E57.47355
G1 X48.847 Y79.076 E57.52510
G1 X43.992 Y74.222 E57.98803
G1 X43.992 Y74.986 E58.03959
G1 X48.082 Y79.076 E58.42961
G1 X47.317 Y79.076 E58.48117
G1 X43.992 Y75.751 E58.79828
G1 X43.992 Y76.515 E58.84983
G1 X46.553 Y79.076 E59.09404
G1 X45.788 Y79.076 E59.14559
G1 X43.992 Y77.280 E59.31689
G1 X43.992 Y78.045 E59.36844
G1 X45.024 Y79.076 E59.46683
G1 X44.259 Y79.076 E59.51839
G1 X43.992 Y78.809 E59.54387
G1 X65.798 Y79.130 F9000.000
G1 X65.789 Y71.396 E60.63931 F1200.000
G1 X65.374 Y70.861 F9000.000
G1 X65.374 Y62.383 E61.84005 F1200.000
G1 Z0.300 F9000.000
M104 S220 ; set temperature
M140 S60 ; wait for bed temperature to be reached
G1 Z0.400 F9000.000
G1 X45.070 Y50.131 F9000.000
G1 X54.969 Y38.344 E62.08231 F1800.000
G1 X64.945 Y50.131 E62.32534
G1 X45.130 Y50.131 E62.63719
G1 X44.713 Y49.952 F9000.000
G1 X53.307 Y62.768 F9000.000
G1 X64.617 Y62.768 E62.94685 F3600.000
G1 X64.617 Y78.313 E63.37244
G1 X53.307 Y78.313 E63.68210
G1 X53.307 Y62.828 E64.10605
G1 X53.826 Y63.287 F9000.000
G1 X64.099 Y63.287 E64.26773 F1800.000
G1 X64.099 Y77.794 E64.49605
G1 X53.826 Y77.794 E64.65772
G1 X53.826 Y63.347 E64.88510
G1 X53.826 Y62.887 F9000.000
G1 X52.649 Y62.110 F9000.000
G1 X52.649 Y78.971 E65.34676 F3600.000
G1 X65.276 Y78.971 E65.69247
G1 X65.276 Y71.134 E65.90704
G1 X66.302 Y71.134 E65.93514
G1 X66.321 Y79.392 E66.16123
G1 X43.676 Y79.392 E66.78121
G1 X43.676 Y51.309 E67.55011
G1 X66.322 Y51.309 E68.17013
G1 X66.322 Y62.110 E68.46585
G1 X52.709 Y62.110 E68.83857
G1 X66.322 Y49.936 F9000.000
