; generated by Slic3r 1.2.9 on 2017-02-26 at 15:43:07

; external perimeters extrusion width = 0.40mm
; perimeters extrusion width = 0.68mm
; infill extrusion width = 1.28mm
; solid infill extrusion width = 0.68mm
; top infill extrusion width = 0.68mm
; support material extrusion width = 0.40mm

M107
M190 S70 ; set bed temperature
M104 S240 ; set temperature
G28 ; home all axes
G1 Z5 F5000 ; lift nozzle

M109 S240 ; wait for temperature to be reached
G21 ; set units to millimeters
G90 ; use absolute coordinates
M82 ; use absolute distances for extrusion
G92 E0
G1 Z0.300 F9000.000
G1 E-4.50000 F2400.00000
G92 E0
G1 X20.001 Y26.324 F9000.000
G1 E4.50000 F2400.00000
G1 X20.726 Y25.773 E4.56080 F1200.000
G1 X24.000 Y24.970 E4.78601
G1 X94.000 Y24.970 E9.46239
G1 X96.337 Y25.367 E9.62072
G1 X98.411 Y26.514 E9.77905 F1200.000
G1 X99.989 Y28.282 E9.93738
G1 X101.049 Y31.482 E10.16259
G1 X102.573 Y50.688 E11.44972
G1 X102.595 Y51.247 E11.48710
G1 X102.595 Y81.247 E13.49126
G1 X102.504 Y82.379 E13.56711
G1 X102.214 Y84.167 E13.68814
G1 X101.211 Y86.813 E13.87717
G1 X100.243 Y88.345 E13.99821
G1 X98.284 Y90.386 E14.18723
G1 X96.793 Y91.415 E14.30826
G1 X94.190 Y92.525 E14.49729
G1 X92.415 Y92.887 E14.61832
G1 X91.000 Y93.030 E14.71332
G1 X27.000 Y93.030 E18.98886
G1 X25.585 Y92.887 E19.08386
G1 X23.810 Y92.525 E19.20489
G1 X21.207 Y91.415 E19.39392
G1 X19.716 Y90.386 E19.51495
G1 X17.757 Y88.345 E19.70398
G1 X16.789 Y86.813 E19.82501
G1 X15.786 Y84.167 E20.01404
G1 X15.496 Y82.379 E20.13507
G1 X15.405 Y81.247 E20.21092
G1 X15.405 Y51.247 E22.21508
G1 X15.427 Y50.688 E22.25246
G1 X16.951 Y31.482 E23.53959
G1 X17.532 Y29.184 E23.69792
G1 X18.839 Y27.207 E23.85625
G1 X19.954 Y26.360 E23.94978
G1 X20.314 Y26.765 F9000.000
G1 X21.212 Y26.130 E24.02329 F1200.000
G1 X24.000 Y25.505 E24.21415
G1 X94.000 Y25.505 E28.89053
G1 X96.243 Y25.902 E29.04270
G1 X98.213 Y27.045 E29.19487 F1200.000
G1 X99.672 Y28.794 E29.34704
G1 X100.515 Y31.524 E29.53790
G1 X102.039 Y50.731 E30.82503
G1 X102.059 Y51.247 E30.85958
G1 X102.059 Y81.247 E32.86375
G1 X101.975 Y82.293 E32.93385
G1 X101.685 Y84.082 E33.05488
G1 X100.758 Y86.527 E33.22959
G1 X99.790 Y88.059 E33.35063
G1 X97.979 Y89.945 E33.52533
G1 X96.489 Y90.975 E33.64636
G1 X94.083 Y92.000 E33.82107
G1 X92.308 Y92.362 E33.94210
G1 X91.000 Y92.495 E34.02990
G1 X27.000 Y92.495 E38.30545
G1 X25.692 Y92.362 E38.39325
G1 X23.917 Y92.000 E38.51428
G1 X21.511 Y90.975 E38.68899
G1 X20.021 Y89.945 E38.81002
G1 X18.209 Y88.059 E38.98473
G1 X17.242 Y86.527 E39.10576
G1 X16.315 Y84.082 E39.28047
G1 X16.025 Y82.293 E39.40150
G1 X15.941 Y81.247 E39.47160
G1 X15.941 Y51.247 E41.47577
G1 X15.961 Y50.731 E41.51032
G1 X17.485 Y31.524 E42.79745
G1 X18.058 Y29.320 E42.94962
G1 X19.353 Y27.446 E43.10179
G1 X20.265 Y26.800 E43.17644
G1 X21.197 Y27.648 F9000.000
G1 X21.892 Y26.953 E43.24216 F1200.000
G1 X32.108 Y26.953 E43.92460
G1 X34.778 Y29.623 E44.17690
G1 X35.222 Y29.623 E44.20654 F1200.000
G1 X37.892 Y26.953 E44.45884
G1 X48.108 Y26.953 E45.14128
G1 X50.778 Y29.623 E45.39358
G1 X51.222 Y29.623 E45.42322
G1 X53.892 Y26.953 E45.67552
G1 X64.108 Y26.953 E46.35796
G1 X66.778 Y29.623 E46.61026
G1 X67.222 Y29.623 E46.63990
G1 X69.892 Y26.953 E46.89220
G1 X80.108 Y26.953 E47.57464
G1 X82.778 Y29.623 E47.82694
G1 X83.222 Y29.623 E47.85658
G1 X85.892 Y26.953 E48.10888
G1 X96.108 Y26.953 E48.79132
G1 X99.088 Y29.933 E49.07293
G1 X99.088 Y46.249 E50.16288
G1 X99.144 Y46.414 E50.17453
G1 X99.464 Y46.840 E50.21017
G1 X99.906 Y47.769 E50.27888
G1 X100.587 Y50.526 E50.46861
G1 X100.629 Y51.554 E50.53732
G1 X100.174 Y54.358 E50.72705
G1 X99.810 Y55.319 E50.79576
G1 X98.292 Y57.720 E50.98550
G1 X97.810 Y58.222 E51.03200
G1 X97.815 Y58.660 E51.06122
G1 X99.088 Y59.933 E51.18154
G1 X99.088 Y76.249 E52.27150
G1 X99.144 Y76.414 E52.28314
G1 X99.464 Y76.840 E52.31879
G1 X99.906 Y77.769 E52.38750
G1 X100.587 Y80.526 E52.57722
G1 X100.629 Y81.554 E52.64594
G1 X100.174 Y84.358 E52.83567
G1 X99.810 Y85.319 E52.90438
G1 X98.292 Y87.720 E53.09412
G1 X97.580 Y88.462 E53.16282
G1 X95.243 Y90.076 E53.35256
G1 X94.297 Y90.479 E53.42127
G1 X91.514 Y91.047 E53.61100
G1 X90.486 Y91.047 E53.67971
G1 X87.703 Y90.479 E53.86944
G1 X86.757 Y90.076 E53.93815
G1 X84.420 Y88.462 E54.12788
G1 X83.708 Y87.720 E54.19659
G1 X83.295 Y87.068 E54.24817
G1 X82.705 Y87.068 E54.28760
G1 X82.292 Y87.720 E54.33917
G1 X81.580 Y88.462 E54.40788
G1 X79.243 Y90.076 E54.59761
G1 X78.297 Y90.479 E54.66632
G1 X75.514 Y91.047 E54.85606
G1 X74.486 Y91.047 E54.92476
G1 X71.703 Y90.479 E55.11450
G1 X70.757 Y90.076 E55.18321
G1 X68.420 Y88.462 E55.37294
G1 X67.708 Y87.720 E55.44165
G1 X67.295 Y87.068 E55.49322
G1 X66.705 Y87.068 E55.53265
G1 X66.292 Y87.720 E55.58423
G1 X65.580 Y88.462 E55.65293
G1 X63.243 Y90.076 E55.84267
G1 X62.297 Y90.479 E55.91138
G1 X59.514 Y91.047 E56.10111
G1 X58.486 Y91.047 E56.16982
G1 X55.703 Y90.479 E56.35956
G1 X54.757 Y90.076 E56.42827
G1 X52.420 Y88.462 E56.61800
G1 X51.708 Y87.720 E56.68670
G1 X51.295 Y87.068 E56.73828
G1 X50.705 Y87.068 E56.77771
G1 X50.292 Y87.720 E56.82928
G1 X49.580 Y88.462 E56.89799
G1 X47.243 Y90.076 E57.08773
G1 X46.297 Y90.479 E57.15643
G1 X43.514 Y91.047 E57.34617
G1 X42.486 Y91.047 E57.41488
G1 X39.703 Y90.479 E57.60461
G1 X38.757 Y90.076 E57.67332
G1 X36.420 Y88.462 E57.86305
G1 X35.708 Y87.720 E57.93176
G1 X35.295 Y87.068 E57.98334
G1 X34.705 Y87.068 E58.02277
G1 X34.292 Y87.720 E58.07434
G1 X33.580 Y88.462 E58.14305
G1 X31.243 Y90.076 E58.33278
G1 X30.297 Y90.479 E58.40149
G1 X27.514 Y91.047 E58.59123
G1 X26.486 Y91.047 E58.65993
G1 X23.703 Y90.479 E58.84967
G1 X22.757 Y90.076 E58.91838
G1 X20.420 Y88.462 E59.10811
G1 X19.708 Y87.720 E59.17682
G1 X18.190 Y85.319 E59.36655
G1 X17.826 Y84.358 E59.43526
G1 X17.371 Y81.554 E59.62500
G1 X17.413 Y80.527 E59.69370
G1 X18.105 Y77.725 E59.88646
G1 X18.536 Y76.840 E59.95221
G1 X18.856 Y76.414 E59.98786
G1 X18.912 Y76.249 E59.99950
G1 X18.912 Y59.933 E61.08945
G1 X20.185 Y58.660 E61.20978
G1 X20.190 Y58.222 E61.23899
G1 X19.708 Y57.720 E61.28550
G1 X18.190 Y55.319 E61.47523
G1 X17.826 Y54.358 E61.54394
G1 X17.371 Y51.554 E61.73368
G1 X17.413 Y50.527 E61.80238
G1 X18.094 Y47.769 E61.99211
G1 X18.536 Y46.840 E62.06082
G1 X18.856 Y46.414 E62.09647
G1 X18.912 Y46.249 E62.10811
G1 X18.912 Y29.933 E63.19807
G1 X21.154 Y27.691 E63.40995
G1 X21.575 Y28.027 F9000.000
G1 X22.114 Y27.488 E63.46085 F1200.000
G1 X31.886 Y27.488 E64.11365
G1 X34.778 Y30.381 E64.38690 F1200.000
G1 X35.222 Y30.381 E64.41655
G1 X38.114 Y27.488 E64.68981
G1 X47.886 Y27.488 E65.34260
G1 X50.778 Y30.381 E65.61586
G1 X51.222 Y30.381 E65.64550
G1 X54.114 Y27.488 E65.91876
G1 X63.886 Y27.488 E66.57156
G1 X66.778 Y30.381 E66.84482
G1 X67.222 Y30.381 E66.87446
G1 X70.114 Y27.488 E67.14772
G1 X79.886 Y27.488 E67.80052
G1 X82.778 Y30.381 E68.07378
G1 X83.222 Y30.381 E68.10342
G1 X86.114 Y27.488 E68.37668
G1 X95.886 Y27.488 E69.02948
G1 X98.553 Y30.155 E69.28144
G1 X98.553 Y46.428 E70.36853
G1 X98.608 Y46.593 E70.38018
G1 X99.004 Y47.119 E70.42416
G1 X99.399 Y47.950 E70.48564
G1 X100.054 Y50.602 E70.66814
G1 X100.091 Y51.522 E70.72962
G1 X99.654 Y54.218 E70.91212
G1 X99.328 Y55.079 E70.97359
G1 X97.869 Y57.388 E71.15610
G1 X97.061 Y58.230 E71.23404
G1 X97.065 Y58.667 E71.26326
G1 X98.553 Y60.155 E71.40383
G1 X98.553 Y76.428 E72.49092
G1 X98.608 Y76.593 E72.50256
G1 X99.004 Y77.119 E72.54655
G1 X99.399 Y77.950 E72.60802
G1 X100.054 Y80.602 E72.79052
G1 X100.091 Y81.522 E72.85200
G1 X99.654 Y84.218 E73.03450
G1 X99.328 Y85.079 E73.09598
G1 X97.869 Y87.388 E73.27849
G1 X97.231 Y88.052 E73.33996
G1 X94.983 Y89.604 E73.52246
G1 X94.137 Y89.965 E73.58394
G1 X91.460 Y90.512 E73.76644
G1 X90.540 Y90.512 E73.82791
G1 X87.863 Y89.965 E74.01042
G1 X87.017 Y89.604 E74.07189
G1 X84.769 Y88.052 E74.25439
G1 X84.131 Y87.388 E74.31587
G1 X83.295 Y86.065 E74.42044
G1 X82.705 Y86.065 E74.45987
G1 X81.869 Y87.388 E74.56445
G1 X81.231 Y88.052 E74.62592
G1 X78.983 Y89.604 E74.80843
G1 X78.137 Y89.965 E74.86991
G1 X75.460 Y90.512 E75.05241
G1 X74.540 Y90.512 E75.11388
G1 X71.863 Y89.965 E75.29638
G1 X71.017 Y89.604 E75.35786
G1 X68.769 Y88.052 E75.54036
G1 X68.131 Y87.388 E75.60184
G1 X67.295 Y86.065 E75.70641
G1 X66.705 Y86.065 E75.74584
G1 X65.869 Y87.388 E75.85042
G1 X65.231 Y88.052 E75.91189
G1 X62.983 Y89.604 E76.09440
G1 X62.137 Y89.965 E76.15588
G1 X59.460 Y90.512 E76.33838
G1 X58.540 Y90.512 E76.39985
G1 X55.863 Y89.965 E76.58235
G1 X55.017 Y89.604 E76.64383
G1 X52.769 Y88.052 E76.82633
G1 X52.131 Y87.388 E76.88781
G1 X51.295 Y86.065 E76.99238
G1 X50.705 Y86.065 E77.03181
G1 X49.869 Y87.388 E77.13639
G1 X49.231 Y88.052 E77.19787
G1 X46.983 Y89.604 E77.38037
G1 X46.137 Y89.965 E77.44184
G1 X43.460 Y90.512 E77.62435
G1 X42.540 Y90.512 E77.68582
G1 X39.863 Y89.965 E77.86833
G1 X39.017 Y89.604 E77.92980
G1 X36.769 Y88.052 E78.11230
G1 X36.131 Y87.388 E78.17378
G1 X35.295 Y86.065 E78.27835
G1 X34.705 Y86.065 E78.31778
G1 X33.869 Y87.388 E78.42236
G1 X33.231 Y88.052 E78.48384
G1 X30.983 Y89.604 E78.66634
G1 X30.137 Y89.965 E78.72781
G1 X27.460 Y90.512 E78.91032
G1 X26.540 Y90.512 E78.97179
G1 X23.863 Y89.965 E79.15430
G1 X23.017 Y89.604 E79.21577
G1 X20.769 Y88.052 E79.39827
G1 X20.131 Y87.388 E79.45975
G1 X18.672 Y85.079 E79.64225
G1 X18.346 Y84.219 E79.70372
G1 X17.909 Y81.522 E79.88623
G1 X17.946 Y80.602 E79.94770
G1 X18.607 Y77.925 E80.13195
G1 X18.996 Y77.119 E80.19172
G1 X19.392 Y76.593 E80.23570
G1 X19.447 Y76.428 E80.24735
G1 X19.447 Y60.155 E81.33444
G1 X20.935 Y58.667 E81.47500
G1 X20.939 Y58.230 E81.50422
G1 X20.131 Y57.388 E81.58217
G1 X18.672 Y55.079 E81.76467
G1 X18.346 Y54.219 E81.82615
G1 X17.909 Y51.522 E82.00865
G1 X17.946 Y50.602 E82.07012
G1 X18.601 Y47.950 E82.25262
G1 X18.996 Y47.119 E82.31410
G1 X19.392 Y46.593 E82.35809
G1 X19.447 Y46.428 E82.36973
G1 X19.447 Y30.155 E83.45682
G1 X21.533 Y28.069 E83.65388
G1 X21.954 Y28.406 F9000.000
G1 X22.336 Y28.024 E83.68996 F1200.000
G1 X31.664 Y28.024 E84.31311
G1 X34.017 Y30.377 E84.53544
G1 X34.017 Y46.607 E85.61966 F1200.000
G1 X34.072 Y46.772 E85.63131
G1 X34.733 Y47.650 E85.70468
G1 X35.267 Y47.650 E85.74039
G1 X35.928 Y46.772 E85.81377
G1 X35.983 Y46.607 E85.82541
G1 X35.983 Y30.377 E86.90964
G1 X38.336 Y28.024 E87.13196
G1 X47.664 Y28.024 E87.75512
G1 X50.017 Y30.377 E87.97744
G1 X50.017 Y46.607 E89.06167
G1 X50.072 Y46.772 E89.07331
G1 X50.733 Y47.650 E89.14668
G1 X51.267 Y47.650 E89.18240
G1 X51.928 Y46.772 E89.25577
G1 X51.983 Y46.607 E89.26741
G1 X51.983 Y30.377 E90.35164
G1 X54.336 Y28.024 E90.57396
G1 X63.664 Y28.024 E91.19712
G1 X66.017 Y30.377 E91.41944
G1 X66.017 Y46.607 E92.50367
G1 X66.072 Y46.772 E92.51531
G1 X66.733 Y47.650 E92.58868
G1 X67.267 Y47.650 E92.62440
G1 X67.928 Y46.772 E92.69777
G1 X67.983 Y46.607 E92.70941
G1 X67.983 Y30.377 E93.79364
G1 X70.336 Y28.024 E94.01596
G1 X79.664 Y28.024 E94.63912
G1 X82.017 Y30.377 E94.86144
G1 X82.017 Y46.607 E95.94567
G1 X82.072 Y46.772 E95.95731
G1 X82.733 Y47.650 E96.03069
G1 X83.267 Y47.650 E96.06640
G1 X83.928 Y46.772 E96.13977
G1 X83.983 Y46.607 E96.15141
G1 X83.983 Y30.377 E97.23564
G1 X86.336 Y28.024 E97.45797
G1 X95.664 Y28.024 E98.08112
G1 X98.017 Y30.377 E98.30344
G1 X98.017 Y46.607 E99.38767
G1 X98.072 Y46.772 E99.39931
G1 X98.543 Y47.398 E99.45164
G1 X98.892 Y48.131 E99.50589
G1 X99.521 Y50.678 E99.68115
G1 X99.554 Y51.490 E99.73540
G1 X99.134 Y54.079 E99.91067
G1 X98.846 Y54.839 E99.96491
G1 X97.445 Y57.057 E100.14018
G1 X96.882 Y57.642 E100.19442
G1 X96.258 Y58.073 E100.24510
G1 X96.213 Y58.573 E100.27861
G1 X98.017 Y60.377 E100.44907
G1 X98.017 Y76.607 E101.53330
G1 X98.072 Y76.772 E101.54494
G1 X98.543 Y77.398 E101.59728
G1 X98.892 Y78.131 E101.65152
G1 X99.521 Y80.678 E101.82678
G1 X99.554 Y81.490 E101.88103
G1 X99.134 Y84.079 E102.05630
G1 X98.846 Y84.839 E102.11054
G1 X97.445 Y87.057 E102.28582
G1 X96.882 Y87.642 E102.34005
G1 X94.723 Y89.133 E102.51533
G1 X93.976 Y89.451 E102.56957
G1 X91.406 Y89.976 E102.74484
G1 X90.594 Y89.976 E102.79908
G1 X88.023 Y89.451 E102.97435
G1 X87.276 Y89.133 E103.02860
G1 X85.118 Y87.642 E103.20386
G1 X84.555 Y87.056 E103.25811
G1 X83.295 Y85.063 E103.41569
G1 X82.705 Y85.063 E103.45512
G1 X81.445 Y87.056 E103.61269
G1 X80.882 Y87.642 E103.66694
G1 X78.723 Y89.133 E103.84221
G1 X77.976 Y89.451 E103.89645
G1 X75.406 Y89.976 E104.07172
G1 X74.594 Y89.976 E104.12596
G1 X72.023 Y89.451 E104.30123
G1 X71.276 Y89.133 E104.35548
G1 X69.118 Y87.642 E104.53075
G1 X68.555 Y87.056 E104.58499
G1 X67.295 Y85.063 E104.74257
G1 X66.705 Y85.063 E104.78200
G1 X65.445 Y87.056 E104.93958
G1 X64.882 Y87.642 E104.99382
G1 X62.723 Y89.133 E105.16909
G1 X61.976 Y89.451 E105.22334
G1 X59.406 Y89.976 E105.39860
G1 X58.594 Y89.976 E105.45285
G1 X56.023 Y89.451 E105.62812
G1 X55.277 Y89.133 E105.68236
G1 X53.118 Y87.642 E105.85763
G1 X52.555 Y87.056 E105.91187
G1 X51.295 Y85.063 E106.06945
G1 X50.705 Y85.063 E106.10888
G1 X49.445 Y87.056 E106.26646
G1 X48.882 Y87.642 E106.32071
G1 X46.723 Y89.133 E106.49598
G1 X45.977 Y89.451 E106.55022
G1 X43.406 Y89.976 E106.72549
G1 X42.594 Y89.976 E106.77973
G1 X40.023 Y89.451 E106.95500
G1 X39.277 Y89.133 E107.00925
G1 X37.118 Y87.642 E107.18452
G1 X36.555 Y87.056 E107.23876
G1 X35.295 Y85.063 E107.39634
G1 X34.705 Y85.063 E107.43577
G1 X33.445 Y87.056 E107.59335
G1 X32.882 Y87.642 E107.64759
G1 X30.723 Y89.133 E107.82286
G1 X29.977 Y89.451 E107.87710
G1 X27.406 Y89.976 E108.05237
G1 X26.594 Y89.976 E108.10662
G1 X24.023 Y89.451 E108.28189
G1 X23.277 Y89.133 E108.33613
G1 X21.118 Y87.642 E108.51140
G1 X20.555 Y87.056 E108.56564
G1 X19.154 Y84.839 E108.74091
G1 X18.866 Y84.079 E108.79515
G1 X18.446 Y81.490 E108.97043
G1 X18.479 Y80.678 E109.02467
G1 X19.110 Y78.124 E109.20041
G1 X19.457 Y77.398 E109.25419
G1 X19.928 Y76.772 E109.30652
G1 X19.983 Y76.607 E109.31816
G1 X19.983 Y60.377 E110.40239
G1 X21.787 Y58.573 E110.57285
G1 X21.742 Y58.073 E110.60637
G1 X21.118 Y57.642 E110.65704
G1 X20.555 Y57.056 E110.71128
G1 X19.154 Y54.839 E110.88655
G1 X18.866 Y54.079 E110.94079
G1 X18.446 Y51.490 E111.11607
G1 X18.479 Y50.678 E111.17031
G1 X19.108 Y48.131 E111.34558
G1 X19.457 Y47.398 E111.39982
G1 X19.928 Y46.772 E111.45215
G1 X19.983 Y46.607 E111.46379
G1 X19.983 Y30.377 E112.54802
G1 X21.912 Y28.448 E112.73025
G1 E108.23025 F2400.00000
G92 E0
G1 X34.581 Y49.105 F9000.000
G1 E4.50000 F2400.00000
G1 X35.419 Y49.105 E4.55604 F1200.000
G1 X35.615 Y48.312 E4.61059
G1 X35.917 Y47.677 E4.65760
G1 X36.463 Y46.951 E4.71827
G1 X36.518 Y46.786 E4.72992
G1 X36.518 Y30.599 E5.81128
G1 X38.558 Y28.559 E6.00396
G1 X47.442 Y28.559 E6.59747
G1 X49.482 Y30.599 E6.79015
G1 X49.482 Y46.786 E7.87152
G1 X49.537 Y46.951 E7.88316
G1 X50.083 Y47.677 E7.94383
G1 X50.385 Y48.312 E7.99084
G1 X50.581 Y49.105 E8.04539
G1 X51.419 Y49.105 E8.10143
G1 X51.615 Y48.312 E8.15598
G1 X51.917 Y47.677 E8.20300
G1 X52.463 Y46.951 E8.26367
G1 X52.518 Y46.786 E8.27531
G1 X52.518 Y30.599 E9.35667
G1 X54.558 Y28.559 E9.54935
G1 X63.442 Y28.559 E10.14286
G1 X65.482 Y30.599 E10.33554
G1 X65.482 Y46.786 E11.41691
G1 X65.537 Y46.951 E11.42855
G1 X66.083 Y47.677 E11.48922
G1 X66.385 Y48.312 E11.53623
G1 X66.581 Y49.105 E11.59079
G1 X67.419 Y49.105 E11.64682
G1 X67.615 Y48.312 E11.70138
G1 X67.917 Y47.677 E11.74839
G1 X68.463 Y46.951 E11.80906
G1 X68.518 Y46.786 E11.82070
G1 X68.518 Y30.599 E12.90207
G1 X70.558 Y28.559 E13.09475
G1 X79.442 Y28.559 E13.68826
G1 X81.482 Y30.599 E13.88094
G1 X81.482 Y46.786 E14.96230
G1 X81.537 Y46.951 E14.97394
G1 X82.083 Y47.677 E15.03461
G1 X82.385 Y48.312 E15.08162
G1 X82.581 Y49.105 E15.13618
G1 X83.419 Y49.105 E15.19222
G1 X83.615 Y48.312 E15.24677
G1 X83.917 Y47.677 E15.29378
G1 X84.463 Y46.951 E15.35445
G1 X84.518 Y46.786 E15.36609
G1 X84.518 Y30.599 E16.44746
G1 X86.558 Y28.559 E16.64014
G1 X95.442 Y28.559 E17.23365
G1 X97.482 Y30.599 E17.42633
G1 X97.482 Y46.786 E18.50770
G1 X97.537 Y46.951 E18.51934
G1 X98.083 Y47.677 E18.58001
G1 X98.385 Y48.312 E18.62702
G1 X98.988 Y50.754 E18.79505
G1 X99.017 Y51.457 E18.84207
G1 X98.614 Y53.940 E19.01010
G1 X98.365 Y54.598 E19.05711
G1 X97.021 Y56.725 E19.22515
G1 X96.534 Y57.232 E19.27216
