; generated by Slic3r 1.2.9 on 2017-02-26 at 15:38:19

; external perimeters extrusion width = 0.40mm
; perimeters extrusion width = 0.68mm
; infill extrusion width = 1.28mm
; solid infill extrusion width = 0.68mm
; top infill extrusion width = 0.68mm
; support material extrusion width = 0.40mm

M107
M190 S70 ; set bed temperature
M104 S240 ; set temperature
G28 ; home all axes
G1 Z5 F5000 ; lift nozzle

M109 S240 ; wait for temperature to be reached
G21 ; set units to millimeters
G90 ; use absolute coordinates
M82 ; use absolute distances for extrusion
G92 E0
G1 Z0.300 F9000.000
G1 E-4.50000 F2400.00000
G92 E0
G1 X47.037 Y38.217 F9000.000
G1 E4.50000 F2400.00000
G1 X47.512 Y37.632 E4.55036 F1200.000
G1 X49.294 Y36.069 E4.70869
G1 X51.492 Y35.183 E4.86702
G1 X53.859 Y35.072 E5.02535
G1 X56.130 Y35.750 E5.18368
G1 X58.488 Y37.632 E5.38523 F1200.000
G1 X69.715 Y51.450 E6.57460
G1 X70.880 Y53.514 E6.73293
G1 X71.298 Y55.909 E6.89537
G1 X71.298 Y75.909 E8.23147
G1 X70.901 Y78.245 E8.38981
G1 X69.754 Y80.319 E8.54814
G1 X67.986 Y81.898 E8.70647
G1 X65.796 Y82.804 E8.86480
G1 X64.227 Y82.980 E8.97029
G1 X41.773 Y82.980 E10.47031
G1 X39.437 Y82.583 E10.62864
G1 X37.363 Y81.436 E10.78697
G1 X35.784 Y79.668 E10.94530
G1 X34.878 Y77.478 E11.10363
G1 X34.702 Y75.909 E11.20913
G1 X34.702 Y55.909 E12.54524
G1 X35.099 Y53.572 E12.70357
G1 X36.285 Y51.450 E12.86600
G1 X46.999 Y38.264 E14.00101
G1 X47.452 Y38.555 F9000.000
G1 X47.928 Y37.970 E14.05137 F1200.000
G1 X49.650 Y36.479 E14.20354
G1 X51.779 Y35.671 E14.35571
G1 X54.057 Y35.642 E14.50788
G1 X56.206 Y36.396 E14.66005
G1 X58.072 Y37.970 E14.82313 F1200.000
G1 X69.299 Y51.787 E16.01250
G1 X70.406 Y53.779 E16.16467
G1 X70.762 Y55.909 E16.30897
G1 X70.762 Y75.909 E17.64507
G1 X70.365 Y78.152 E17.79725
G1 X69.223 Y80.122 E17.94942
G1 X67.473 Y81.581 E18.10159
G1 X64.227 Y82.444 E18.32602
G1 X41.773 Y82.444 E19.82604
G1 X39.530 Y82.047 E19.97821
G1 X37.560 Y80.905 E20.13038
G1 X36.101 Y79.155 E20.28255
G1 X35.238 Y75.909 E20.50698
G1 X35.238 Y55.909 E21.84309
G1 X35.635 Y53.666 E21.99526
G1 X36.701 Y51.788 E22.13955
G1 X47.414 Y38.602 E23.27456
G1 E18.77456 F2400.00000
G92 E0
G1 X46.546 Y60.997 F9000.000
G1 E4.50000 F2400.00000
G1 X38.560 Y60.997 E5.03350 F1200.000
G1 X35.798 Y55.194 E5.46285
G1 X50.578 Y37.003 E7.02870
G1 X55.422 Y37.003 E7.35229
G1 X70.202 Y55.194 E8.91814
G1 X67.440 Y60.997 E9.34749
G1 X59.454 Y60.997 E9.88099
G1 X59.164 Y61.608 E9.92618
G1 X70.202 Y75.194 E11.09563
G1 X67.440 Y80.997 E11.52498
G1 X38.560 Y80.997 E13.45435
G1 X35.798 Y75.194 E13.88370
G1 X46.836 Y61.608 E15.05314
G1 X46.571 Y61.051 E15.09433
G1 X47.671 Y60.462 F9000.000
G1 X38.898 Y60.462 E15.68041 F1200.000
G1 X36.427 Y55.269 E16.06456
G1 X50.833 Y37.538 E17.59078
G1 X55.167 Y37.538 E17.88032
G1 X69.573 Y55.269 E19.40653
G1 X67.102 Y60.462 E19.79069
G1 X58.329 Y60.462 E20.37677
G1 X58.038 Y61.072 E20.42196
G1 X69.573 Y75.269 E21.64399
G1 X67.102 Y80.462 E22.02814
G1 X38.898 Y80.462 E23.91232
G1 X36.427 Y75.269 E24.29648
G1 X47.962 Y61.072 E25.51850
G1 X47.697 Y60.516 E25.55969
G1 X48.796 Y59.926 F9000.000
G1 X39.236 Y59.926 E26.19835 F1200.000
G1 X37.056 Y55.345 E26.53731
G1 X51.088 Y38.074 E28.02390
G1 X54.912 Y38.074 E28.27937
G1 X68.944 Y55.345 E29.76596
G1 X66.764 Y59.926 E30.10492
G1 X57.204 Y59.926 E30.74357
G1 X56.913 Y60.537 E30.78877
G1 X68.944 Y75.345 E32.06337
G1 X66.764 Y79.926 E32.40234
G1 X39.236 Y79.926 E34.24132
G1 X37.056 Y75.345 E34.58028
G1 X49.087 Y60.537 E35.85489
G1 X48.822 Y59.980 E35.89607
G1 X49.922 Y59.390 F9000.000
G1 X39.575 Y59.390 E36.58731 F1200.000
G1 X37.685 Y55.420 E36.88107
G1 X51.343 Y38.610 E38.32804
G1 X54.657 Y38.610 E38.54944
G1 X68.315 Y55.420 E39.99641
G1 X66.425 Y59.390 E40.29017
G1 X56.078 Y59.390 E40.98141
G1 X55.788 Y60.001 E41.02660
G1 X68.315 Y75.420 E42.35379
G1 X66.425 Y79.390 E42.64756
G1 X39.575 Y79.390 E44.44134
G1 X37.685 Y75.420 E44.73511
G1 X50.212 Y60.001 E46.06230
G1 X49.947 Y59.444 E46.10348
G1 X51.047 Y58.855 F9000.000
G1 X39.913 Y58.855 E46.84730 F1200.000
G1 X38.314 Y55.495 E47.09587
G1 X51.598 Y39.145 E48.50320
G1 X54.402 Y39.145 E48.69055
G1 X67.686 Y55.495 E50.09788
G1 X66.087 Y58.855 E50.34645
G1 X54.953 Y58.855 E51.09027
G1 X54.662 Y59.466 E51.13546
G1 X67.686 Y75.495 E52.51523
G1 X66.087 Y78.855 E52.76380
G1 X39.913 Y78.855 E54.51239
G1 X38.314 Y75.495 E54.76096
G1 X51.338 Y59.466 E56.14073
G1 X51.073 Y58.909 E56.18192
G1 E51.68192 F2400.00000
G92 E0
G1 X40.251 Y58.319 F9000.000
G1 E4.50000 F2400.00000
G1 X38.943 Y55.570 E4.70338 F1200.000
G1 X51.853 Y39.681 E6.07108
G1 X54.147 Y39.681 E6.22436
G1 X67.057 Y55.570 E7.59207
G1 X65.749 Y58.319 E7.79544
G1 X40.311 Y58.319 E9.49483
G1 X40.589 Y57.783 F9000.000
G1 X39.572 Y55.646 E9.65301 F1200.000
G1 X52.108 Y40.217 E10.98109
G1 X53.892 Y40.217 E11.10031
G1 X66.428 Y55.645 E12.42838
G1 X65.411 Y57.783 E12.58657
G1 X40.649 Y57.783 E14.24076
G1 X40.928 Y57.248 F9000.000
G1 X40.201 Y55.721 E14.35375 F1200.000
G1 X52.363 Y40.752 E15.64219
G1 X53.637 Y40.752 E15.72735
G1 X65.799 Y55.721 E17.01580
G1 X65.072 Y57.248 E17.12878
G1 X40.988 Y57.248 E18.73778
G1 X41.266 Y56.712 F9000.000
G1 X40.830 Y55.796 E18.80558 F1200.000
G1 X52.618 Y41.288 E20.05439
G1 X53.382 Y41.288 E20.10549
G1 X65.170 Y55.796 E21.35431
G1 X64.734 Y56.712 E21.42210
G1 X41.326 Y56.712 E22.98590
G1 X41.604 Y56.177 F9000.000
G1 X41.459 Y55.871 E23.00850 F1200.000
G1 X52.873 Y41.823 E24.21769
G1 X53.127 Y41.823 E24.23472
G1 X64.541 Y55.871 E25.44391
G1 X64.396 Y56.177 E25.46651
G1 X41.664 Y56.177 E26.98512
G1 E22.48512 F2400.00000
G92 E0
G1 X38.943 Y75.570 F9000.000
G1 E4.50000 F2400.00000
G1 X51.853 Y59.681 E5.86770 F1200.000
G1 X54.147 Y59.681 E6.02099
G1 X67.057 Y75.570 E7.38869
G1 X65.749 Y78.319 E7.59207
G1 X40.251 Y78.319 E9.29546
G1 X38.968 Y75.624 E9.49483
G1 X39.572 Y75.645 F9000.000
G1 X52.108 Y60.217 E10.82291 F1200.000
G1 X53.892 Y60.217 E10.94213
G1 X66.428 Y75.645 E12.27020
G1 X65.411 Y77.783 E12.42838
G1 X40.589 Y77.783 E14.08659
G1 X39.597 Y75.700 E14.24076
G1 X40.201 Y75.721 F9000.000
G1 X52.363 Y60.752 E15.52921 F1200.000
G1 X53.637 Y60.752 E15.61436
G1 X65.799 Y75.721 E16.90281
G1 X65.072 Y77.248 E17.01580
G1 X40.928 Y77.248 E18.62881
G1 X40.226 Y75.775 E18.73779
G1 X40.830 Y75.796 F9000.000
G1 X52.618 Y61.288 E19.98660 F1200.000
G1 X53.382 Y61.288 E20.03770
G1 X65.170 Y75.796 E21.28651
G1 X64.734 Y76.712 E21.35431
G1 X41.266 Y76.712 E22.92212
G1 X40.855 Y75.850 E22.98590
G1 X41.459 Y75.871 F9000.000
G1 X52.873 Y61.823 E24.19509 F1200.000
G1 X53.127 Y61.823 E24.21213
G1 X64.541 Y75.871 E25.42131
G1 X64.396 Y76.177 E25.44391
G1 X41.604 Y76.177 E26.96653
G1 X41.484 Y75.925 E26.98512
G1 E22.48512 F2400.00000
G92 E0
G1 X63.597 Y75.609 F9000.000
G1 E4.50000 F2400.00000
G1 X42.403 Y75.609 E5.91581 F1200.000
G1 X53.000 Y62.567 E7.03841
G1 X63.559 Y75.562 E8.15700
G1 X63.214 Y75.492 F9000.000
G1 X61.880 Y74.726 F9000.000
G1 X44.110 Y74.726 E9.34417 F1200.000
G1 X52.995 Y63.790 E10.28549
G1 X61.843 Y74.679 E11.22279
G1 X61.971 Y75.116 F9000.000
G1 X62.597 Y75.133 F9000.000
G1 X62.443 Y75.167 E11.23334 F1200.000
G1 X43.547 Y75.167 E12.49568
G1 X43.398 Y75.135 E12.50587
G1 X43.457 Y74.921 E12.52075
G1 X52.905 Y63.292 E13.52167
G1 X53.000 Y63.221 E13.52960
G1 X53.088 Y63.290 E13.53708
G1 X62.536 Y74.918 E14.53800
G1 X62.581 Y75.075 E14.54892
G1 E10.04892 F2400.00000
G92 E0
G1 X63.597 Y55.609 F9000.000
G1 E4.50000 F2400.00000
G1 X42.403 Y55.609 E5.91581 F1200.000
G1 X53.000 Y42.567 E7.03841
G1 X63.559 Y55.562 E8.15700
G1 X63.214 Y55.492 F9000.000
G1 X61.880 Y54.726 F9000.000
G1 X44.110 Y54.726 E9.34417 F1200.000
G1 X52.995 Y43.790 E10.28549
G1 X61.843 Y54.679 E11.22279
G1 X61.971 Y55.116 F9000.000
G1 X62.597 Y55.133 F9000.000
G1 X62.443 Y55.167 E11.23334 F1200.000
G1 X43.547 Y55.167 E12.49568
G1 X43.398 Y55.135 E12.50587
G1 X43.457 Y54.921 E12.52075
G1 X52.905 Y43.292 E13.52167
G1 X53.000 Y43.221 E13.52960
G1 X53.088 Y43.290 E13.53708
G1 X62.536 Y54.918 E14.53800
G1 X62.581 Y55.075 E14.54892
G1 Z0.300 F9000.000
M104 S220 ; set temperature
M140 S60 ; wait for bed temperature to be reached
G1 Z0.400 F9000.000
G1 E10.04892 F2400.00000
G92 E0
G1 X52.995 Y63.949 F9000.000
G1 E4.50000 F2400.00000
G1 X61.670 Y74.626 E4.71651 F1800.000
G1 X44.320 Y74.626 E4.98957
G1 X52.957 Y63.995 E5.20513
G1 X53.288 Y63.676 F9000.000
G1 X53.000 Y62.408 F9000.000
G1 X63.807 Y75.709 E5.47483 F1800.000
G1 X42.193 Y75.709 E5.81498
G1 X52.962 Y62.455 E6.08374
G1 X53.090 Y62.798 F9000.000
G1 X53.000 Y63.260 F9000.000
G1 X53.172 Y63.394 E6.09588 F1200.000
G1 X62.392 Y74.741 E6.90954
G1 X62.509 Y75.091 E6.93005
G1 X62.215 Y75.167 E6.94693
G1 X43.775 Y75.167 E7.97311
G1 X43.486 Y75.093 E7.98970
G1 X43.601 Y74.744 E8.01019
G1 X52.821 Y63.396 E8.82385
G1 X52.952 Y63.296 E8.83303
G1 E4.33303 F2400.00000
G92 E0
G1 X61.670 Y54.626 F9000.000
G1 E4.50000 F2400.00000
G1 X44.320 Y54.626 E4.77306 F1800.000
G1 X52.995 Y43.949 E4.98957
G1 X61.633 Y54.579 E5.20513
G1 X61.761 Y55.016 F9000.000
G1 X63.807 Y55.709 F9000.000
G1 X42.193 Y55.709 E5.54528 F1800.000
G1 X53.000 Y42.408 E5.81498
G1 X63.769 Y55.662 E6.08374
G1 X63.424 Y55.592 F9000.000
G1 X62.509 Y55.091 F9000.000
G1 X62.215 Y55.167 E6.10062 F1200.000
G1 X43.775 Y55.167 E7.12679
G1 X43.486 Y55.093 E7.14339
G1 X43.601 Y54.744 E7.16388
G1 X52.821 Y43.396 E7.97754
G1 X53.000 Y43.260 E7.99006
G1 X53.172 Y43.394 E8.00219
G1 X62.392 Y54.741 E8.81585
G1 X62.490 Y55.034 E8.83303
G1 Z0.500 F9000.000
G1 E4.33303 F2400.00000
G92 E0
G1 X52.995 Y63.949 F9000.000
G1 E4.50000 F2400.00000
G1 X61.670 Y74.626 E4.71651 F1800.000
G1 X44.320 Y74.626 E4.98957
G1 X52.957 Y63.995 E5.20513
G1 X53.288 Y63.676 F9000.000
G1 X53.000 Y62.408 F9000.000
G1 X63.807 Y75.709 E5.47483 F1800.000
G1 X42.193 Y75.709 E5.81498
G1 X52.962 Y62.455 E6.08374
G1 X53.090 Y62.798 F9000.000
G1 X53.000 Y63.260 F9000.000
G1 X53.172 Y63.394 E6.09588 F1200.000
G1 X62.392 Y74.741 E6.90954
G1 X62.509 Y75.091 E6.93005
G1 X62.215 Y75.167 E6.94693
G1 X43.775 Y75.167 E7.97311
G1 X43.486 Y75.093 E7.98970
G1 X43.601 Y74.744 E8.01019
G1 X52.821 Y63.396 E8.82385
G1 X52.952 Y63.296 E8.83303
G1 E4.33303 F2400.00000
G92 E0
G1 X61.670 Y54.626 F9000.000
G1 E4.50000 F2400.00000
G1 X44.320 Y54.626 E4.77306 F1800.000
G1 X52.995 Y43.949 E4.98957
G1 X61.633 Y54.579 E5.20513
G1 X61.761 Y55.016 F9000.000
G1 X63.807 Y55.709 F9000.000
G1 X42.193 Y55.709 E5.54528 F1800.000
G1 X53.000 Y42.408 E5.81498
G1 X63.769 Y55.662 E6.08374
G1 X63.424 Y55.592 F9000.000
G1 X62.509 Y55.091 F9000.000
G1 X62.215 Y55.167 E6.10062 F1200.000
G1 X43.775 Y55.167 E7.12680
G1 X43.486 Y55.093 E7.14339
G1 X43.601 Y54.744 E7.16388
G1 X52.821 Y43.396 E7.97754
G1 X53.000 Y43.260 E7.99006
G1 X53.172 Y43.394 E8.00219
G1 X62.392 Y54.741 E8.81585
G1 X62.490 Y55.034 E8.83303
M106 S234.6
G1 Z0.600 F9000.000
G1 E4.33303 F2400.00000
G92 E0
G1 X52.995 Y63.949 F9000.000
G1 E4.50000 F2400.00000
G1 X61.670 Y74.626 E4.71651 F1800.000
G1 X44.320 Y74.626 E4.98957
G1 X52.957 Y63.995 E5.20513
G1 X53.288 Y63.676 F9000.000
G1 X53.000 Y62.408 F9000.000
G1 X63.807 Y75.709 E5.47483 F1800.000
G1 X42.193 Y75.709 E5.81498
G1 X52.962 Y62.455 E6.08374
G1 X53.090 Y62.798 F9000.000
G1 X53.000 Y63.260 F9000.000
G1 X53.172 Y63.394 E6.09588 F1200.000
G1 X62.392 Y74.741 E6.90954
G1 X62.509 Y75.091 E6.93005
G1 X62.215 Y75.167 E6.94693
G1 X43.775 Y75.167 E7.97311
G1 X43.486 Y75.093 E7.98970
G1 X43.601 Y74.744 E8.01019
G1 X52.821 Y63.396 E8.82385
G1 X52.952 Y63.296 E8.83303
G1 E4.33303 F2400.00000
G92 E0
G1 X61.670 Y54.626 F9000.000
G1 E4.50000 F2400.00000
G1 X44.320 Y54.626 E4.77306 F1800.000
G1 X52.995 Y43.949 E4.98957
G1 X61.633 Y54.579 E5.20513
G1 X61.761 Y55.016 F9000.000
G1 X63.807 Y55.709 F9000.000
G1 X42.193 Y55.709 E5.54528 F1800.000
G1 X53.000 Y42.408 E5.81498
G1 X63.769 Y55.662 E6.08374
G1 X63.424 Y55.592 F9000.000
G1 X62.509 Y55.091 F9000.000
G1 X62.215 Y55.167 E6.10062 F1200.000
G1 X43.775 Y55.167 E7.12679
G1 X43.486 Y55.093 E7.14339
G1 X43.601 Y54.744 E7.16388
G1 X52.821 Y43.396 E7.97754
G1 X53.000 Y43.260 E7.99006
G1 X53.172 Y43.394 E8.00219
G1 X62.392 Y54.741 E8.81585
G1 X62.490 Y55.034 E8.83303
G1 Z0.700 F9000.000
G1 E4.33303 F2400.00000
G92 E0
G1 X52.995 Y63.949 F9000.000
G1 E4.50000 F2400.00000
G1 X61.670 Y74.626 E4.71651 F1800.000
G1 X44.320 Y74.626 E4.98957
G1 X52.957 Y63.995 E5.20513
G1 X53.288 Y63.676 F9000.000
G1 X53.000 Y62.408 F9000.000
G1 X63.807 Y75.709 E5.47483 F1800.000
G1 X42.193 Y75.709 E5.81498
G1 X52.962 Y62.455 E6.08374
G1 X53.090 Y62.798 F9000.000
G1 X53.000 Y63.260 F9000.000
G1 X53.172 Y63.394 E6.09588 F1200.000
G1 X62.392 Y74.741 E6.90954
G1 X62.509 Y75.091 E6.93005
G1 X62.215 Y75.167 E6.94693
G1 X43.775 Y75.167 E7.97311
G1 X43.486 Y75.093 E7.98970
G1 X43.601 Y74.744 E8.01019
G1 X52.821 Y63.396 E8.82385
G1 X52.952 Y63.296 E8.83303
G1 E4.33303 F2400.00000
G92 E0
G1 X61.670 Y54.626 F9000.000
G1 E4.50000 F2400.00000
G1 X44.320 Y54.626 E4.77306 F1800.000
G1 X52.995 Y43.949 E4.98957
G1 X61.633 Y54.579 E5.20513
G1 X61.761 Y55.016 F9000.000
G1 X63.807 Y55.709 F9000.000
G1 X42.193 Y55.709 E5.54528 F1800.000
G1 X53.000 Y42.408 E5.81498
G1 X63.769 Y55.662 E6.08374
G1 X63.424 Y55.592 F9000.000
G1 X62.509 Y55.091 F9000.000
G1 X62.215 Y55.167 E6.10062 F1200.000
G1 X43.775 Y55.167 E7.12680
G1 X43.486 Y55.093 E7.14339
G1 X43.601 Y54.744 E7.16388
G1 X52.821 Y43.396 E7.97754
G1 X53.000 Y43.260 E7.99006
G1 X53.172 Y43.394 E8.00219
G1 X62.392 Y54.741 E8.81585
G1 X62.490 Y55.034 E8.83303
G1 Z0.800 F9000.000
G1 E4.33303 F2400.00000
G92 E0
G1 X52.995 Y63.949 F9000.000
G1 E4.50000 F2400.00000
G1 X61.670 Y74.626 E4.71651 F1800.000
G1 X44.320 Y74.626 E4.98957
G1 X52.957 Y63.995 E5.20513
G1 X53.288 Y63.676 F9000.000
G1 X53.000 Y62.408 F9000.000
G1 X63.807 Y75.709 E5.47483 F1800.000
G1 X42.193 Y75.709 E5.81498
G1 X52.962 Y62.455 E6.08374
G1 X53.090 Y62.798 F9000.000
G1 X53.000 Y63.260 F9000.000
G1 X53.172 Y63.394 E6.09588 F1200.000
G1 X62.392 Y74.741 E6.90954
G1 X62.509 Y75.091 E6.93005
G1 X62.215 Y75.167 E6.94693
G1 X43.775 Y75.167 E7.97311
G1 X43.486 Y75.093 E7.98970
G1 X43.601 Y74.744 E8.01019
G1 X52.821 Y63.396 E8.82385
G1 X52.952 Y63.296 E8.83303
G1 E4.33303 F2400.00000
G92 E0
G1 X61.670 Y54.626 F9000.000
G1 E4.50000 F2400.00000
G1 X44.320 Y54.626 E4.77306 F1800.000
G1 X52.995 Y43.949 E4.98957
G1 X61.633 Y54.579 E5.20513
G1 X61.761 Y55.016 F9000.000
G1 X63.807 Y55.709 F9000.000
G1 X42.193 Y55.709 E5.54528 F1800.000
G1 X53.000 Y42.408 E5.81498
G1 X63.769 Y55.662 E6.08374
G1 X63.424 Y55.592 F9000.000
G1 X62.509 Y55.091 F9000.000
G1 X62.215 Y55.167 E6.10062 F1200.000
G1 X43.775 Y55.167 E7.12680
G1 X43.486 Y55.093 E7.14339
G1 X43.601 Y54.744 E7.16388
G1 X52.821 Y43.396 E7.97754
G1 X53.000 Y43.260 E7.99006
G1 X53.172 Y43.394 E8.00219
G1 X62.392 Y54.741 E8.81585
G1 X62.490 Y55.034 E8.83303
G1 Z0.900 F9000.000
G1 E4.33303 F2400.00000
G92 E0
G1 X52.995 Y63.949 F9000.000
G1 E4.50000 F2400.00000
G1 X61.670 Y74.626 E4.71651 F1800.000
G1 X44.320 Y74.626 E4.98957
G1 X52.957 Y63.995 E5.20513
G1 X53.288 Y63.676 F9000.000
G1 X53.000 Y62.408 F9000.000
G1 X63.807 Y75.709 E5.47483 F1800.000
G1 X42.193 Y75.709 E5.81498
G1 X52.962 Y62.455 E6.08374
G1 X53.090 Y62.798 F9000.000
G1 X53.000 Y63.260 F9000.000
G1 X53.172 Y63.394 E6.09588 F1200.000
G1 X62.392 Y74.741 E6.90954
G1 X62.509 Y75.091 E6.93005
G1 X62.215 Y75.167 E6.94693
G1 X43.775 Y75.167 E7.97311
G1 X43.486 Y75.093 E7.98970
G1 X43.601 Y74.744 E8.01019
G1 X52.821 Y63.396 E8.82385
G1 X52.952 Y63.296 E8.83303
G1 E4.33303 F2400.00000
G92 E0
G1 X61.670 Y54.626 F9000.000
G1 E4.50000 F2400.00000
G1 X44.320 Y54.626 E4.77306 F1800.000
G1 X52.995 Y43.949 E4.98957
G1 X61.633 Y54.579 E5.20513
G1 X61.761 Y55.016 F9000.000
G1 X63.807 Y55.709 F9000.000
G1 X42.193 Y55.709 E5.54528 F1800.000
G1 X53.000 Y42.408 E5.81498
G1 X63.769 Y55.662 E6.08374
G1 X63.424 Y55.592 F9000.000
G1 X62.509 Y55.091 F9000.000
G1 X62.215 Y55.167 E6.10062 F1200.000
G1 X43.775 Y55.167 E7.12680
G1 X43.486 Y55.093 E7.14339
G1 X43.601 Y54.744 E7.16388
G1 X52.821 Y43.396 E7.97754
G1 X53.000 Y43.260 E7.99006
G1 X53.172 Y43.394 E8.00219
G1 X62.392 Y54.741 E8.81585
G1 X62.490 Y55.034 E8.83303
G1 Z1.000 F9000.000
