; generated by Slic3r 1.2.9 on 2017-02-26 at 17:30:38

; external perimeters extrusion width = 0.40mm
; perimeters extrusion width = 0.68mm
; infill extrusion width = 1.28mm
; solid infill extrusion width = 0.68mm
; top infill extrusion width = 0.68mm
; support material extrusion width = 0.40mm

M107
M190 S70 ; set bed temperature
M104 S240 ; set temperature
G28 ; home all axes
G1 Z5 F5000 ; lift nozzle

M109 S240 ; wait for temperature to be reached
G21 ; set units to millimeters
G90 ; use absolute coordinates
M82 ; use absolute distances for extrusion
G92 E0
G1 Z0.300 F9000.000
G1 E-4.50000 F2400.00000
G92 E0
G1 X36.647 Y25.180 F9000.000
G1 E4.50000 F2400.00000
G1 X38.416 Y23.603 E4.65833 F1200.000
G1 X40.607 Y22.700 E4.81666
G1 X42.168 Y22.525 E4.92161
G1 X62.964 Y22.526 E6.31087
G1 X64.861 Y22.785 E6.43877 F1200.000
G1 X73.971 Y25.323 E7.07051
G1 X76.115 Y26.332 E7.22884
G1 X77.859 Y28.069 E7.39324
G1 X79.654 Y30.623 E7.60180
G1 X80.672 Y32.763 E7.76013
G1 X80.940 Y34.689 E7.89003
G1 X80.903 Y78.412 E10.81095
G1 X80.503 Y80.748 E10.96928
G1 X79.353 Y82.820 E11.12761
G1 X77.584 Y84.397 E11.28594
G1 X75.393 Y85.300 E11.44427
G1 X73.831 Y85.475 E11.54922
G1 X53.026 Y85.462 E12.93916
G1 X51.137 Y85.203 E13.06651
G1 X42.027 Y82.663 E13.69830
G1 X39.883 Y81.652 E13.85663
G1 X38.152 Y79.932 E14.01968
G1 X36.357 Y77.392 E14.22747
G1 X35.333 Y75.255 E14.38580
G1 X35.060 Y73.311 E14.51693
G1 X35.097 Y29.588 E17.43785
G1 X35.497 Y27.252 E17.59618
G1 X36.617 Y25.232 E17.75050
G1 X37.129 Y25.460 F9000.000
G1 X37.177 Y25.377 E17.75691 F1200.000
G1 X38.929 Y23.921 E17.90908
G1 X42.168 Y23.061 E18.13301
G1 X62.964 Y23.062 E19.52227
G1 X64.717 Y23.301 E19.64048 F1200.000
G1 X73.827 Y25.839 E20.27223
G1 X75.881 Y26.823 E20.42440
G1 X77.420 Y28.377 E20.57051
G1 X79.216 Y30.931 E20.77907
G1 X80.181 Y32.994 E20.93125
G1 X80.404 Y34.689 E21.04544
G1 X80.367 Y78.411 E23.96631
G1 X79.968 Y80.654 E24.11849
G1 X78.823 Y82.623 E24.27066
G1 X77.071 Y84.079 E24.42283
G1 X73.831 Y84.939 E24.64676
G1 X53.027 Y84.927 E26.03665
G1 X51.281 Y84.687 E26.15435
G1 X42.171 Y82.147 E26.78615
G1 X40.117 Y81.162 E26.93832
G1 X38.589 Y79.623 E27.08318
G1 X36.794 Y77.083 E27.29097
G1 X35.824 Y75.022 E27.44314
G1 X35.596 Y73.311 E27.55847
G1 X35.633 Y29.589 E30.47935
G1 X36.032 Y27.346 E30.63152
G1 X37.099 Y25.512 E30.77327
G1 X38.119 Y26.450 F9000.000
G1 X40.061 Y24.508 E30.95673 F1200.000
G1 X56.976 Y24.508 E32.08677
G1 X57.800 Y25.332 E32.16462
G1 X58.245 Y25.332 E32.19434 F1200.000
G1 X59.036 Y24.535 E32.26935
G1 X65.071 Y24.509 E32.67253
G1 X67.552 Y26.989 E32.90687
G1 X67.750 Y27.071 E32.92122
G1 X74.181 Y27.046 E33.35082
G1 X77.162 Y30.027 E33.63243
G1 X77.162 Y30.669 E33.67531
G1 X77.242 Y30.865 E33.68947
G1 X78.957 Y32.594 E33.85213
G1 X78.957 Y48.949 E34.94474
G1 X75.976 Y51.929 E35.22635
G1 X59.061 Y51.929 E36.35638
G1 X58.234 Y51.103 E36.43447
G1 X57.791 Y51.103 E36.46412
G1 X56.976 Y51.917 E36.54106
G1 X50.966 Y51.917 E36.94259
G1 X48.514 Y49.466 E37.17421
G1 X48.316 Y49.384 E37.18850
G1 X41.856 Y49.377 E37.62009
G1 X38.875 Y46.397 E37.90170
G1 X38.875 Y45.767 E37.94376
G1 X38.794 Y45.570 E37.95799
G1 X37.080 Y43.857 E38.11988
G1 X37.080 Y27.489 E39.21332
G1 X38.077 Y26.493 E39.30747
G1 X38.498 Y26.829 F9000.000
G1 X40.283 Y25.044 E39.47610 F1200.000
G1 X56.754 Y25.044 E40.57650
G1 X57.802 Y26.091 E40.67544 F1200.000
G1 X58.246 Y26.090 E40.70515
G1 X59.261 Y25.069 E40.80132
G1 X64.849 Y25.044 E41.17468
G1 X67.329 Y27.524 E41.40896
G1 X67.525 Y27.606 E41.42311
G1 X73.959 Y27.582 E41.85297
G1 X76.626 Y30.249 E42.10493
G1 X76.626 Y30.889 E42.14773
G1 X76.707 Y31.085 E42.16189
G1 X78.421 Y32.814 E42.32454
G1 X78.421 Y48.727 E43.38760
G1 X75.754 Y51.394 E43.63956
G1 X59.283 Y51.394 E44.73996
G1 X58.234 Y50.345 E44.83901
G1 X57.791 Y50.345 E44.86865
G1 X56.754 Y51.382 E44.96655
G1 X51.188 Y51.382 E45.33844
G1 X48.735 Y48.929 E45.57013
G1 X48.538 Y48.848 E45.58442
G1 X42.078 Y48.842 E46.01596
G1 X39.411 Y46.175 E46.26793
G1 X39.411 Y45.545 E46.30999
G1 X39.329 Y45.348 E46.32422
G1 X37.616 Y43.635 E46.48611
G1 X37.616 Y27.711 E47.54991
G1 X38.455 Y26.871 E47.62923
G1 X38.876 Y27.208 F9000.000
G1 X40.505 Y25.580 E47.78305 F1200.000
G1 X56.532 Y25.580 E48.85380
G1 X57.803 Y26.850 E48.97382
G1 X58.248 Y26.849 E49.00354 F1200.000
G1 X59.485 Y25.603 E49.12086
G1 X64.628 Y25.580 E49.46440
G1 X67.311 Y28.253 E49.71740
G1 X67.756 Y28.256 E49.74715
G1 X67.872 Y28.141 E49.75804
G1 X73.737 Y28.117 E50.14987
G1 X76.090 Y30.471 E50.37219
G1 X76.090 Y31.110 E50.41490
G1 X76.171 Y31.306 E50.42906
G1 X77.886 Y33.035 E50.59172
G1 X77.886 Y48.505 E51.62522
G1 X75.532 Y50.858 E51.84754
G1 X59.505 Y50.858 E52.91829
G1 X58.234 Y49.588 E53.03830
G1 X57.791 Y49.588 E53.06795
G1 X56.532 Y50.846 E53.18680
G1 X51.409 Y50.846 E53.52905
G1 X48.726 Y48.177 E53.78189
G1 X48.283 Y48.174 E53.81150
G1 X48.148 Y48.306 E53.82412
G1 X42.300 Y48.306 E54.21484
G1 X39.946 Y45.953 E54.43717
G1 X39.946 Y45.323 E54.47923
G1 X39.865 Y45.126 E54.49346
G1 X38.151 Y43.413 E54.65535
G1 X38.151 Y27.933 E55.68951
G1 X38.834 Y27.250 E55.75401
G1 E51.25401 F2400.00000
G92 E0
G1 X48.732 Y47.420 F9000.000
G1 E4.50000 F2400.00000
G1 X48.289 Y47.417 E4.52961 F1200.000
G1 X47.929 Y47.770 E4.56331
G1 X42.522 Y47.770 E4.92456
G1 X40.482 Y45.731 E5.11724
G1 X40.482 Y45.101 E5.15930
G1 X40.401 Y44.905 E5.17353
G1 X38.687 Y43.191 E5.33543
G1 X38.687 Y28.155 E6.33994
G1 X40.726 Y26.115 E6.53262
G1 X56.311 Y26.115 E7.57373
G1 X57.804 Y27.609 E7.71483
G1 X58.249 Y27.608 E7.74455
G1 X59.710 Y26.137 E7.88303
G1 X64.406 Y26.116 E8.19675
G1 X66.445 Y28.155 E8.38943
G1 X66.445 Y28.360 E8.40311
G1 X66.757 Y28.673 E8.43265
G1 X66.974 Y28.674 E8.44716
G1 X67.305 Y29.012 E8.47872
G1 X67.750 Y29.016 E8.50848
G1 X68.094 Y28.676 E8.54075
G1 X73.515 Y28.653 E8.90296
G1 X75.555 Y30.693 E9.09564
G1 X75.555 Y31.331 E9.13826
G1 X75.636 Y31.526 E9.15242
G1 X77.350 Y33.255 E9.31508
G1 X77.350 Y48.283 E10.31902
G1 X75.311 Y50.323 E10.51170
G1 X59.726 Y50.323 E11.55281
G1 X58.234 Y48.830 E11.69378
G1 X57.791 Y48.830 E11.72343
G1 X56.311 Y50.310 E11.86325
G1 X51.631 Y50.310 E12.17585
G1 X49.592 Y48.271 E12.36853
G1 X49.592 Y48.088 E12.38074
G1 X49.277 Y47.774 E12.41044
G1 X49.082 Y47.775 E12.42346
G1 X48.774 Y47.463 E12.45276
G1 E7.95276 F2400.00000
G92 E0
G1 X66.221 Y29.206 F9000.000
G1 E4.50000 F2400.00000
G1 X66.748 Y29.209 E4.53517 F1200.000
G1 X67.299 Y29.771 E4.58777
G1 X67.744 Y29.775 E4.61752
G1 X68.315 Y29.210 E4.67118
G1 X73.294 Y29.189 E5.00378
G1 X75.019 Y30.914 E5.16681
G1 X75.019 Y31.551 E5.20934
G1 X75.100 Y31.747 E5.22350
G1 X76.814 Y33.476 E5.38616
G1 X76.814 Y48.061 E6.36055
G1 X75.089 Y49.787 E6.52358
G1 X59.948 Y49.787 E7.53505
G1 X58.234 Y48.073 E7.69698
G1 X57.791 Y48.073 E7.72663
G1 X56.089 Y49.775 E7.88741
G1 X51.853 Y49.775 E8.17037
G1 X50.127 Y48.049 E8.33340
G1 X50.127 Y47.551 E8.36668
G1 X49.813 Y47.237 E8.39639
G1 X49.305 Y47.239 E8.43027
G1 X48.737 Y46.663 E8.48429
G1 X48.294 Y46.660 E8.51390
G1 X47.710 Y47.235 E8.56867
G1 X42.743 Y47.235 E8.90045
G1 X41.018 Y45.509 E9.06349
G1 X41.018 Y44.880 E9.10555
G1 X40.936 Y44.683 E9.11978
G1 X39.223 Y42.969 E9.28168
G1 X39.223 Y28.376 E10.25655
G1 X40.948 Y26.651 E10.41958
G1 X56.089 Y26.651 E11.43105
G1 X57.805 Y28.367 E11.59324
G1 X58.250 Y28.367 E11.62295
G1 X59.934 Y26.671 E11.78258
G1 X64.184 Y26.651 E12.06649
G1 X65.910 Y28.377 E12.22953
G1 X65.910 Y28.893 E12.26400
G1 X66.179 Y29.164 E12.28953
G1 E7.78953 F2400.00000
G92 E0
G1 X57.279 Y29.206 F9000.000
G1 E4.50000 F2400.00000
G1 X57.279 Y47.827 E5.74397 F1200.000
G1 X55.867 Y49.239 E5.87737
G1 X52.075 Y49.239 E6.13068
G1 X50.663 Y47.827 E6.26408
G1 X50.663 Y47.014 E6.31843
G1 X50.348 Y46.700 E6.34813
G1 X49.529 Y46.702 E6.40288
G1 X48.743 Y45.906 E6.47760
G1 X48.300 Y45.903 E6.50721
G1 X47.490 Y46.699 E6.58306
G1 X42.965 Y46.699 E6.88537
G1 X41.553 Y45.287 E7.01876
G1 X41.553 Y44.473 E7.07317
G1 X41.240 Y44.159 E7.10281
G1 X41.170 Y44.159 E7.10745
G1 X39.758 Y42.747 E7.24084
G1 X39.758 Y28.598 E8.18607
G1 X41.170 Y27.186 E8.31946
G1 X55.867 Y27.186 E9.30128
G1 X57.279 Y28.598 E9.43468 F1200.000
G1 X57.279 Y29.146 E9.47129
G1 X56.743 Y29.206 F9000.000
G1 X56.743 Y47.605 E10.70044 F1200.000
G1 X55.645 Y48.704 E10.80419
G1 X52.297 Y48.704 E11.02787
G1 X51.199 Y47.605 E11.13162
G1 X51.199 Y46.476 E11.20704
G1 X50.884 Y46.162 E11.23675
G1 X49.752 Y46.166 E11.31236
G1 X48.749 Y45.149 E11.40778
G1 X48.305 Y45.146 E11.43739
G1 X47.271 Y46.164 E11.53432
G1 X43.187 Y46.164 E11.80716
G1 X42.089 Y45.065 E11.91091
G1 X42.089 Y43.937 E11.98627
G1 X41.775 Y43.624 E12.01591
G1 X41.392 Y43.624 E12.04151
G1 X40.294 Y42.525 E12.14526
G1 X40.294 Y28.820 E13.06085
G1 X41.392 Y27.722 E13.16460
G1 X55.645 Y27.722 E14.11678
G1 X56.743 Y28.820 E14.22053
G1 X56.743 Y29.146 E14.24232 F1200.000
G1 X56.208 Y29.206 F9000.000
G1 X56.208 Y47.384 E15.45665 F1200.000
G1 X55.423 Y48.168 E15.53076
G1 X52.519 Y48.168 E15.72479
G1 X51.734 Y47.384 E15.79890
G1 X51.734 Y45.939 E15.89539
G1 X51.419 Y45.625 E15.92510
G1 X49.975 Y45.630 E16.02158
G1 X49.185 Y44.829 E16.09671
G1 X49.195 Y44.246 E16.13564
G1 X49.161 Y44.073 E16.14746
G1 X49.083 Y43.914 E16.15928
G1 X48.967 Y43.781 E16.17110
G1 X48.820 Y43.682 E16.18291
G1 X48.583 Y43.614 E16.19937
G1 X48.406 Y43.621 E16.21119
G1 X48.237 Y43.672 E16.22301
G1 X48.087 Y43.766 E16.23482
G1 X47.967 Y43.896 E16.24664
G1 X47.884 Y44.052 E16.25846
G1 X47.844 Y44.224 E16.27028
G1 X47.834 Y44.859 E16.31269
G1 X47.052 Y45.628 E16.38594
G1 X43.409 Y45.628 E16.62930
G1 X42.625 Y44.843 E16.70341
G1 X42.625 Y43.402 E16.79973
G1 X42.311 Y43.088 E16.82938
G1 X41.614 Y43.088 E16.87594
G1 X40.829 Y42.304 E16.95004
G1 X40.829 Y29.042 E17.83598
G1 X41.614 Y28.258 E17.91009
G1 X55.423 Y28.258 E18.83263
G1 X56.208 Y29.042 E18.90674 F1200.000
G1 X56.208 Y29.146 E18.91371
G1 X55.672 Y29.264 F9000.000
G1 X55.672 Y47.162 E20.10938 F1200.000
G1 X55.201 Y47.632 E20.15384
G1 X52.741 Y47.632 E20.31823
G1 X52.270 Y47.162 E20.36269
G1 X52.270 Y45.402 E20.48026
G1 X51.955 Y45.088 E20.50996
G1 X50.198 Y45.093 E20.62731
G1 X49.725 Y44.613 E20.67239
G1 X49.724 Y44.115 E20.70566
G1 X49.663 Y43.874 E20.72224
G1 X49.517 Y43.592 E20.74347
G1 X49.248 Y43.314 E20.76934
G1 X49.035 Y43.186 E20.78592
G1 X48.732 Y43.090 E20.80715
G1 X48.414 Y43.076 E20.82839
G1 X48.104 Y43.144 E20.84962
G1 X47.822 Y43.290 E20.87085
G1 X47.587 Y43.505 E20.89208
G1 X47.416 Y43.773 E20.91332
G1 X47.320 Y44.075 E20.93455
G1 X47.302 Y44.631 E20.97168
G1 X46.833 Y45.092 E21.01563
G1 X43.631 Y45.092 E21.22952
G1 X43.160 Y44.622 E21.27398
G1 X43.160 Y42.866 E21.39127
G1 X42.846 Y42.552 E21.42091
G1 X41.836 Y42.552 E21.48843
G1 X41.365 Y42.082 E21.53290
G1 X41.365 Y29.264 E22.38919
G1 X41.836 Y28.793 E22.43366
G1 X55.201 Y28.793 E23.32655
G1 X55.630 Y29.221 E23.36701
G1 X54.979 Y29.329 F9000.000
G1 X55.136 Y29.486 E23.38183 F1200.000
G1 X55.136 Y46.940 E24.54785
G1 X54.979 Y47.097 E24.56268
G1 X52.962 Y47.097 E24.69742
G1 X52.806 Y46.940 E24.71224
G1 X52.806 Y44.865 E24.85087
G1 X52.491 Y44.551 E24.88058
G1 X50.422 Y44.557 E25.01880
G1 X50.264 Y44.397 E25.03382
G1 X50.260 Y44.053 E25.05678
G1 X50.166 Y43.676 E25.08278
G1 X49.909 Y43.214 E25.11807
G1 X49.638 Y42.934 E25.14407
G1 X49.250 Y42.691 E25.17472
G1 X48.811 Y42.556 E25.20537
G1 X48.283 Y42.547 E25.24067
G1 X47.840 Y42.667 E25.27132
G1 X47.444 Y42.898 E25.30198
G1 X47.164 Y43.169 E25.32797
G1 X46.920 Y43.558 E25.35862
G1 X46.785 Y43.996 E25.38928
G1 X46.770 Y44.403 E25.41646
G1 X46.613 Y44.557 E25.43111
G1 X43.853 Y44.557 E25.61554
G1 X43.696 Y44.400 E25.63036
G1 X43.696 Y42.330 E25.76860
G1 X43.382 Y42.017 E25.79825
G1 X42.058 Y42.017 E25.88673
G1 X41.901 Y41.860 E25.90155
G1 X41.901 Y29.486 E26.72820
G1 X42.058 Y29.329 E26.74302
G1 X54.919 Y29.329 E27.60227
G1 E23.10227 F2400.00000
G92 E0
G1 X58.758 Y29.329 F9000.000
G1 E4.50000 F2400.00000
G1 X58.758 Y28.615 E4.54767 F1200.000
G1 X60.159 Y27.205 E4.68042
G1 X63.962 Y27.187 E4.93452
G1 X65.374 Y28.599 E5.06791 F1200.000
G1 X65.374 Y29.426 E5.12317
G1 X65.686 Y29.739 E5.15271
G1 X66.522 Y29.743 E5.20855
G1 X67.293 Y30.531 E5.28217
G1 X67.738 Y30.535 E5.31193
G1 X68.537 Y29.744 E5.38697
G1 X73.072 Y29.724 E5.68995
G1 X74.484 Y31.136 E5.82334
G1 X74.484 Y31.973 E5.87924
G1 X74.794 Y32.286 E5.90871
G1 X74.881 Y32.287 E5.91451
G1 X76.279 Y33.696 E6.04712
G1 X76.279 Y47.839 E6.99195
G1 X74.867 Y49.251 E7.12534
G1 X60.170 Y49.251 E8.10716
G1 X58.758 Y47.839 E8.24056
G1 X58.758 Y29.389 E9.47316
G1 X59.294 Y29.329 F9000.000
G1 X59.294 Y28.836 E9.50607 F1200.000
G1 X60.383 Y27.740 E9.60933
G1 X63.740 Y27.723 E9.83361
G1 X64.838 Y28.821 E9.93736
G1 X64.838 Y29.959 E10.01340 F1200.000
G1 X65.150 Y30.272 E10.04295
G1 X66.295 Y30.278 E10.11945
G1 X67.287 Y31.290 E10.21411
G1 X67.732 Y31.294 E10.24386
G1 X68.758 Y30.279 E10.34029
G1 X72.850 Y30.260 E10.61364
G1 X73.948 Y31.358 E10.71740
G1 X73.948 Y32.504 E10.79396
G1 X74.259 Y32.817 E10.82343
G1 X74.656 Y32.821 E10.84998
G1 X75.743 Y33.917 E10.95312
G1 X75.743 Y47.618 E11.86840
G1 X74.645 Y48.716 E11.97215
G1 X60.392 Y48.716 E12.92432
G1 X59.294 Y47.618 E13.02808
G1 X59.294 Y29.389 E14.24585
G1 E9.74585 F2400.00000
G92 E0
G1 X68.027 Y32.597 F9000.000
G1 E4.50000 F2400.00000
G1 X68.125 Y32.450 E4.51182 F1200.000
G1 X68.183 Y32.283 E4.52364
G1 X68.204 Y31.581 E4.57055
G1 X68.980 Y30.813 E4.64349
G1 X72.628 Y30.796 E4.88723
G1 X73.412 Y31.580 E4.96133
G1 X73.412 Y33.035 E5.05856
G1 X73.723 Y33.349 E5.08803
G1 X74.431 Y33.354 E5.13533
G1 X75.208 Y34.137 E5.20900
G1 X75.208 Y47.396 E6.09472
G1 X74.423 Y48.180 E6.16883
G1 X60.614 Y48.180 E7.09137
G1 X59.829 Y47.396 E7.16547
G1 X59.829 Y29.057 E8.39061
G1 X60.607 Y28.274 E8.46436
G1 X63.518 Y28.258 E8.65882
G1 X64.303 Y29.043 E8.73293
G1 X64.303 Y30.492 E8.82977
G1 X64.615 Y30.806 E8.85931
G1 X66.069 Y30.813 E8.95649
G1 X66.852 Y31.612 E9.03120
G1 X66.850 Y32.261 E9.07458
G1 X66.902 Y32.430 E9.08640
G1 X66.953 Y32.522 E9.09338
G1 X67.061 Y32.648 E9.10449
G1 X67.281 Y32.784 E9.12180
G1 X67.384 Y32.813 E9.12896
G1 X67.561 Y32.825 E9.14078
G1 X67.800 Y32.765 E9.15723
G1 X67.984 Y32.639 E9.17214
G1 X69.201 Y31.347 F9000.000
G1 X72.406 Y31.331 E9.38625 F1200.000
G1 X72.877 Y31.802 E9.43072
G1 X72.877 Y33.567 E9.54861
G1 X73.187 Y33.880 E9.57808
G1 X74.206 Y33.888 E9.64613
G1 X74.672 Y34.358 E9.69033
G1 X74.672 Y47.174 E10.54650
G1 X74.201 Y47.645 E10.59096
G1 X60.836 Y47.645 E11.48385
G1 X60.365 Y47.174 E11.52832
G1 X60.365 Y29.278 E12.72388
G1 X60.832 Y28.808 E12.76813
G1 X63.296 Y28.794 E12.93278
G1 X63.767 Y29.264 E12.97725
G1 X63.767 Y31.025 E13.09487
G1 X64.079 Y31.339 E13.12441
G1 X65.843 Y31.347 E13.24226
G1 X66.312 Y31.827 E13.28709
G1 X66.313 Y32.323 E13.32023
G1 X66.374 Y32.563 E13.33681
G1 X66.519 Y32.843 E13.35787
G1 X66.789 Y33.124 E13.38391
G1 X67.002 Y33.251 E13.40048
G1 X67.305 Y33.348 E13.42172
G1 X67.623 Y33.362 E13.44295
G1 X67.933 Y33.294 E13.46419
G1 X68.215 Y33.147 E13.48542
G1 X68.450 Y32.933 E13.50665
G1 X68.621 Y32.665 E13.52788
G1 X68.717 Y32.362 E13.54912
G1 X68.735 Y31.808 E13.58616
G1 X69.158 Y31.390 E13.62591
G1 X69.423 Y31.882 F9000.000
G1 X72.184 Y31.867 E13.81040 F1200.000
G1 X72.341 Y32.024 E13.82523
G1 X72.341 Y34.098 E13.96378
G1 X72.652 Y34.411 E13.99325
G1 X73.981 Y34.422 E14.08205
G1 X74.136 Y34.579 E14.09679
G1 X74.136 Y46.952 E14.92340
G1 X73.979 Y47.109 E14.93822
G1 X61.058 Y47.109 E15.80147
G1 X60.901 Y46.952 E15.81629
G1 X60.901 Y29.498 E16.98228
G1 X61.056 Y29.342 E16.99703
G1 X63.075 Y29.329 E17.13187
G1 X63.231 Y29.486 E17.14669
G1 X63.231 Y31.558 E17.28510
G1 X63.543 Y31.872 E17.31464
G1 X65.617 Y31.882 E17.45316
G1 X65.773 Y32.041 E17.46810
G1 X65.777 Y32.384 E17.49102
G1 X65.871 Y32.762 E17.51701
G1 X66.085 Y33.165 E17.54749
G1 X66.399 Y33.503 E17.57831
G1 X66.852 Y33.775 E17.61361
G1 X67.226 Y33.882 E17.63960
G1 X67.684 Y33.899 E17.67026
G1 X68.132 Y33.796 E17.70091
G1 X68.537 Y33.581 E17.73156
G1 X68.873 Y33.269 E17.76221
G1 X69.117 Y32.880 E17.79286
G1 X69.252 Y32.442 E17.82352
G1 X69.267 Y32.035 E17.85068
G1 X69.380 Y31.924 E17.86126
G1 E13.36126 F2400.00000
G92 E0
G1 X65.034 Y56.071 F9000.000
