; generated by Slic3r 1.2.9 on 2017-04-09 at 13:56:27

; external perimeters extrusion width = 0.40mm
; perimeters extrusion width = 0.68mm
; infill extrusion width = 1.28mm
; solid infill extrusion width = 0.68mm
; top infill extrusion width = 0.68mm

M107
M190 S65 ; set bed temperature
M104 S240 ; set temperature
G28 ; home all axes
G1 Z5 F5000 ; lift nozzle

M109 S240 ; wait for temperature to be reached
G21 ; set units to millimeters
G90 ; use absolute coordinates
M82 ; use absolute distances for extrusion
G92 E0
G1 Z0.400 F7800.000
G1 E-4.50000 F2400.00000
G92 E0
G1 X41.477 Y38.028 F7800.000
G1 E4.50000 F2400.00000
G1 X43.233 Y36.528 E4.77422 F1800.000
G1 X45.393 Y35.712 E5.04845
G1 X46.650 Y35.594 E5.19842
G1 X59.350 Y35.594 E6.70673
G1 X61.625 Y35.991 E6.98096
G1 X63.630 Y37.135 E7.25518 F1800.000
G1 X65.130 Y38.891 E7.52941
G1 X65.945 Y41.051 E7.80363
G1 X66.064 Y42.308 E7.95360
G1 X66.064 Y71.692 E11.44344
G1 X65.667 Y73.967 E11.71766
G1 X64.523 Y75.972 E11.99189
G1 X62.767 Y77.472 E12.26611
G1 X60.607 Y78.288 E12.54034
G1 X59.350 Y78.406 E12.69030
G1 X46.650 Y78.406 E14.19862
G1 X44.375 Y78.009 E14.47285
G1 X42.370 Y76.865 E14.74707
G1 X40.870 Y75.109 E15.02130
G1 X40.055 Y72.949 E15.29552
G1 X39.936 Y71.692 E15.44549
G1 X39.936 Y42.308 E18.93533
G1 X40.333 Y40.033 E19.20955
G1 X41.447 Y38.080 E19.47665
G1 E14.97665 F2400.00000
G92 E0
G1 X45.579 Y41.864 F7800.000
G1 E4.50000 F2400.00000
G1 X46.206 Y41.237 E4.60540 F1800.000
G1 X59.794 Y41.237 E6.21911
G1 X60.421 Y41.864 E6.32451
G1 X60.421 Y72.136 E9.91975 F1800.000
G1 X59.794 Y72.763 E10.02514
G1 X46.206 Y72.763 E11.63886
G1 X45.579 Y72.136 E11.74426
G1 X45.579 Y41.924 E15.33237
G1 X46.293 Y42.160 F7800.000
G1 X46.502 Y41.951 E15.36750 F1800.000
G1 X59.498 Y41.951 E16.91095
G1 X59.707 Y42.160 E16.94608 F1800.000
G1 X59.707 Y71.840 E20.47105
G1 X59.498 Y72.049 E20.50619
G1 X46.502 Y72.049 E22.04964
G1 X46.293 Y71.840 E22.08477
G1 X46.293 Y42.220 E25.60261
G1 E21.10261 F2400.00000
G92 E0
G1 X58.950 Y71.292 F7800.000
G1 E4.50000 F2400.00000
G1 X47.050 Y71.292 E5.91331 F1800.000
G1 X47.050 Y42.708 E9.30813
G1 X58.950 Y42.708 E10.72144
G1 X58.950 Y71.232 E14.10914
G1 X58.604 Y71.092 F7800.000
G1 X58.236 Y70.578 F7800.000
G1 X54.982 Y70.578 E14.49559 F1800.000
G1 X54.883 Y70.288 E14.53198
G1 X55.601 Y69.733 E14.63978
G1 X56.180 Y68.972 E14.75337
G1 X56.543 Y68.087 E14.86696
G1 X56.664 Y67.138 E14.98056
G1 X56.535 Y66.190 E15.09415
G1 X56.166 Y65.308 E15.20774
G1 X55.580 Y64.551 E15.32133
G1 X54.819 Y63.972 E15.43492
G1 X53.934 Y63.610 E15.54851
G1 X52.986 Y63.488 E15.66210
G1 X52.038 Y63.617 E15.77570
G1 X51.156 Y63.986 E15.88929
G1 X50.399 Y64.572 E16.00288
G1 X49.820 Y65.333 E16.11647
G1 X49.457 Y66.218 E16.23006
G1 X49.336 Y67.167 E16.34365
G1 X49.465 Y68.114 E16.45724
G1 X49.834 Y68.997 E16.57084
G1 X50.420 Y69.753 E16.68443
G1 X51.120 Y70.286 E16.78903
G1 X51.022 Y70.578 E16.82558
G1 X47.764 Y70.578 E17.21250
G1 X47.764 Y43.422 E20.43770
G1 X51.000 Y43.422 E20.82197
G1 X51.098 Y43.713 E20.85844
G1 X50.409 Y44.242 E20.96160
G1 X49.827 Y45.000 E21.07519
G1 X49.461 Y45.884 E21.18878
G1 X49.336 Y46.832 E21.30237
G1 X49.461 Y47.780 E21.41596
G1 X49.827 Y48.664 E21.52955
G1 X50.409 Y49.423 E21.64314
G1 X51.168 Y50.005 E21.75674
G1 X52.052 Y50.371 E21.87033
G1 X53.000 Y50.496 E21.98392
G1 X53.948 Y50.371 E22.09751
G1 X54.832 Y50.005 E22.21110
G1 X55.591 Y49.423 E22.32469
G1 X56.173 Y48.664 E22.43828
G1 X56.539 Y47.780 E22.55188
G1 X56.664 Y46.832 E22.66547
G1 X56.539 Y45.884 E22.77906
G1 X56.173 Y45.000 E22.89265
G1 X55.591 Y44.242 E23.00624
G1 X54.902 Y43.713 E23.10940
G1 X55.000 Y43.422 E23.14587
G1 X58.236 Y43.422 E23.53014
G1 X58.236 Y70.518 E26.74821
G1 X57.177 Y45.558 F7800.000
G1 X56.797 Y44.640 E26.86616 F1800.000
G1 X56.410 Y44.136 E26.94161
G1 X57.522 Y44.136 E27.07363
G1 X57.522 Y45.489 E27.23431
G1 X57.236 Y45.546 E27.26895
G1 E22.76895 F2400.00000
G92 E0
G1 X49.590 Y44.136 F7800.000
G1 E4.50000 F2400.00000
G1 X49.203 Y44.640 E4.57545 F1800.000
G1 X48.823 Y45.558 E4.69340
G1 X48.478 Y45.489 E4.73516
G1 X48.478 Y44.136 E4.89584
G1 X49.530 Y44.136 E5.02074
G1 X48.823 Y48.107 F7800.000
G1 X49.203 Y49.024 E5.13869 F1800.000
G1 X49.900 Y49.932 E5.27462
G1 X50.808 Y50.629 E5.41054
G1 X51.865 Y51.067 E5.54646
G1 X53.000 Y51.216 E5.68239
G1 X54.135 Y51.067 E5.81831
G1 X55.192 Y50.629 E5.95424
G1 X56.100 Y49.932 E6.09016
G1 X56.797 Y49.024 E6.22609
G1 X57.177 Y48.107 E6.34403
G1 X57.522 Y48.175 E6.38580
G1 X57.522 Y65.806 E8.47972
G1 X57.178 Y65.875 E8.52140
G1 X56.788 Y64.945 E8.64115
G1 X56.088 Y64.040 E8.77707
G1 X55.177 Y63.347 E8.91299
G1 X54.118 Y62.913 E9.04892
G1 X52.983 Y62.768 E9.18484
G1 X51.849 Y62.922 E9.32077
G1 X50.793 Y63.364 E9.45669
G1 X49.888 Y64.064 E9.59261
G1 X49.195 Y64.975 E9.72854
G1 X48.824 Y65.880 E9.84467
G1 X48.478 Y65.812 E9.88651
G1 X48.478 Y48.175 E11.98112
G1 X48.764 Y48.118 E12.01576
G1 X51.910 Y54.839 F7800.000
G1 X52.273 Y54.673 E12.06318 F1800.000
G1 X52.900 Y54.566 E12.13869
G1 X53.532 Y54.626 E12.21419
G1 X54.129 Y54.847 E12.28970
G1 X54.647 Y55.215 E12.36521
G1 X55.052 Y55.705 E12.44072
G1 X55.317 Y56.283 E12.51623
G1 X55.424 Y56.909 E12.59174
G1 X55.364 Y57.542 E12.66725
G1 X55.143 Y58.139 E12.74276
G1 X54.775 Y58.657 E12.81826
G1 X54.285 Y59.062 E12.89377
G1 X53.707 Y59.327 E12.96928
G1 X53.081 Y59.434 E13.04479
G1 X52.448 Y59.374 E13.12030
G1 X51.852 Y59.153 E13.19581
G1 X51.333 Y58.785 E13.27131
G1 X50.928 Y58.295 E13.34682
G1 X50.663 Y57.717 E13.42233
G1 X50.556 Y57.091 E13.49784
G1 X50.616 Y56.458 E13.57335
G1 X50.837 Y55.861 E13.64886
G1 X51.205 Y55.343 E13.72437
G1 X51.695 Y54.938 E13.79987
G1 X51.855 Y54.864 E13.82084 F1800.000
G1 X51.947 Y54.441 F7800.000
G1 X51.612 Y54.190 F7800.000
G1 X52.061 Y53.984 E13.87942 F1800.000
G1 X52.598 Y53.893 E13.94416
G1 X52.873 Y53.846 E13.97727 F1800.000
G1 X53.693 Y53.924 E14.07511
G1 X54.465 Y54.210 E14.17295
G1 X55.137 Y54.687 E14.27079
G1 X55.662 Y55.322 E14.36863
G1 X56.006 Y56.071 E14.46647
G1 X56.144 Y56.883 E14.56431
G1 X56.067 Y57.703 E14.66216
G1 X55.780 Y58.475 E14.76000
G1 X55.303 Y59.147 E14.85784
G1 X54.668 Y59.672 E14.95568
G1 X53.919 Y60.016 E15.05352
G1 X53.107 Y60.154 E15.15136
G1 X52.287 Y60.076 E15.24920
G1 X51.515 Y59.790 E15.34705
G1 X50.843 Y59.313 E15.44489
G1 X50.318 Y58.678 E15.54273
G1 X49.974 Y57.929 E15.64057
G1 X49.836 Y57.117 E15.73841
G1 X49.914 Y56.297 E15.83625
G1 X50.200 Y55.525 E15.93409
G1 X50.677 Y54.853 E16.03194
G1 X51.312 Y54.328 E16.12978
G1 X51.558 Y54.215 E16.16190
G1 X51.314 Y53.541 F7800.000
G1 X51.848 Y53.296 E16.23166 F1800.000
G1 X52.478 Y53.189 E16.30756
G1 X52.846 Y53.127 E16.35183 F1800.000
G1 X53.853 Y53.221 E16.47201
G1 X54.802 Y53.574 E16.59218
G1 X55.627 Y54.159 E16.71235
G1 X56.272 Y54.939 E16.83253
G1 X56.694 Y55.858 E16.95270
G1 X56.863 Y56.856 E17.07288
G1 X56.769 Y57.863 E17.19305
G1 X56.417 Y58.812 E17.31323
G1 X55.831 Y59.637 E17.43340
G1 X55.051 Y60.282 E17.55358
G1 X54.132 Y60.704 E17.67375
G1 X53.134 Y60.873 E17.79392
G1 X52.127 Y60.779 E17.91410
G1 X51.178 Y60.426 E18.03427
G1 X50.353 Y59.841 E18.15444
G1 X49.708 Y59.061 E18.27462
G1 X49.286 Y58.142 E18.39479
G1 X49.117 Y57.144 E18.51497
G1 X49.211 Y56.137 E18.63514
G1 X49.564 Y55.188 E18.75532
G1 X50.149 Y54.363 E18.87549
G1 X50.929 Y53.718 E18.99566
G1 X51.260 Y53.566 E19.03896
G1 X48.822 Y68.429 F7800.000
G1 X49.212 Y69.359 E19.15871 F1800.000
G1 X49.602 Y69.864 E19.23449
G1 X48.478 Y69.864 E19.36799
G1 X48.478 Y68.498 E19.53018
G1 X48.764 Y68.441 E19.56473
G1 E15.06473 F2400.00000
G92 E0
G1 X56.398 Y69.864 F7800.000
G1 E4.50000 F2400.00000
G1 X56.805 Y69.329 E4.57979 F1800.000
G1 X57.176 Y68.424 E4.69591
G1 X57.522 Y68.493 E4.73776
G1 X57.522 Y69.864 E4.90063
G1 X56.458 Y69.864 E5.02690
G1 E0.52690 F2400.00000
G92 E0
G1 X53.741 Y49.678 F7800.000
G1 E4.50000 F2400.00000
G1 X53.000 Y49.776 E4.58876 F1800.000
G1 X52.238 Y49.675 E4.68002
G1 X51.528 Y49.381 E4.77128
G1 X50.919 Y48.914 E4.86254
G1 X50.451 Y48.304 E4.95380
G1 X50.157 Y47.594 E5.04505
G1 X50.057 Y46.832 E5.13631
G1 X50.157 Y46.070 E5.22757
G1 X50.451 Y45.360 E5.31883
G1 X50.919 Y44.751 E5.41009
G1 X51.528 Y44.283 E5.50135
G1 X52.238 Y43.989 E5.59261
G1 X52.835 Y43.910 E5.66414
G1 X53.000 Y43.889 E5.68386 F1800.000
G1 X53.762 Y43.989 E5.77512
G1 X54.472 Y44.283 E5.86638
G1 X55.081 Y44.751 E5.95764
G1 X55.549 Y45.360 E6.04890
G1 X55.843 Y46.070 E6.14016
G1 X55.943 Y46.832 E6.23142
G1 X55.843 Y47.594 E6.32267
G1 X55.549 Y48.304 E6.41393
G1 X55.081 Y48.914 E6.50519
G1 X54.472 Y49.381 E6.59645
G1 X53.798 Y49.660 E6.68308
G1 X53.620 Y50.059 F7800.000
G1 E2.18308 F2400.00000
G92 E0
G1 X52.988 Y64.209 F7800.000
G1 E4.50000 F2400.00000
G1 X53.751 Y64.306 E4.59126 F1800.000
G1 X54.462 Y64.597 E4.68252
G1 X55.073 Y65.063 E4.77377
G1 X55.543 Y65.670 E4.86503
G1 X55.840 Y66.379 E4.95629
G1 X55.943 Y67.141 E5.04755
G1 X55.846 Y67.903 E5.13881
G1 X55.555 Y68.614 E5.23007
G1 X55.090 Y69.225 E5.32133
G1 X54.482 Y69.695 E5.41258
G1 X53.773 Y69.992 E5.50384
G1 X53.012 Y70.096 E5.59510
G1 X52.249 Y69.998 E5.68636
G1 X51.538 Y69.707 E5.77762
G1 X50.927 Y69.242 E5.86888
G1 X50.457 Y68.634 E5.96014
G1 X50.160 Y67.925 E6.05140
G1 X50.057 Y67.164 E6.14265
G1 X50.154 Y66.402 E6.23391
G1 X50.445 Y65.690 E6.32517
G1 X50.910 Y65.079 E6.41643
G1 X51.518 Y64.609 E6.50769
G1 X52.227 Y64.312 E6.59895
G1 X52.878 Y64.224 E6.67694
G1 X52.929 Y64.217 E6.68308 F1800.000
G1 X53.202 Y63.871 F7800.000
G1 X51.745 Y62.544 F7800.000
G1 X48.914 Y59.713 E7.18128 F1800.000
G1 X48.914 Y60.771 E7.31293
G1 X50.999 Y62.856 E7.67990
G1 X50.332 Y63.247 E7.77612
G1 X48.914 Y61.829 E8.02569
G1 X48.914 Y62.887 E8.15735
G1 X49.736 Y63.709 E8.30195
G1 X49.251 Y64.282 E8.39537
G1 X48.914 Y63.945 E8.45471
G1 X51.240 Y60.980 F7800.000
G1 X52.652 Y62.393 E8.70323 F1800.000
G1 X53.720 Y62.403 E8.83613
G1 X52.592 Y61.275 E9.03458
G1 X53.590 Y61.214 E9.15893
G1 X55.178 Y62.802 E9.43835
G1 X57.086 Y63.653 F7800.000
G1 X54.427 Y60.994 E9.90623 F1800.000
G1 X55.153 Y60.661 E10.00554
G1 X57.086 Y62.594 E10.34577
G1 X57.086 Y61.536 E10.47742
G1 X55.744 Y60.194 E10.71359
G1 X56.732 Y60.124 E10.83687
G1 X57.086 Y60.478 E10.89913
G1 X56.767 Y59.622 F7800.000
G1 X56.943 Y59.058 E10.96940 F1800.000
G1 X57.145 Y57.933 E11.10510
G1 X51.584 Y52.992 F7800.000
G1 X48.914 Y50.323 E11.57437 F1800.000
G1 X48.914 Y51.380 F7800.000
G1 X50.859 Y53.325 E11.91626 F1800.000
G1 X50.262 Y53.785 E12.00994
G1 X48.914 Y52.437 E12.24687
G1 X48.914 Y53.494 E12.37824
G1 X49.268 Y53.847 E12.44043
G1 X50.835 Y51.187 F7800.000
G1 X52.428 Y52.779 E12.72039 F1800.000
G1 X52.288 Y51.583 E12.87008
G1 X53.435 Y52.730 E13.07161
G1 X54.806 Y53.044 E13.24651
G1 X53.353 Y51.590 E13.50202
G1 X54.257 Y51.438 E13.61598
G1 X57.086 Y54.267 E14.11335
G1 X57.086 Y53.210 E14.24473
G1 X55.004 Y51.128 E14.61072
G1 X55.669 Y50.735 E14.70665
G1 X57.086 Y52.153 E14.95584
G1 X57.086 Y51.096 E15.08721
G1 X56.267 Y50.277 E15.23128
G1 X56.749 Y49.702 E15.32453
G1 X57.086 Y50.039 E15.38381
G1 E10.88381 F2400.00000
G92 E0
G1 X48.609 Y47.785 F7800.000
G1 E4.50000 F2400.00000
G1 X48.550 Y46.888 E4.72635 F1800.000
G1 X48.609 Y45.879 E4.98086
G1 X51.400 Y43.490 F7800.000
G1 X52.107 Y43.354 E5.16221 F1800.000
G1 X52.970 Y43.298 E5.37984
G1 X53.893 Y43.354 E5.61274
G1 X54.600 Y43.490 E5.79409
G1 X57.391 Y45.879 F7800.000
G1 X57.450 Y46.888 E6.04860 F1800.000
G1 X57.391 Y47.785 E6.27495
G1 X49.233 Y54.349 F7800.000
G1 X49.047 Y54.946 E6.34919 F1800.000
G1 X48.855 Y56.013 E6.47795
G1 X48.608 Y66.201 F7800.000
G1 X48.550 Y67.114 E6.70813 F1800.000
G1 X48.610 Y68.108 E6.95885
G1 X51.423 Y70.508 F7800.000
G1 X52.120 Y70.640 E7.13759 F1800.000
G1 X52.983 Y70.694 E7.35519
G1 X53.908 Y70.636 E7.58863
G1 X54.580 Y70.506 E7.76106
G1 X57.392 Y68.103 F7800.000
G1 X57.450 Y67.191 E7.99124 F1800.000
G1 X57.390 Y66.197 E8.24195
M140 S60 ; wait for bed temperature to be reached
G1 Z0.500 F7800.000
G1 X53.029 Y63.893 F7800.000
G1 X53.833 Y63.995 E8.26414 F900.000
G1 X54.621 Y64.318 E8.28747
G1 X55.299 Y64.835 E8.31081
G1 X55.821 Y65.509 E8.33414
G1 X56.150 Y66.295 E8.35748
G1 X56.265 Y67.139 E8.38081
G1 X56.157 Y67.985 E8.40415
G1 X55.834 Y68.773 E8.42748
G1 X55.318 Y69.452 E8.45081
G1 X54.643 Y69.973 E8.47415
G1 X53.857 Y70.302 E8.49748
G1 X53.013 Y70.417 E8.52082
G1 X52.167 Y70.309 E8.54415
G1 X51.379 Y69.986 E8.56748
G1 X50.701 Y69.470 E8.59082
G1 X50.179 Y68.796 E8.61415
G1 X49.850 Y68.010 E8.63749
G1 X49.735 Y67.165 E8.66082
G1 X49.843 Y66.320 E8.68416
G1 X50.166 Y65.531 E8.70749
G1 X50.682 Y64.853 E8.73082
G1 X51.357 Y64.331 E8.75416
G1 X52.143 Y64.002 E8.77749
G1 X52.634 Y63.935 E8.79108
G1 X52.969 Y63.890 E8.80033 F900.000
G1 X52.989 Y64.410 F7800.000
G1 X53.699 Y64.501 E8.81160 F900.000
G1 X54.362 Y64.772 E8.82286
G1 X54.931 Y65.206 E8.83412
G1 X55.369 Y65.772 E8.84539
G1 X55.645 Y66.432 E8.85665
G1 X55.742 Y67.141 E8.86792
G1 X55.651 Y67.851 E8.87918
G1 X55.380 Y68.514 E8.89044
G1 X54.946 Y69.083 E8.90171
G1 X54.380 Y69.521 E8.91297
G1 X53.720 Y69.798 E8.92424
G1 X53.011 Y69.894 E8.93550
G1 X52.301 Y69.803 E8.94677
G1 X51.638 Y69.532 E8.95803
G1 X51.069 Y69.098 E8.96929
G1 X50.631 Y68.532 E8.98056
G1 X50.355 Y67.872 E8.99182
G1 X50.258 Y67.163 E9.00309
G1 X50.349 Y66.453 E9.01435
G1 X50.620 Y65.791 E9.02561
G1 X51.054 Y65.221 E9.03688
G1 X51.620 Y64.783 E9.04814
G1 X52.280 Y64.507 E9.05941
G1 X52.704 Y64.449 E9.06614
G1 X52.930 Y64.419 E9.06973 F900.000
G1 X53.203 Y64.072 F7800.000
G1 E4.56973 F2400.00000
G92 E0
G1 X53.000 Y50.097 F7800.000
G1 E4.50000 F2400.00000
G1 X52.155 Y49.986 E4.52333 F900.000
G1 X51.368 Y49.660 E4.54667
G1 X50.691 Y49.141 E4.57000
G1 X50.173 Y48.465 E4.59334
G1 X49.847 Y47.677 E4.61667
G1 X49.735 Y46.832 E4.64000
G1 X49.847 Y45.987 E4.66334
G1 X49.980 Y45.664 E4.67292
G1 X50.173 Y45.200 E4.68667
G1 X50.691 Y44.524 E4.71001
G1 X51.368 Y44.005 E4.73334
G1 X52.155 Y43.679 E4.75668 F900.000
G1 X53.000 Y43.567 E4.78001
G1 X53.845 Y43.679 E4.80334
G1 X54.632 Y44.005 E4.82668
G1 X55.309 Y44.524 E4.85001
G1 X55.827 Y45.200 E4.87335
G1 X56.153 Y45.987 E4.89668
G1 X56.265 Y46.832 E4.92002
G1 X56.153 Y47.677 E4.94335
G1 X55.827 Y48.465 E4.96668
G1 X55.309 Y49.141 E4.99002
G1 X54.632 Y49.660 E5.01335
G1 X53.845 Y49.986 E5.03669
G1 X53.059 Y50.089 E5.05838
G1 X53.000 Y49.574 F7800.000
G1 X52.290 Y49.480 E5.06964 F900.000
G1 X51.629 Y49.207 E5.08091
G1 X51.061 Y48.771 E5.09217
G1 X50.626 Y48.203 E5.10343
G1 X50.518 Y47.943 E5.10787
G1 X50.352 Y47.542 E5.11470
G1 X50.258 Y46.832 E5.12596
G1 X50.352 Y46.123 E5.13723
G1 X50.459 Y45.862 E5.14166
G1 X50.626 Y45.461 E5.14849
G1 X51.061 Y44.893 E5.15975
G1 X51.629 Y44.458 E5.17102
G1 X52.290 Y44.184 E5.18228
G1 X52.721 Y44.127 E5.18912
G1 X53.000 Y44.090 E5.19355 F900.000
G1 X53.710 Y44.184 E5.20481
G1 X54.371 Y44.458 E5.21608
G1 X54.939 Y44.893 E5.22734
G1 X55.374 Y45.461 E5.23860
G1 X55.648 Y46.123 E5.24987
G1 X55.742 Y46.832 E5.26113
G1 X55.648 Y47.542 E5.27240
G1 X55.374 Y48.203 E5.28366
G1 X54.939 Y48.771 E5.29492
G1 X54.371 Y49.207 E5.30619
G1 X53.710 Y49.480 E5.31745
G1 X53.059 Y49.566 E5.32777
G1 X52.785 Y49.911 F7800.000
G1 X52.863 Y53.581 F7800.000
G1 X53.752 Y53.665 E5.35222 F900.000
G1 X54.589 Y53.976 E5.37667
G1 X55.317 Y54.493 E5.40112
G1 X55.887 Y55.181 E5.42557
G1 X56.259 Y55.992 E5.45003
G1 X56.409 Y56.873 E5.47448
G1 X56.325 Y57.762 E5.49893
G1 X56.014 Y58.599 E5.52338
G1 X55.497 Y59.327 E5.54783
G1 X54.809 Y59.897 E5.57228
G1 X53.998 Y60.269 E5.59673
G1 X53.117 Y60.419 E5.62118
G1 X52.228 Y60.335 E5.64563
G1 X51.391 Y60.024 E5.67008
G1 X50.663 Y59.507 E5.69453
G1 X50.093 Y58.819 E5.71898
G1 X49.721 Y58.008 E5.74343
G1 X49.571 Y57.127 E5.76789
G1 X49.655 Y56.238 E5.79234
G1 X49.966 Y55.401 E5.81679
G1 X50.483 Y54.673 E5.84124
G1 X51.171 Y54.103 E5.86569
G1 X51.982 Y53.731 E5.89014
G1 X52.391 Y53.661 E5.90149
G1 X52.804 Y53.591 E5.91295 F900.000
G1 X52.888 Y54.245 F7800.000
G1 X53.604 Y54.313 E5.93265 F900.000
G1 X54.279 Y54.563 E5.95235
G1 X54.866 Y54.980 E5.97206
G1 X55.325 Y55.534 E5.99176
G1 X55.624 Y56.188 E6.01146
G1 X55.745 Y56.898 E6.03117
G1 X55.677 Y57.614 E6.05087
G1 X55.427 Y58.289 E6.07057
G1 X55.010 Y58.876 E6.09028
