; generated by Slic3r 1.2.9 on 2017-04-09 at 14:20:18

; external perimeters extrusion width = 0.40mm
; perimeters extrusion width = 0.68mm
; infill extrusion width = 1.28mm
; solid infill extrusion width = 0.68mm
; top infill extrusion width = 0.68mm

M107
M190 S65 ; set bed temperature
M104 S240 ; set temperature
G28 ; home all axes
G1 Z5 F5000 ; lift nozzle

M109 S240 ; wait for temperature to be reached
G21 ; set units to millimeters
G90 ; use absolute coordinates
M82 ; use absolute distances for extrusion
G92 E0
G1 Z0.400 F7800.000
G1 E-4.50000 F2400.00000
G92 E0
G1 X27.475 Y32.175 F7800.000
G1 E4.50000 F2400.00000
G1 X28.233 Y31.528 E4.61834 F1800.000
G1 X30.393 Y30.712 E4.89257
G1 X31.650 Y30.594 E5.04253
G1 X82.350 Y30.594 E11.06393
G1 X84.625 Y30.991 E11.33815
G1 X86.630 Y32.135 E11.61238 F1800.000
G1 X88.130 Y33.891 E11.88660
G1 X88.945 Y36.051 E12.16083
G1 X89.064 Y37.308 E12.31079
G1 X89.064 Y66.692 E15.80063
G1 X88.667 Y68.967 E16.07486
G1 X87.523 Y70.972 E16.34908
G1 X85.767 Y72.472 E16.62331
G1 X83.607 Y73.288 E16.89753
G1 X82.350 Y73.406 E17.04750
G1 X31.650 Y73.406 E23.06889
G1 X29.375 Y73.009 E23.34312
G1 X27.370 Y71.865 E23.61734
G1 X25.870 Y70.109 E23.89157
G1 X25.055 Y67.949 E24.16579
G1 X24.936 Y66.692 E24.31576
G1 X24.936 Y37.308 E27.80560
G1 X25.333 Y35.033 E28.07982
G1 X26.477 Y33.028 E28.35405
G1 X27.429 Y32.214 E28.50280
G1 E24.00280 F2400.00000
G92 E0
G1 X31.206 Y36.237 F7800.000
G1 E4.50000 F2400.00000
G1 X44.794 Y36.237 E6.11371 F1800.000
G1 X45.421 Y36.864 E6.21911
G1 X45.421 Y67.136 E9.81435 F1800.000
G1 X44.794 Y67.763 E9.91975
G1 X31.206 Y67.763 E11.53346
G1 X30.579 Y67.136 E11.63886
G1 X30.579 Y36.864 E15.23410
G1 X31.164 Y36.279 E15.33237
G1 X31.502 Y36.951 F7800.000
G1 X44.498 Y36.951 E16.87582 F1800.000
G1 X44.707 Y37.160 E16.91095 F1800.000
G1 X44.707 Y66.840 E20.43592
G1 X44.498 Y67.049 E20.47105
G1 X31.502 Y67.049 E22.01450
G1 X31.293 Y66.840 E22.04964
G1 X31.293 Y37.160 E25.57461
G1 X31.460 Y36.993 E25.60261
G1 E21.10261 F2400.00000
G92 E0
G1 X49.579 Y36.951 F7800.000
G1 E4.50000 F2400.00000
G1 X49.579 Y36.864 E4.51029 F1800.000
G1 X50.206 Y36.237 E4.61569
G1 X63.794 Y36.237 E6.22940
G1 X64.421 Y36.864 E6.33480
G1 X64.421 Y67.136 E9.93004 F1800.000
G1 X63.794 Y67.763 E10.03543
G1 X50.206 Y67.763 E11.64915
G1 X49.579 Y67.136 E11.75455
G1 X49.579 Y37.011 E15.33237
G1 X50.293 Y37.160 F7800.000
G1 X50.502 Y36.951 E15.36750 F1800.000
G1 X63.498 Y36.951 E16.91095
G1 X63.707 Y37.160 E16.94608 F1800.000
G1 X63.707 Y66.840 E20.47105
G1 X63.498 Y67.049 E20.50619
G1 X50.502 Y67.049 E22.04964
G1 X50.293 Y66.840 E22.08477
G1 X50.293 Y37.220 E25.60261
G1 E21.10261 F2400.00000
G92 E0
G1 X68.579 Y37.160 F7800.000
G1 E4.50000 F2400.00000
G1 X68.579 Y36.864 E4.53513 F1800.000
G1 X69.206 Y36.237 E4.64053
G1 X82.794 Y36.237 E6.25424
G1 X83.421 Y36.864 E6.35964
G1 X83.421 Y67.136 E9.95488 F1800.000
G1 X82.794 Y67.763 E10.06028
G1 X69.206 Y67.763 E11.67399
G1 X68.579 Y67.136 E11.77939
G1 X68.579 Y37.220 E15.33237
G1 X69.293 Y37.160 F7800.000
G1 X69.502 Y36.951 E15.36750 F1800.000
G1 X82.498 Y36.951 E16.91095
G1 X82.707 Y37.160 E16.94608 F1800.000
G1 X82.707 Y66.840 E20.47105
G1 X82.498 Y67.049 E20.50619
G1 X69.502 Y67.049 E22.04964
G1 X69.293 Y66.840 E22.08477
G1 X69.293 Y37.220 E25.60261
G1 E21.10261 F2400.00000
G92 E0
G1 X81.950 Y66.292 F7800.000
G1 E4.50000 F2400.00000
G1 X70.050 Y66.292 E5.91331 F1800.000
G1 X70.050 Y37.708 E9.30813
G1 X81.950 Y37.708 E10.72144
G1 X81.950 Y66.232 E14.10914
G1 X81.604 Y66.092 F7800.000
G1 X81.236 Y65.578 F7800.000
G1 X77.982 Y65.578 E14.49559 F1800.000
G1 X77.883 Y65.288 E14.53198
G1 X78.601 Y64.733 E14.63978
G1 X79.180 Y63.972 E14.75337
G1 X79.543 Y63.087 E14.86696
G1 X79.664 Y62.138 E14.98056
G1 X79.535 Y61.190 E15.09415
G1 X79.166 Y60.308 E15.20774
G1 X78.580 Y59.551 E15.32133
G1 X77.819 Y58.972 E15.43492
G1 X76.934 Y58.610 E15.54851
G1 X75.986 Y58.488 E15.66210
G1 X75.038 Y58.617 E15.77570
G1 X74.156 Y58.986 E15.88929
G1 X73.399 Y59.572 E16.00288
G1 X72.820 Y60.333 E16.11647
G1 X72.457 Y61.218 E16.23006
G1 X72.336 Y62.167 E16.34365
G1 X72.465 Y63.114 E16.45724
G1 X72.834 Y63.997 E16.57084
G1 X73.420 Y64.753 E16.68443
G1 X74.120 Y65.286 E16.78903
G1 X74.022 Y65.578 E16.82558
G1 X70.764 Y65.578 E17.21250
G1 X70.764 Y38.422 E20.43769
G1 X74.000 Y38.422 E20.82197
G1 X74.098 Y38.713 E20.85844
G1 X73.409 Y39.242 E20.96160
G1 X72.827 Y40.000 E21.07519
G1 X72.461 Y40.884 E21.18878
G1 X72.336 Y41.832 E21.30237
G1 X72.461 Y42.780 E21.41596
G1 X72.827 Y43.664 E21.52955
G1 X73.409 Y44.423 E21.64314
G1 X74.168 Y45.005 E21.75674
G1 X75.052 Y45.371 E21.87033
G1 X76.000 Y45.496 E21.98392
G1 X76.948 Y45.371 E22.09751
G1 X77.832 Y45.005 E22.21110
G1 X78.591 Y44.423 E22.32469
G1 X79.173 Y43.664 E22.43828
G1 X79.539 Y42.780 E22.55188
G1 X79.664 Y41.832 E22.66547
G1 X79.539 Y40.884 E22.77906
G1 X79.173 Y40.000 E22.89265
G1 X78.591 Y39.242 E23.00624
G1 X77.902 Y38.713 E23.10940
G1 X78.000 Y38.422 E23.14587
G1 X81.236 Y38.422 E23.53014
G1 X81.236 Y65.518 E26.74821
G1 X80.177 Y40.558 F7800.000
G1 X79.797 Y39.640 E26.86616 F1800.000
G1 X79.410 Y39.136 E26.94161
G1 X80.522 Y39.136 E27.07363
G1 X80.522 Y40.489 E27.23431
G1 X80.236 Y40.546 E27.26895
G1 E22.76895 F2400.00000
G92 E0
G1 X72.590 Y39.136 F7800.000
G1 E4.50000 F2400.00000
G1 X72.203 Y39.640 E4.57545 F1800.000
G1 X71.823 Y40.558 E4.69340
G1 X71.478 Y40.489 E4.73516
G1 X71.478 Y39.136 E4.89584
G1 X72.530 Y39.136 E5.02074
G1 X71.823 Y43.107 F7800.000
G1 X72.203 Y44.024 E5.13869 F1800.000
G1 X72.900 Y44.932 E5.27461
G1 X73.808 Y45.629 E5.41054
G1 X74.865 Y46.067 E5.54646
G1 X76.000 Y46.216 E5.68238
G1 X77.135 Y46.067 E5.81831
G1 X78.192 Y45.629 E5.95423
G1 X79.100 Y44.932 E6.09016
G1 X79.797 Y44.024 E6.22608
G1 X80.177 Y43.107 E6.34403
G1 X80.522 Y43.175 E6.38579
G1 X80.522 Y60.806 E8.47971
G1 X80.178 Y60.875 E8.52139
G1 X79.788 Y59.945 E8.64114
G1 X79.088 Y59.040 E8.77707
G1 X78.177 Y58.347 E8.91299
G1 X77.118 Y57.913 E9.04892
G1 X75.983 Y57.768 E9.18484
G1 X74.849 Y57.922 E9.32076
G1 X73.793 Y58.364 E9.45669
G1 X72.888 Y59.064 E9.59261
G1 X72.195 Y59.975 E9.72854
G1 X71.824 Y60.880 E9.84466
G1 X71.478 Y60.812 E9.88651
G1 X71.478 Y43.175 E11.98111
G1 X71.764 Y43.118 E12.01575
G1 X74.910 Y49.839 F7800.000
G1 X75.273 Y49.673 E12.06317 F1800.000
G1 X75.717 Y49.597 E12.11674
G1 X75.900 Y49.566 E12.13868 F1800.000
G1 X76.532 Y49.626 E12.21419
G1 X77.129 Y49.847 E12.28970
G1 X77.647 Y50.215 E12.36521
G1 X78.052 Y50.705 E12.44072
G1 X78.317 Y51.283 E12.51622
G1 X78.424 Y51.909 E12.59173
G1 X78.364 Y52.542 E12.66724
G1 X78.143 Y53.139 E12.74275
G1 X77.775 Y53.657 E12.81826
G1 X77.285 Y54.062 E12.89377
G1 X76.707 Y54.327 E12.96928
G1 X76.081 Y54.434 E13.04478
G1 X75.448 Y54.374 E13.12029
G1 X74.852 Y54.153 E13.19580
G1 X74.333 Y53.785 E13.27131
G1 X73.928 Y53.295 E13.34682
G1 X73.663 Y52.717 E13.42233
G1 X73.556 Y52.091 E13.49784
G1 X73.616 Y51.458 E13.57334
G1 X73.837 Y50.861 E13.64885
G1 X74.205 Y50.343 E13.72436
G1 X74.695 Y49.938 E13.79987
G1 X74.855 Y49.864 E13.82083
G1 X74.947 Y49.441 F7800.000
G1 X74.612 Y49.190 F7800.000
G1 X75.061 Y48.984 E13.87942 F1800.000
G1 X75.598 Y48.893 E13.94415
G1 X75.873 Y48.846 E13.97726 F1800.000
G1 X76.693 Y48.924 E14.07510
G1 X77.465 Y49.210 E14.17294
G1 X78.137 Y49.687 E14.27078
G1 X78.662 Y50.322 E14.36862
G1 X79.006 Y51.071 E14.46647
G1 X79.144 Y51.883 E14.56431
G1 X79.067 Y52.703 E14.66215
G1 X78.780 Y53.475 E14.75999
G1 X78.303 Y54.147 E14.85783
G1 X77.668 Y54.672 E14.95567
G1 X76.920 Y55.016 E15.05351
G1 X76.107 Y55.154 E15.15136
G1 X75.287 Y55.076 E15.24920
G1 X74.515 Y54.790 E15.34704
G1 X73.843 Y54.313 E15.44488
G1 X73.318 Y53.678 E15.54272
G1 X72.974 Y52.929 E15.64056
G1 X72.836 Y52.117 E15.73841
G1 X72.914 Y51.297 E15.83625
G1 X73.200 Y50.525 E15.93409
G1 X73.677 Y49.853 E16.03193
G1 X74.312 Y49.328 E16.12977
G1 X74.558 Y49.215 E16.16190
G1 X74.314 Y48.541 F7800.000
G1 X74.848 Y48.296 E16.23165 F1800.000
G1 X75.478 Y48.189 E16.30755
G1 X75.846 Y48.127 E16.35183 F1800.000
G1 X76.853 Y48.221 E16.47200
G1 X77.802 Y48.574 E16.59217
G1 X78.627 Y49.159 E16.71235
G1 X79.272 Y49.939 E16.83252
G1 X79.694 Y50.858 E16.95270
G1 X79.863 Y51.856 E17.07287
G1 X79.769 Y52.863 E17.19304
G1 X79.417 Y53.812 E17.31322
G1 X78.831 Y54.637 E17.43339
G1 X78.051 Y55.282 E17.55357
G1 X77.132 Y55.704 E17.67374
G1 X76.134 Y55.873 E17.79392
G1 X75.127 Y55.779 E17.91409
G1 X74.178 Y55.426 E18.03427
G1 X73.353 Y54.841 E18.15444
G1 X72.708 Y54.061 E18.27461
G1 X72.286 Y53.142 E18.39479
G1 X72.117 Y52.144 E18.51496
G1 X72.211 Y51.137 E18.63514
G1 X72.564 Y50.188 E18.75531
G1 X73.149 Y49.363 E18.87548
G1 X73.929 Y48.718 E18.99566
G1 X74.260 Y48.566 E19.03895
G1 X71.822 Y63.429 F7800.000
G1 X72.212 Y64.359 E19.15870 F1800.000
G1 X72.602 Y64.864 E19.23449
G1 X71.478 Y64.864 E19.36798
G1 X71.478 Y63.498 E19.53017
G1 X71.764 Y63.441 E19.56473
G1 E15.06473 F2400.00000
G92 E0
G1 X79.398 Y64.864 F7800.000
G1 E4.50000 F2400.00000
G1 X79.805 Y64.329 E4.57979 F1800.000
G1 X80.176 Y63.424 E4.69591
G1 X80.522 Y63.493 E4.73776
G1 X80.522 Y64.864 E4.90063
G1 X79.458 Y64.864 E5.02690
G1 E0.52690 F2400.00000
G92 E0
G1 X76.741 Y44.678 F7800.000
G1 E4.50000 F2400.00000
G1 X76.000 Y44.776 E4.58876 F1800.000
G1 X75.238 Y44.675 E4.68002
G1 X74.528 Y44.381 E4.77128
G1 X73.919 Y43.914 E4.86254
G1 X73.451 Y43.304 E4.95380
G1 X73.157 Y42.594 E5.04506
G1 X73.057 Y41.832 E5.13631
G1 X73.157 Y41.070 E5.22757
G1 X73.451 Y40.360 E5.31883
G1 X73.919 Y39.751 E5.41009
G1 X74.528 Y39.283 E5.50135
G1 X75.238 Y38.989 E5.59261
G1 X75.835 Y38.910 E5.66414
G1 X76.000 Y38.889 E5.68387 F1800.000
G1 X76.762 Y38.989 E5.77512
G1 X77.472 Y39.283 E5.86638
G1 X78.081 Y39.751 E5.95764
G1 X78.549 Y40.360 E6.04890
G1 X78.843 Y41.070 E6.14016
G1 X78.943 Y41.832 E6.23142
G1 X78.843 Y42.594 E6.32268
G1 X78.549 Y43.304 E6.41393
G1 X78.081 Y43.914 E6.50519
G1 X77.472 Y44.381 E6.59645
G1 X76.798 Y44.660 E6.68308
G1 X76.620 Y45.059 F7800.000
G1 E2.18308 F2400.00000
G92 E0
G1 X75.988 Y59.209 F7800.000
G1 E4.50000 F2400.00000
G1 X76.751 Y59.306 E4.59126 F1800.000
G1 X77.462 Y59.597 E4.68252
G1 X78.073 Y60.063 E4.77378
G1 X78.543 Y60.670 E4.86503
G1 X78.840 Y61.379 E4.95629
G1 X78.943 Y62.141 E5.04755
G1 X78.846 Y62.903 E5.13881
G1 X78.782 Y63.059 E5.15886
G1 X78.555 Y63.614 E5.23007
G1 X78.090 Y64.225 E5.32133
G1 X77.482 Y64.695 E5.41259
G1 X76.773 Y64.992 E5.50384
G1 X76.012 Y65.096 E5.59510
G1 X75.249 Y64.998 E5.68636
G1 X74.538 Y64.707 E5.77762
G1 X73.927 Y64.242 E5.86888
G1 X73.457 Y63.634 E5.96014
G1 X73.160 Y62.925 E6.05140
G1 X73.057 Y62.164 E6.14265
G1 X73.154 Y61.402 E6.23391
G1 X73.445 Y60.690 E6.32517
G1 X73.910 Y60.079 E6.41643
G1 X74.518 Y59.609 E6.50769
G1 X75.227 Y59.312 E6.59895
G1 X75.821 Y59.231 E6.67015
G1 X75.929 Y59.217 E6.68308 F1800.000
G1 X76.202 Y58.871 F7800.000
G1 X74.745 Y57.544 F7800.000
G1 X71.914 Y54.713 E7.18128 F1800.000
G1 X71.914 Y55.771 E7.31293
G1 X73.999 Y57.856 E7.67990
G1 X73.332 Y58.247 E7.77612
G1 X71.914 Y56.829 E8.02569
G1 X71.914 Y57.887 E8.15735
G1 X72.736 Y58.709 E8.30195
G1 X72.251 Y59.282 E8.39537
G1 X71.914 Y58.945 E8.45471
G1 X74.240 Y55.980 F7800.000
G1 X75.652 Y57.393 E8.70323 F1800.000
G1 X76.720 Y57.403 E8.83613
G1 X75.592 Y56.275 E9.03458
G1 X76.590 Y56.214 E9.15893
G1 X78.178 Y57.802 E9.43834
G1 X80.086 Y58.653 F7800.000
G1 X77.427 Y55.994 E9.90623 F1800.000
G1 X78.153 Y55.661 E10.00553
G1 X80.086 Y57.594 E10.34576
G1 X80.086 Y56.536 E10.47741
G1 X78.744 Y55.194 E10.71359
G1 X79.732 Y55.124 E10.83687
G1 X80.086 Y55.478 E10.89912
G1 X79.767 Y54.622 F7800.000
G1 X79.943 Y54.058 E10.96940 F1800.000
G1 X80.145 Y52.933 E11.10509
G1 X74.584 Y47.992 F7800.000
G1 X71.914 Y45.323 E11.57437 F1800.000
G1 X71.914 Y46.380 F7800.000
G1 X73.859 Y48.325 E11.91626 F1800.000
G1 X73.262 Y48.785 E12.00994
G1 X71.914 Y47.437 E12.24686
G1 X71.914 Y48.494 E12.37824
G1 X72.268 Y48.847 E12.44043
G1 X73.835 Y46.187 F7800.000
G1 X75.428 Y47.779 E12.72039 F1800.000
G1 X75.288 Y46.583 E12.87008
G1 X76.435 Y47.730 E13.07160
G1 X77.806 Y48.044 E13.24650
G1 X76.353 Y46.590 E13.50202
G1 X77.257 Y46.438 E13.61598
G1 X80.086 Y49.267 E14.11335
G1 X80.086 Y48.210 E14.24473
G1 X78.004 Y46.128 E14.61072
G1 X78.669 Y45.735 E14.70664
G1 X80.086 Y47.153 E14.95583
G1 X80.086 Y46.096 E15.08721
G1 X79.267 Y45.277 E15.23127
G1 X79.749 Y44.702 E15.32452
G1 X80.086 Y45.039 E15.38380
G1 E10.88380 F2400.00000
G92 E0
G1 X71.609 Y42.785 F7800.000
G1 E4.50000 F2400.00000
G1 X71.550 Y41.888 E4.72635 F1800.000
G1 X71.609 Y40.879 E4.98086
G1 X74.400 Y38.490 F7800.000
G1 X75.107 Y38.354 E5.16221 F1800.000
G1 X75.970 Y38.298 E5.37984
G1 X76.893 Y38.354 E5.61274
G1 X77.600 Y38.490 E5.79409
G1 X80.391 Y40.879 F7800.000
G1 X80.450 Y41.888 E6.04861 F1800.000
G1 X80.391 Y42.785 E6.27496
G1 X72.233 Y49.349 F7800.000
G1 X72.047 Y49.946 E6.34920 F1800.000
G1 X71.855 Y51.013 E6.47796
G1 X71.608 Y61.201 F7800.000
G1 X71.550 Y62.114 E6.70814 F1800.000
G1 X71.610 Y63.108 E6.95886
G1 X74.423 Y65.508 F7800.000
G1 X75.120 Y65.640 E7.13760 F1800.000
G1 X75.983 Y65.694 E7.35519
G1 X76.908 Y65.636 E7.58864
G1 X77.580 Y65.506 E7.76106
G1 X80.392 Y63.103 F7800.000
G1 X80.450 Y62.191 E7.99124 F1800.000
G1 X80.390 Y61.197 E8.24196
G1 E3.74196 F2400.00000
G92 E0
G1 X62.950 Y66.292 F7800.000
G1 E4.50000 F2400.00000
G1 X51.050 Y66.292 E5.91331 F1800.000
G1 X51.050 Y37.708 E9.30813
G1 X62.950 Y37.708 E10.72144
G1 X62.950 Y66.232 E14.10914
G1 X62.604 Y66.092 F7800.000
G1 X62.236 Y65.578 F7800.000
G1 X58.982 Y65.578 E14.49559 F1800.000
G1 X58.883 Y65.288 E14.53198
G1 X59.601 Y64.733 E14.63978
G1 X60.180 Y63.972 E14.75337
G1 X60.543 Y63.087 E14.86696
G1 X60.664 Y62.138 E14.98056
G1 X60.535 Y61.190 E15.09415
G1 X60.166 Y60.308 E15.20774
G1 X59.580 Y59.551 E15.32133
G1 X58.819 Y58.972 E15.43492
G1 X57.934 Y58.610 E15.54851
G1 X56.986 Y58.488 E15.66210
G1 X56.038 Y58.617 E15.77570
G1 X55.156 Y58.986 E15.88929
G1 X54.399 Y59.572 E16.00288
G1 X53.820 Y60.333 E16.11647
G1 X53.457 Y61.218 E16.23006
G1 X53.336 Y62.167 E16.34365
G1 X53.465 Y63.114 E16.45724
G1 X53.834 Y63.997 E16.57084
G1 X54.420 Y64.753 E16.68443
G1 X55.120 Y65.286 E16.78903
G1 X55.022 Y65.578 E16.82558
G1 X51.764 Y65.578 E17.21250
G1 X51.764 Y38.422 E20.43769
G1 X55.000 Y38.422 E20.82197
G1 X55.098 Y38.713 E20.85844
G1 X54.409 Y39.242 E20.96160
G1 X53.827 Y40.000 E21.07519
G1 X53.461 Y40.884 E21.18878
G1 X53.336 Y41.832 E21.30237
G1 X53.461 Y42.780 E21.41596
G1 X53.827 Y43.664 E21.52955
G1 X54.409 Y44.423 E21.64314
G1 X55.168 Y45.005 E21.75674
G1 X56.052 Y45.371 E21.87033
G1 X57.000 Y45.496 E21.98392
G1 X57.948 Y45.371 E22.09751
G1 X58.832 Y45.005 E22.21110
G1 X59.591 Y44.423 E22.32469
G1 X60.173 Y43.664 E22.43828
G1 X60.539 Y42.780 E22.55188
G1 X60.664 Y41.832 E22.66547
G1 X60.539 Y40.884 E22.77906
G1 X60.173 Y40.000 E22.89265
G1 X59.591 Y39.242 E23.00624
G1 X58.902 Y38.713 E23.10940
G1 X59.000 Y38.422 E23.14587
G1 X62.236 Y38.422 E23.53014
G1 X62.236 Y65.518 E26.74821
G1 X61.177 Y40.558 F7800.000
G1 X60.797 Y39.640 E26.86615 F1800.000
G1 X60.410 Y39.136 E26.94160
G1 X61.522 Y39.136 E27.07363
G1 X61.522 Y40.489 E27.23431
G1 X61.236 Y40.546 E27.26895
G1 E22.76895 F2400.00000
G92 E0
G1 X53.590 Y39.136 F7800.000
G1 E4.50000 F2400.00000
G1 X53.203 Y39.640 E4.57545 F1800.000
G1 X52.823 Y40.558 E4.69340
G1 X52.478 Y40.489 E4.73516
G1 X52.478 Y39.136 E4.89584
G1 X53.530 Y39.136 E5.02074
G1 X52.823 Y43.107 F7800.000
G1 X53.203 Y44.024 E5.13869 F1800.000
G1 X53.900 Y44.932 E5.27462
G1 X54.808 Y45.629 E5.41054
G1 X55.865 Y46.067 E5.54646
G1 X57.000 Y46.216 E5.68239
G1 X58.135 Y46.067 E5.81831
G1 X59.192 Y45.629 E5.95424
G1 X60.100 Y44.932 E6.09016
G1 X60.797 Y44.024 E6.22609
G1 X61.177 Y43.107 E6.34403
G1 X61.522 Y43.175 E6.38580
G1 X61.522 Y60.806 E8.47972
G1 X61.178 Y60.875 E8.52140
G1 X60.788 Y59.945 E8.64115
G1 X60.088 Y59.040 E8.77707
G1 X59.177 Y58.347 E8.91299
G1 X58.118 Y57.913 E9.04892
G1 X56.983 Y57.768 E9.18484
G1 X55.849 Y57.922 E9.32077
G1 X54.793 Y58.364 E9.45669
G1 X53.888 Y59.064 E9.59261
G1 X53.195 Y59.975 E9.72854
G1 X52.824 Y60.880 E9.84467
G1 X52.478 Y60.812 E9.88651
G1 X52.478 Y43.175 E11.98112
