; generated by Slic3r 1.2.9 on 2017-02-24 at 09:52:22

; external perimeters extrusion width = 0.40mm
; perimeters extrusion width = 0.68mm
; infill extrusion width = 1.28mm
; solid infill extrusion width = 0.68mm
; top infill extrusion width = 0.68mm
; support material extrusion width = 0.40mm

M107
M190 S70 ; set bed temperature
M104 S240 ; set temperature
G28 ; home all axes
G1 Z5 F5000 ; lift nozzle

M109 S240 ; wait for temperature to be reached
G21 ; set units to millimeters
G90 ; use absolute coordinates
M82 ; use absolute distances for extrusion
G92 E0
G1 Z0.300 F9000.000
G1 E-4.50000 F2400.00000
G92 E0
G1 X11.591 Y12.708 F9000.000
G1 E4.50000 F2400.00000
G1 X13.359 Y11.129 E4.65833 F1200.000
G1 X15.549 Y10.224 E4.81666
G1 X17.118 Y10.047 E4.92216
G1 X100.882 Y10.047 E10.51798
G1 X103.218 Y10.444 E10.67631
G1 X105.292 Y11.591 E10.83464 F1200.000
G1 X106.871 Y13.359 E10.99297
G1 X107.776 Y15.549 E11.15130
G1 X107.953 Y17.119 E11.25680
G1 X107.953 Y100.881 E16.85262
G1 X107.556 Y103.218 E17.01095
G1 X106.409 Y105.292 E17.16928
G1 X104.641 Y106.871 E17.32761
G1 X102.451 Y107.776 E17.48594
G1 X100.882 Y107.953 E17.59143
G1 X17.118 Y107.953 E23.18726
G1 X14.782 Y107.556 E23.34559
G1 X12.708 Y106.409 E23.50392
G1 X11.129 Y104.641 E23.66225
G1 X10.224 Y102.451 E23.82058
G1 X10.047 Y100.881 E23.92608
G1 X10.047 Y17.119 E29.52190
G1 X10.444 Y14.782 E29.68023
G1 X11.562 Y12.760 E29.83455
G1 X12.074 Y12.988 F9000.000
G1 X12.122 Y12.905 E29.84096 F1200.000
G1 X13.872 Y11.446 E29.99313
G1 X17.118 Y10.583 E30.21756
G1 X100.882 Y10.583 E35.81338
G1 X103.124 Y10.980 E35.96555
G1 X105.095 Y12.122 E36.11773 F1200.000
G1 X106.554 Y13.872 E36.26990
G1 X107.417 Y17.119 E36.49433
G1 X107.417 Y100.881 E42.09015
G1 X107.020 Y103.124 E42.24232
G1 X105.878 Y105.095 E42.39449
G1 X104.128 Y106.554 E42.54666
G1 X100.882 Y107.417 E42.77109
G1 X17.118 Y107.417 E48.36691
G1 X14.876 Y107.020 E48.51908
G1 X12.905 Y105.878 E48.67126
G1 X11.446 Y104.128 E48.82343
G1 X10.583 Y100.881 E49.04786
G1 X10.583 Y17.119 E54.64368
G1 X10.980 Y14.876 E54.79585
G1 X12.044 Y13.040 E54.93760
G1 X13.064 Y13.977 F9000.000
G1 X15.011 Y12.030 E55.12157 F1200.000
G1 X27.989 Y12.030 E55.98859
G1 X28.778 Y12.819 E56.06313
G1 X29.222 Y12.819 E56.09278 F1200.000
G1 X30.011 Y12.030 E56.16731
G1 X42.989 Y12.030 E57.03434
G1 X43.778 Y12.819 E57.10888
G1 X44.222 Y12.819 E57.13852
G1 X45.011 Y12.030 E57.21306
G1 X57.989 Y12.030 E58.08008
G1 X58.778 Y12.819 E58.15462
G1 X59.222 Y12.819 E58.18426
G1 X60.011 Y12.030 E58.25880
G1 X72.989 Y12.030 E59.12583
G1 X73.778 Y12.819 E59.20037
G1 X74.222 Y12.819 E59.23001
G1 X75.011 Y12.030 E59.30455
G1 X87.989 Y12.030 E60.17157
G1 X88.778 Y12.819 E60.24611
G1 X89.222 Y12.819 E60.27575
G1 X90.011 Y12.030 E60.35029
G1 X102.989 Y12.030 E61.21732
G1 X105.970 Y15.011 E61.49893
G1 X105.970 Y27.989 E62.36595
G1 X105.181 Y28.778 E62.44049
G1 X105.181 Y29.222 E62.47013
G1 X105.970 Y30.011 E62.54467
G1 X105.970 Y42.989 E63.41170
G1 X105.181 Y43.778 E63.48624
G1 X105.181 Y44.222 E63.51588
G1 X105.970 Y45.011 E63.59042
G1 X105.970 Y57.989 E64.45744
G1 X105.181 Y58.778 E64.53198
G1 X105.181 Y59.222 E64.56162
G1 X105.970 Y60.011 E64.63616
G1 X105.970 Y72.989 E65.50319
G1 X105.181 Y73.778 E65.57773
G1 X105.181 Y74.222 E65.60737
G1 X105.970 Y75.011 E65.68191
G1 X105.970 Y87.989 E66.54893
G1 X105.181 Y88.778 E66.62347
G1 X105.181 Y89.222 E66.65311
G1 X105.970 Y90.011 E66.72765
G1 X105.970 Y102.989 E67.59468
G1 X102.989 Y105.970 E67.87628
G1 X90.011 Y105.970 E68.74331
G1 X89.222 Y105.181 E68.81785
G1 X88.778 Y105.181 E68.84749
G1 X87.989 Y105.970 E68.92203
G1 X75.011 Y105.970 E69.78906
G1 X74.222 Y105.181 E69.86359
G1 X73.778 Y105.181 E69.89324
G1 X72.989 Y105.970 E69.96778
G1 X60.011 Y105.970 E70.83480
G1 X59.222 Y105.181 E70.90934
G1 X58.778 Y105.181 E70.93898
G1 X57.989 Y105.970 E71.01352
G1 X45.011 Y105.970 E71.88055
G1 X44.222 Y105.181 E71.95508
G1 X43.778 Y105.181 E71.98473
G1 X42.989 Y105.970 E72.05926
G1 X30.011 Y105.970 E72.92629
G1 X29.222 Y105.181 E73.00083
G1 X28.778 Y105.181 E73.03047
G1 X27.989 Y105.970 E73.10501
G1 X15.011 Y105.970 E73.97203
G1 X12.030 Y102.989 E74.25364
G1 X12.030 Y90.011 E75.12067
G1 X12.819 Y89.222 E75.19521
G1 X12.819 Y88.778 E75.22485
G1 X12.030 Y87.989 E75.29939
G1 X12.030 Y75.011 E76.16641
G1 X12.819 Y74.222 E76.24095
G1 X12.819 Y73.778 E76.27059
G1 X12.030 Y72.989 E76.34513
G1 X12.030 Y60.011 E77.21216
G1 X12.819 Y59.222 E77.28670
G1 X12.819 Y58.778 E77.31634
G1 X12.030 Y57.989 E77.39088
G1 X12.030 Y45.011 E78.25790
G1 X12.819 Y44.222 E78.33244
G1 X12.819 Y43.778 E78.36208
G1 X12.030 Y42.989 E78.43662
G1 X12.030 Y30.011 E79.30365
G1 X12.819 Y29.222 E79.37819
G1 X12.819 Y28.778 E79.40783
G1 X12.030 Y27.989 E79.48237
G1 X12.030 Y15.011 E80.34939
G1 X13.021 Y14.020 E80.44303
G1 X13.442 Y14.356 F9000.000
G1 X15.233 Y12.566 E80.61217 F1200.000
G1 X27.767 Y12.566 E81.44955
G1 X28.778 Y13.577 E81.54505 F1200.000
G1 X29.222 Y13.577 E81.57470
G1 X30.233 Y12.566 E81.67019
G1 X42.767 Y12.566 E82.50758
G1 X43.778 Y13.577 E82.60308
G1 X44.222 Y13.577 E82.63272
G1 X45.233 Y12.566 E82.72822
G1 X57.767 Y12.566 E83.56560
G1 X58.778 Y13.577 E83.66110
G1 X59.222 Y13.577 E83.69074
G1 X60.233 Y12.566 E83.78624
G1 X72.767 Y12.566 E84.62362
G1 X73.778 Y13.577 E84.71912
G1 X74.222 Y13.577 E84.74876
G1 X75.233 Y12.566 E84.84426
G1 X87.767 Y12.566 E85.68165
G1 X88.778 Y13.577 E85.77715
G1 X89.222 Y13.577 E85.80679
G1 X90.233 Y12.566 E85.90229
G1 X102.767 Y12.566 E86.73967
G1 X105.434 Y15.233 E86.99164
G1 X105.434 Y27.767 E87.82902
G1 X104.423 Y28.778 E87.92452
G1 X104.423 Y29.222 E87.95416
G1 X105.434 Y30.233 E88.04966
G1 X105.434 Y42.767 E88.88704
G1 X104.423 Y43.778 E88.98254
G1 X104.423 Y44.222 E89.01218
G1 X105.434 Y45.233 E89.10768
G1 X105.434 Y57.767 E89.94506
G1 X104.423 Y58.778 E90.04056
G1 X104.423 Y59.222 E90.07021
G1 X105.434 Y60.233 E90.16571
G1 X105.434 Y72.767 E91.00309
G1 X104.423 Y73.778 E91.09859
G1 X104.423 Y74.222 E91.12823
G1 X105.434 Y75.233 E91.22373
G1 X105.434 Y87.767 E92.06111
G1 X104.423 Y88.778 E92.15661
G1 X104.423 Y89.222 E92.18625
G1 X105.434 Y90.233 E92.28175
G1 X105.434 Y102.767 E93.11913
G1 X102.767 Y105.434 E93.37110
G1 X90.233 Y105.434 E94.20848
G1 X89.222 Y104.423 E94.30398
G1 X88.778 Y104.423 E94.33363
G1 X87.767 Y105.434 E94.42912
G1 X75.233 Y105.434 E95.26651
G1 X74.222 Y104.423 E95.36201
G1 X73.778 Y104.423 E95.39165
G1 X72.767 Y105.434 E95.48715
G1 X60.233 Y105.434 E96.32453
G1 X59.222 Y104.423 E96.42003
G1 X58.778 Y104.423 E96.44967
G1 X57.767 Y105.434 E96.54517
G1 X45.233 Y105.434 E97.38255
G1 X44.222 Y104.423 E97.47805
G1 X43.778 Y104.423 E97.50770
G1 X42.767 Y105.434 E97.60319
G1 X30.233 Y105.434 E98.44058
G1 X29.222 Y104.423 E98.53608
G1 X28.778 Y104.423 E98.56572
G1 X27.767 Y105.434 E98.66122
G1 X15.233 Y105.434 E99.49860
G1 X12.566 Y102.767 E99.75057
G1 X12.566 Y90.233 E100.58795
G1 X13.577 Y89.222 E100.68345
G1 X13.577 Y88.778 E100.71309
G1 X12.566 Y87.767 E100.80859
G1 X12.566 Y75.233 E101.64597
G1 X13.577 Y74.222 E101.74147
G1 X13.577 Y73.778 E101.77111
G1 X12.566 Y72.767 E101.86661
G1 X12.566 Y60.233 E102.70399
G1 X13.577 Y59.222 E102.79949
G1 X13.577 Y58.778 E102.82914
G1 X12.566 Y57.767 E102.92464
G1 X12.566 Y45.233 E103.76202
G1 X13.577 Y44.222 E103.85752
G1 X13.577 Y43.778 E103.88716
G1 X12.566 Y42.767 E103.98266
G1 X12.566 Y30.233 E104.82004
G1 X13.577 Y29.222 E104.91554
G1 X13.577 Y28.778 E104.94518
G1 X12.566 Y27.767 E105.04068
G1 X12.566 Y15.233 E105.87806
G1 X13.400 Y14.398 E105.95688
G1 X13.821 Y14.735 F9000.000
G1 X15.455 Y13.101 E106.11120 F1200.000
G1 X27.545 Y13.101 E106.91894
G1 X28.778 Y14.334 E107.03540
G1 X29.222 Y14.334 E107.06504 F1200.000
G1 X30.455 Y13.101 E107.18150
G1 X42.545 Y13.101 E107.98924
G1 X43.778 Y14.334 E108.10570
G1 X44.222 Y14.334 E108.13534
G1 X45.455 Y13.101 E108.25180
G1 X57.545 Y13.101 E109.05954
G1 X58.778 Y14.334 E109.17600
G1 X59.222 Y14.334 E109.20565
G1 X60.455 Y13.101 E109.32210
G1 X72.545 Y13.101 E110.12984
G1 X73.778 Y14.334 E110.24630
G1 X74.222 Y14.334 E110.27595
G1 X75.455 Y13.101 E110.39241
G1 X87.545 Y13.101 E111.20015
G1 X88.778 Y14.334 E111.31661
G1 X89.222 Y14.334 E111.34625
G1 X90.455 Y13.101 E111.46271
G1 X102.545 Y13.101 E112.27045
G1 X104.899 Y15.455 E112.49277
G1 X104.899 Y27.545 E113.30051
G1 X103.666 Y28.778 E113.41697
G1 X103.666 Y29.222 E113.44661
G1 X104.899 Y30.455 E113.56307
G1 X104.899 Y42.545 E114.37081
G1 X103.666 Y43.778 E114.48727
G1 X103.666 Y44.222 E114.51691
G1 X104.899 Y45.455 E114.63338
G1 X104.899 Y57.545 E115.44111
G1 X103.666 Y58.778 E115.55757
G1 X103.666 Y59.222 E115.58722
G1 X104.899 Y60.455 E115.70368
G1 X104.899 Y72.545 E116.51142
G1 X103.666 Y73.778 E116.62788
G1 X103.666 Y74.222 E116.65752
G1 X104.899 Y75.455 E116.77398
G1 X104.899 Y87.545 E117.58172
G1 X103.666 Y88.778 E117.69818
G1 X103.666 Y89.222 E117.72782
G1 X104.899 Y90.455 E117.84428
G1 X104.899 Y102.545 E118.65202
G1 X102.545 Y104.899 E118.87434
G1 X90.455 Y104.899 E119.68208
G1 X89.222 Y103.666 E119.79854
G1 X88.778 Y103.666 E119.82818
G1 X87.545 Y104.899 E119.94464
G1 X75.455 Y104.899 E120.75238
G1 X74.222 Y103.666 E120.86884
G1 X73.778 Y103.666 E120.89849
G1 X72.545 Y104.899 E121.01495
G1 X60.455 Y104.899 E121.82269
G1 X59.222 Y103.666 E121.93915
G1 X58.778 Y103.666 E121.96879
G1 X57.545 Y104.899 E122.08525
G1 X45.455 Y104.899 E122.89299
G1 X44.222 Y103.666 E123.00945
G1 X43.778 Y103.666 E123.03909
G1 X42.545 Y104.899 E123.15555
G1 X30.455 Y104.899 E123.96329
G1 X29.222 Y103.666 E124.07975
G1 X28.778 Y103.666 E124.10939
G1 X27.545 Y104.899 E124.22585
G1 X15.455 Y104.899 E125.03359
G1 X13.101 Y102.545 E125.25591
G1 X13.101 Y90.455 E126.06365
G1 X14.334 Y89.222 E126.18011
G1 X14.334 Y88.778 E126.20975
G1 X13.101 Y87.545 E126.32622
G1 X13.101 Y75.455 E127.13395
G1 X14.334 Y74.222 E127.25041
G1 X14.334 Y73.778 E127.28006
G1 X13.101 Y72.545 E127.39652
G1 X13.101 Y60.455 E128.20426
G1 X14.334 Y59.222 E128.32072
G1 X14.334 Y58.778 E128.35036
G1 X13.101 Y57.545 E128.46682
G1 X13.101 Y45.455 E129.27456
G1 X14.334 Y44.222 E129.39102
G1 X14.334 Y43.778 E129.42066
G1 X13.101 Y42.545 E129.53712
G1 X13.101 Y30.455 E130.34486
G1 X14.334 Y29.222 E130.46132
G1 X14.334 Y28.778 E130.49096
G1 X13.101 Y27.545 E130.60742
G1 X13.101 Y15.455 E131.41516
G1 X13.779 Y14.777 E131.47915
G1 X14.200 Y15.114 F9000.000
G1 X15.676 Y13.637 E131.61865 F1200.000
G1 X27.324 Y13.637 E132.39675
G1 X28.778 Y15.092 E132.53417 F1200.000
G1 X29.222 Y15.092 E132.56381
G1 X30.676 Y13.637 E132.70123
G1 X42.324 Y13.637 E133.47933
G1 X43.778 Y15.092 E133.61675
G1 X44.222 Y15.092 E133.64639
G1 X45.676 Y13.637 E133.78381
G1 X57.324 Y13.637 E134.56191
G1 X58.778 Y15.092 E134.69933
G1 X59.222 Y15.092 E134.72897
G1 X60.676 Y13.637 E134.86639
G1 X72.324 Y13.637 E135.64449
G1 X73.778 Y15.092 E135.78191
G1 X74.222 Y15.092 E135.81155
G1 X75.676 Y13.637 E135.94897
G1 X87.324 Y13.637 E136.72707
G1 X88.778 Y15.092 E136.86449
G1 X89.222 Y15.092 E136.89414
G1 X90.676 Y13.637 E137.03156
G1 X102.324 Y13.637 E137.80965
G1 X104.363 Y15.676 E138.00233
G1 X104.363 Y27.324 E138.78043
G1 X102.908 Y28.778 E138.91785
G1 X102.908 Y29.222 E138.94749
G1 X104.363 Y30.676 E139.08491
G1 X104.363 Y42.324 E139.86301
G1 X102.908 Y43.778 E140.00043
G1 X102.908 Y44.222 E140.03007
G1 X104.363 Y45.676 E140.16749
G1 X104.363 Y57.324 E140.94559
G1 X102.908 Y58.778 E141.08301
G1 X102.908 Y59.222 E141.11265
G1 X104.363 Y60.676 E141.25007
G1 X104.363 Y72.324 E142.02817
G1 X102.908 Y73.778 E142.16559
G1 X102.908 Y74.222 E142.19523
G1 X104.363 Y75.676 E142.33265
G1 X104.363 Y87.324 E143.11075
G1 X102.908 Y88.778 E143.24817
G1 X102.908 Y89.222 E143.27781
G1 X104.363 Y90.676 E143.41524
G1 X104.363 Y102.324 E144.19333
G1 X102.324 Y104.363 E144.38601
G1 X90.676 Y104.363 E145.16411
G1 X89.222 Y102.908 E145.30153
G1 X88.778 Y102.908 E145.33117
G1 X87.324 Y104.363 E145.46859
G1 X75.676 Y104.363 E146.24669
G1 X74.222 Y102.908 E146.38411
G1 X73.778 Y102.908 E146.41375
G1 X72.324 Y104.363 E146.55117
G1 X60.676 Y104.363 E147.32927
G1 X59.222 Y102.908 E147.46669
G1 X58.778 Y102.908 E147.49633
G1 X57.324 Y104.363 E147.63375
G1 X45.676 Y104.363 E148.41185
G1 X44.222 Y102.908 E148.54927
G1 X43.778 Y102.908 E148.57891
G1 X42.324 Y104.363 E148.71633
G1 X30.676 Y104.363 E149.49443
G1 X29.222 Y102.908 E149.63185
G1 X28.778 Y102.908 E149.66149
G1 X27.324 Y104.363 E149.79891
G1 X15.676 Y104.363 E150.57701
G1 X13.637 Y102.324 E150.76969
G1 X13.637 Y90.676 E151.54778
G1 X15.092 Y89.222 E151.68520
G1 X15.092 Y88.778 E151.71485
G1 X13.637 Y87.324 E151.85227
G1 X13.637 Y75.676 E152.63036
G1 X15.092 Y74.222 E152.76779
G1 X15.092 Y73.778 E152.79743
G1 X13.637 Y72.324 E152.93485
G1 X13.637 Y60.676 E153.71294
G1 X15.092 Y59.222 E153.85037
G1 X15.092 Y58.778 E153.88001
G1 X13.637 Y57.324 E154.01743
G1 X13.637 Y45.676 E154.79553
G1 X15.092 Y44.222 E154.93295
G1 X15.092 Y43.778 E154.96259
G1 X13.637 Y42.324 E155.10001
G1 X13.637 Y30.676 E155.87811
G1 X15.092 Y29.222 E156.01553
G1 X15.092 Y28.778 E156.04517
G1 X13.637 Y27.324 E156.18259
G1 X13.637 Y15.676 E156.96069
G1 X14.157 Y15.156 E157.00986
G1 X14.579 Y15.492 F9000.000
G1 X15.898 Y14.173 E157.13454 F1200.000
G1 X27.102 Y14.173 E157.88299
G1 X28.778 Y15.849 E158.04137
G1 X29.222 Y15.849 E158.07101 F1200.000
G1 X30.898 Y14.173 E158.22939
G1 X42.102 Y14.173 E158.97785
G1 X43.778 Y15.849 E159.13623
G1 X44.222 Y15.849 E159.16587
G1 X45.898 Y14.173 E159.32425
G1 X57.102 Y14.173 E160.07271
G1 X58.778 Y15.849 E160.23109
G1 X59.222 Y15.849 E160.26073
G1 X60.898 Y14.173 E160.41911
G1 X72.102 Y14.173 E161.16757
G1 X73.778 Y15.849 E161.32595
G1 X74.222 Y15.849 E161.35559
G1 X75.898 Y14.173 E161.51397
G1 X87.102 Y14.173 E162.26242
G1 X88.778 Y15.849 E162.42081
G1 X89.222 Y15.849 E162.45045
G1 X90.898 Y14.173 E162.60883
G1 X102.102 Y14.173 E163.35728
G1 X103.827 Y15.898 E163.52032
G1 X103.827 Y27.102 E164.26877
G1 X102.151 Y28.778 E164.42715
G1 X102.151 Y29.222 E164.45680
G1 X103.827 Y30.898 E164.61518
G1 X103.827 Y42.102 E165.36363
G1 X102.151 Y43.778 E165.52201
G1 X102.151 Y44.222 E165.55166
G1 X103.827 Y45.898 E165.71004
G1 X103.827 Y57.102 E166.45849
G1 X102.151 Y58.778 E166.61687
G1 X102.151 Y59.222 E166.64652
G1 X103.827 Y60.898 E166.80490
G1 X103.827 Y72.102 E167.55335
G1 X102.151 Y73.778 E167.71173
G1 X102.151 Y74.222 E167.74138
G1 X103.827 Y75.898 E167.89976
G1 X103.827 Y87.102 E168.64821
G1 X102.151 Y88.778 E168.80659
G1 X102.151 Y89.222 E168.83623
G1 X103.827 Y90.898 E168.99462
G1 X103.827 Y102.102 E169.74307
G1 X102.102 Y103.827 E169.90611
G1 X90.898 Y103.827 E170.65456
G1 X89.222 Y102.151 E170.81294
G1 X88.778 Y102.151 E170.84258
G1 X87.102 Y103.827 E171.00097
G1 X75.898 Y103.827 E171.74942
G1 X74.222 Y102.151 E171.90780
G1 X73.778 Y102.151 E171.93744
G1 X72.102 Y103.827 E172.09582
G1 X60.898 Y103.827 E172.84428
G1 X59.222 Y102.151 E173.00266
G1 X58.778 Y102.151 E173.03230
G1 X57.102 Y103.827 E173.19068
G1 X45.898 Y103.827 E173.93914
G1 X44.222 Y102.151 E174.09752
G1 X43.778 Y102.151 E174.12716
G1 X42.102 Y103.827 E174.28554
G1 X30.898 Y103.827 E175.03399
G1 X29.222 Y102.151 E175.19238
G1 X28.778 Y102.151 E175.22202
G1 X27.102 Y103.827 E175.38040
G1 X15.898 Y103.827 E176.12885
G1 X14.173 Y102.102 E176.29189
G1 X14.173 Y90.898 E177.04034
G1 X15.849 Y89.222 E177.19872
G1 X15.849 Y88.778 E177.22837
G1 X14.173 Y87.102 E177.38675
G1 X14.173 Y75.898 E178.13520
G1 X15.849 Y74.222 E178.29358
G1 X15.849 Y73.778 E178.32323
G1 X14.173 Y72.102 E178.48161
G1 X14.173 Y60.898 E179.23006
G1 X15.849 Y59.222 E179.38844
G1 X15.849 Y58.778 E179.41809
G1 X14.173 Y57.102 E179.57647
G1 X14.173 Y45.898 E180.32492
G1 X15.849 Y44.222 E180.48330
G1 X15.849 Y43.778 E180.51294
G1 X14.173 Y42.102 E180.67133
G1 X14.173 Y30.898 E181.41978
G1 X15.849 Y29.222 E181.57816
G1 X15.849 Y28.778 E181.60780
G1 X14.173 Y27.102 E181.76619
G1 X14.173 Y15.898 E182.51464
G1 X14.536 Y15.535 E182.54899
G1 E178.04899 F2400.00000
G92 E0
G1 X59.708 Y16.120 F9000.000
G1 E4.50000 F2400.00000
G1 X61.120 Y14.708 E4.63339 F1200.000
G1 X71.880 Y14.708 E5.35220
G1 X73.292 Y16.120 E5.48560 F1200.000
G1 X73.292 Y26.880 E6.20441
