; generated by Slic3r 1.2.9 on 2017-02-21 at 10:15:41

; external perimeters extrusion width = 0.40mm
; perimeters extrusion width = 0.68mm
; infill extrusion width = 1.28mm
; solid infill extrusion width = 0.68mm
; top infill extrusion width = 0.68mm
; support material extrusion width = 0.40mm

M107
M190 S70 ; set bed temperature
M104 S240 ; set temperature
G28 ; home all axes
G1 Z5 F5000 ; lift nozzle

M109 S240 ; wait for temperature to be reached
G21 ; set units to millimeters
G90 ; use absolute coordinates
M82 ; use absolute distances for extrusion
G92 E0
G1 Z0.300 F9000.000
G1 E-4.50000 F2400.00000
G92 E0
G1 X78.360 Y13.320 F9000.000
G1 E4.50000 F2400.00000
G1 X78.420 Y12.970 E4.52374 F1200.000
G1 X79.567 Y10.896 E4.68207
G1 X81.334 Y9.317 E4.84040
G1 X83.525 Y8.411 E4.99873
G1 X85.094 Y8.235 E5.10423
G1 X91.135 Y8.235 E5.50778
G1 X102.951 Y8.310 E6.29719 F1200.000
G1 X105.285 Y8.722 E6.45552
G1 X107.352 Y9.882 E6.61385
G1 X108.919 Y11.660 E6.77218
G1 X109.811 Y13.856 E6.93051
G1 X109.977 Y15.381 E7.03303
G1 X109.977 Y22.694 E7.52154
G1 X109.580 Y25.030 E7.67987
G1 X108.433 Y27.104 E7.83820
G1 X106.665 Y28.683 E7.99653
G1 X104.475 Y29.589 E8.15486
G1 X102.906 Y29.765 E8.26036
G1 X96.865 Y29.765 E8.66391
G1 X85.049 Y29.690 E9.45333
G1 X82.715 Y29.278 E9.61166
G1 X80.648 Y28.118 E9.76999
G1 X79.081 Y26.340 E9.92832
G1 X78.189 Y24.144 E10.08665
G1 X78.023 Y22.619 E10.18916
G1 X78.023 Y15.306 E10.67767
G1 X78.350 Y13.379 E10.80826
G1 X78.893 Y13.414 F9000.000
G1 X78.955 Y13.063 E10.83208 F1200.000
G1 X80.098 Y11.093 E10.98425
G1 X81.847 Y9.634 E11.13642
G1 X85.094 Y8.771 E11.36085
G1 X91.131 Y8.771 E11.76418
G1 X102.948 Y8.846 E12.55359 F1200.000
G1 X105.188 Y9.257 E12.70576
G1 X107.151 Y10.412 E12.85793
G1 X108.599 Y12.171 E13.01010
G1 X109.442 Y15.381 E13.23185
G1 X109.442 Y22.694 E13.72036
G1 X109.045 Y24.937 E13.87254
G1 X107.902 Y26.907 E14.02471
G1 X106.153 Y28.366 E14.17688
G1 X102.906 Y29.229 E14.40131
G1 X96.869 Y29.229 E14.80464
G1 X85.052 Y29.154 E15.59405
G1 X82.812 Y28.743 E15.74622
G1 X80.849 Y27.588 E15.89839
G1 X79.401 Y25.829 E16.05056
G1 X78.558 Y22.619 E16.27231
G1 X78.558 Y15.306 E16.76082
G1 X78.883 Y13.473 E16.88517
G1 X80.005 Y13.414 F9000.000
G1 X80.005 Y13.199 E16.89958 F1200.000
G1 X82.986 Y10.218 E17.18119
G1 X93.197 Y10.218 E17.86336
G1 X93.816 Y10.836 E17.92176
G1 X94.259 Y10.836 E17.95140 F1200.000
G1 X94.803 Y10.293 E18.00272
G1 X105.014 Y10.293 E18.68489
G1 X107.995 Y13.274 E18.96650
G1 X107.994 Y24.801 E19.73662
G1 X105.014 Y27.782 E20.01823
G1 X94.803 Y27.782 E20.70039
G1 X94.184 Y27.164 E20.75879
G1 X93.741 Y27.164 E20.78844
G1 X93.197 Y27.707 E20.83976
G1 X82.986 Y27.707 E21.52192
G1 X80.005 Y24.726 E21.80353
G1 X80.005 Y13.474 E22.55523
G1 X80.541 Y13.420 F9000.000
G1 X83.208 Y10.754 E22.80719 F1200.000
G1 X92.976 Y10.754 E23.45972
G1 X93.816 Y11.594 E23.53908 F1200.000
G1 X94.259 Y11.594 E23.56872
G1 X95.024 Y10.828 E23.64100
G1 X104.792 Y10.828 E24.29353
G1 X107.459 Y13.495 E24.54549
G1 X107.459 Y24.580 E25.28597
G1 X104.792 Y27.246 E25.53793
G1 X95.024 Y27.246 E26.19046
G1 X94.184 Y26.406 E26.26982
G1 X93.741 Y26.406 E26.29946
G1 X92.976 Y27.172 E26.37174
G1 X83.208 Y27.172 E27.02427
G1 X80.541 Y24.505 E27.27623
G1 X80.541 Y13.480 E28.01270
G1 X81.077 Y13.642 F9000.000
G1 X83.430 Y11.289 E28.23502 F1200.000
G1 X92.754 Y11.289 E28.85791
G1 X93.816 Y12.351 E28.95823
G1 X94.259 Y12.351 E28.98787 F1200.000
G1 X95.246 Y11.364 E29.08111
G1 X104.570 Y11.364 E29.70399
G1 X106.923 Y13.717 E29.92632
G1 X106.923 Y24.358 E30.63715
G1 X104.570 Y26.711 E30.85947
G1 X95.246 Y26.711 E31.48235
G1 X94.184 Y25.649 E31.58268
G1 X93.741 Y25.649 E31.61232
G1 X92.754 Y26.636 E31.70556
G1 X83.430 Y26.636 E32.32844
G1 X81.077 Y24.283 E32.55076
G1 X81.077 Y13.702 E33.25759
G1 X81.612 Y13.864 F9000.000
G1 X83.652 Y11.825 E33.45027 F1200.000
G1 X92.532 Y11.825 E34.04351
G1 X93.816 Y13.109 E34.16479 F1200.000
G1 X94.259 Y13.109 E34.19443
G1 X95.468 Y11.900 E34.30864
G1 X104.348 Y11.900 E34.90187
G1 X106.388 Y13.939 E35.09455
G1 X106.388 Y24.136 E35.77574
G1 X104.348 Y26.175 E35.96842
G1 X95.468 Y26.175 E36.56166
G1 X94.184 Y24.891 E36.68295
G1 X93.741 Y24.891 E36.71259
G1 X92.532 Y26.100 E36.82679
G1 X83.652 Y26.100 E37.42003
G1 X81.612 Y24.061 E37.61271
G1 X81.612 Y13.924 E38.28989
G1 X82.148 Y14.086 F9000.000
G1 X83.874 Y12.360 E38.45293 F1200.000
G1 X92.310 Y12.360 E39.01652
G1 X93.816 Y13.866 E39.15877
G1 X94.259 Y13.866 E39.18841 F1200.000
G1 X95.690 Y12.435 E39.32357
G1 X104.126 Y12.435 E39.88717
G1 X105.852 Y14.161 E40.05020
G1 X105.852 Y23.914 E40.70175
G1 X104.126 Y25.640 E40.86479
G1 X95.690 Y25.640 E41.42838
G1 X94.184 Y24.134 E41.57063
G1 X93.741 Y24.134 E41.60027
G1 X92.310 Y25.565 E41.73543
G1 X83.874 Y25.565 E42.29903
G1 X82.148 Y23.839 E42.46206
G1 X82.148 Y14.146 E43.10960
G1 E38.60960 F2400.00000
G92 E0
G1 X94.161 Y14.721 F9000.000
G1 E4.50000 F2400.00000
G1 X95.912 Y12.971 E4.66538 F1200.000
G1 X103.904 Y12.971 E5.19933
G1 X105.316 Y14.383 E5.33273
G1 X105.316 Y23.692 E5.95463
G1 X103.904 Y25.104 E6.08802
G1 X95.912 Y25.104 E6.62198
G1 X94.500 Y23.692 E6.75537
G1 X94.500 Y23.552 E6.76470
G1 X93.839 Y23.279 E6.81251
G1 X92.088 Y25.029 E6.97789
G1 X84.096 Y25.029 E7.51185
G1 X82.684 Y23.617 E7.64524
G1 X82.684 Y14.308 E8.26714
G1 X84.096 Y12.896 E8.40054
G1 X92.088 Y12.896 E8.93449
G1 X93.500 Y14.308 E9.06788
G1 X93.500 Y14.448 E9.07721
G1 X94.106 Y14.698 E9.12102
G1 X92.964 Y14.721 F9000.000
G1 X92.964 Y23.395 E9.70048 F1200.000
G1 X91.866 Y24.493 E9.80423
G1 X84.317 Y24.493 E10.30854
G1 X83.219 Y23.395 E10.41229
G1 X83.219 Y14.530 E11.00455
G1 X84.317 Y13.432 E11.10830
G1 X91.866 Y13.432 E11.61261
G1 X92.964 Y14.530 E11.71636
G1 X92.964 Y14.661 E11.72516 F1200.000
G1 X92.429 Y14.752 F9000.000
G1 X92.429 Y23.173 E12.28777 F1200.000
G1 X91.644 Y23.958 E12.36188
G1 X84.539 Y23.958 E12.83655
G1 X83.755 Y23.173 E12.91066
G1 X83.755 Y14.752 E13.47327
G1 X84.539 Y13.967 E13.54738
G1 X91.644 Y13.967 E14.02205
G1 X92.386 Y14.709 E14.09215 F1200.000
G1 X91.893 Y14.973 F9000.000
G1 X91.893 Y22.952 E14.62512 F1200.000
G1 X91.423 Y23.422 E14.66959
G1 X84.761 Y23.422 E15.11461
G1 X84.290 Y22.952 E15.15908
G1 X84.290 Y14.973 E15.69205
G1 X84.761 Y14.503 E15.73652
G1 X91.423 Y14.503 E16.18154
G1 X91.851 Y14.931 E16.22200
G1 X91.201 Y15.038 F9000.000
G1 X91.358 Y15.195 E16.23682 F1200.000
G1 X91.358 Y22.730 E16.74015
G1 X91.201 Y22.887 E16.75497
G1 X84.983 Y22.887 E17.17035
G1 X84.826 Y22.730 E17.18517
G1 X84.826 Y15.195 E17.68851
G1 X84.983 Y15.038 E17.70333
G1 X91.141 Y15.038 E18.11470
G1 E13.61470 F2400.00000
G92 E0
G1 X95.036 Y15.038 F9000.000
G1 E4.50000 F2400.00000
G1 X95.036 Y14.605 E4.52898 F1200.000
G1 X96.134 Y13.507 E4.63273
G1 X103.683 Y13.507 E5.13704
G1 X104.781 Y14.605 E5.24079
G1 X104.781 Y23.470 E5.83305 F1200.000
G1 X103.683 Y24.568 E5.93680
G1 X96.134 Y24.568 E6.44111
G1 X95.036 Y23.470 E6.54486
G1 X95.036 Y15.098 E7.10414
G1 X95.571 Y15.038 F9000.000
G1 X95.571 Y14.827 E7.11829 F1200.000
G1 X96.356 Y14.042 E7.19240
G1 X103.461 Y14.042 E7.66706
G1 X104.245 Y14.827 E7.74117 F1200.000
G1 X104.245 Y23.248 E8.30379
G1 X103.461 Y24.033 E8.37790
G1 X96.356 Y24.033 E8.85256
G1 X95.571 Y23.248 E8.92667
G1 X95.571 Y15.098 E9.47113
G1 X96.107 Y15.048 F9000.000
G1 X96.577 Y14.578 E9.51559 F1200.000
G1 X103.239 Y14.578 E9.96062
G1 X103.710 Y15.048 E10.00508
G1 X103.710 Y23.026 E10.53806 F1200.000
G1 X103.239 Y23.497 E10.58252
G1 X96.577 Y23.497 E11.02754
G1 X96.107 Y23.026 E11.07201
G1 X96.107 Y15.108 E11.60098
G1 X96.642 Y15.270 F9000.000
G1 X96.799 Y15.113 E11.61580 F1200.000
G1 X103.017 Y15.113 E12.03118
G1 X103.174 Y15.270 E12.04600
G1 X103.174 Y22.805 E12.54933
G1 X103.017 Y22.962 E12.56415
G1 X96.799 Y22.962 E12.97953
G1 X96.642 Y22.805 E12.99436
G1 X96.642 Y15.330 E13.49368
G1 E8.99368 F2400.00000
G92 E0
G1 X102.606 Y22.394 F9000.000
G1 E4.50000 F2400.00000
G1 X97.210 Y22.394 E4.86048 F1200.000
G1 X97.210 Y15.681 E5.30890
G1 X102.606 Y15.681 E5.66938
G1 X102.606 Y22.334 E6.11380
G1 X102.260 Y22.194 F9000.000
G1 X102.070 Y21.858 F9000.000
G1 X101.251 Y21.858 E6.16856 F1200.000
G1 X101.251 Y16.217 E6.54542
G1 X102.070 Y16.217 E6.60018
G1 X102.070 Y21.798 E6.97304
G1 X98.149 Y21.858 F9000.000
G1 X97.746 Y21.858 E6.99999 F1200.000
G1 X97.746 Y16.217 E7.37685
G1 X98.149 Y16.217 E7.40381
G1 X98.149 Y21.798 E7.77666
G1 X98.685 Y21.021 F9000.000
G1 X98.685 Y17.054 E8.04171 F1200.000
G1 X100.715 Y17.054 E8.17734
G1 X100.715 Y21.021 E8.44239
G1 X98.745 Y21.021 E8.57401
G1 X98.285 Y21.021 F9000.000
G1 X98.417 Y21.707 F9000.000
G1 X100.983 Y21.707 E8.93744 F1200.000
G1 X101.661 Y21.590 F9000.000
G1 X101.661 Y16.485 E9.27852 F1200.000
G1 X100.983 Y16.368 F9000.000
G1 X98.417 Y16.368 E9.64195 F1200.000
G1 E5.14195 F2400.00000
G92 E0
G1 X90.790 Y22.319 F9000.000
G1 E4.50000 F2400.00000
G1 X85.394 Y22.319 E4.86048 F1200.000
G1 X85.394 Y15.606 E5.30890
G1 X90.790 Y15.606 E5.66938
G1 X90.790 Y22.259 E6.11380
G1 X90.443 Y22.119 F9000.000
G1 X90.254 Y21.783 F9000.000
G1 X89.434 Y21.783 E6.16856 F1200.000
G1 X89.434 Y16.142 E6.54542
G1 X90.254 Y16.142 E6.60018
G1 X90.254 Y21.723 E6.97304
G1 X86.333 Y21.783 F9000.000
G1 X85.929 Y21.783 E6.99999 F1200.000
G1 X85.929 Y16.142 E7.37686
G1 X86.333 Y16.142 E7.40381
G1 X86.333 Y21.723 E7.77667
G1 X86.869 Y20.946 F9000.000
G1 X86.869 Y16.979 E8.04171 F1200.000
G1 X88.899 Y16.979 E8.17734
G1 X88.899 Y20.946 E8.44239
G1 X86.929 Y20.946 E8.57401
G1 X86.469 Y20.946 F9000.000
G1 X86.601 Y21.632 F9000.000
G1 X89.167 Y21.632 E8.93744 F1200.000
G1 X89.844 Y21.515 F9000.000
G1 X89.844 Y16.410 E9.27853 F1200.000
G1 X89.167 Y16.293 F9000.000
G1 X86.601 Y16.293 E9.64196 F1200.000
G1 Z0.300 F9000.000
M104 S220 ; set temperature
M140 S60 ; wait for bed temperature to be reached
G1 Z0.400 F9000.000
G1 E5.14196 F2400.00000
G92 E0
G1 X98.266 Y21.440 F9000.000
G1 E4.50000 F2400.00000
G1 X98.266 Y16.635 E4.63154 F900.000
G1 X101.134 Y16.635 E4.71005
G1 X101.134 Y21.440 E4.84159
G1 X98.326 Y21.440 E4.91845
G1 X98.785 Y20.921 F9000.000
G1 X98.785 Y17.154 E4.97774 F900.000
G1 X100.615 Y17.154 E5.00655
G1 X100.615 Y20.921 E5.06584
G1 X98.845 Y20.921 E5.09370
G1 X98.385 Y20.921 F9000.000
G1 X97.629 Y21.975 F9000.000
G1 X97.629 Y16.100 E5.25456 F900.000
G1 X102.188 Y16.100 E5.37937
G1 X102.188 Y21.975 E5.54024
G1 X97.689 Y21.975 E5.66341
G1 X97.110 Y22.494 F9000.000
G1 X97.110 Y15.581 E5.77220 F900.000
G1 X102.706 Y15.581 E5.86026
G1 X102.706 Y22.494 E5.96905
G1 X97.170 Y22.494 E6.05617
G1 X97.310 Y22.147 F9000.000
G1 X101.661 Y21.646 F9000.000
G1 X101.661 Y16.429 E6.19901 F1200.000
G1 E1.69901 F2400.00000
G92 E0
G1 X89.317 Y21.365 F9000.000
G1 E4.50000 F2400.00000
G1 X86.450 Y21.365 E4.57850 F900.000
G1 X86.450 Y16.560 E4.71005
G1 X89.317 Y16.560 E4.78855
G1 X89.317 Y21.305 E4.91845
G1 X88.799 Y20.846 F9000.000
G1 X86.969 Y20.846 E4.94726 F900.000
G1 X86.969 Y17.079 E5.00655
G1 X88.799 Y17.079 E5.03535
G1 X88.799 Y20.786 E5.09370
G1 X88.799 Y21.246 F9000.000
G1 X90.371 Y21.900 F9000.000
G1 X85.812 Y21.900 E5.21851 F900.000
G1 X85.812 Y16.025 E5.37937
G1 X90.371 Y16.025 E5.50419
G1 X90.371 Y21.840 E5.66341
G1 X90.890 Y22.419 F9000.000
G1 X85.294 Y22.419 E5.75148 F900.000
G1 X85.294 Y15.506 E5.86026
G1 X90.890 Y15.506 E5.94833
G1 X90.890 Y22.359 E6.05617
G1 X90.543 Y22.219 F9000.000
G1 X89.844 Y21.571 F9000.000
G1 X89.844 Y16.354 E6.19901 F1200.000
G1 Z0.500 F9000.000
G1 E1.69901 F2400.00000
G92 E0
G1 X98.266 Y21.440 F9000.000
G1 E4.50000 F2400.00000
G1 X98.266 Y16.635 E4.63154 F900.000
G1 X101.134 Y16.635 E4.71005
G1 X101.134 Y21.440 E4.84159
G1 X98.326 Y21.440 E4.91845
G1 X98.785 Y20.921 F9000.000
G1 X98.785 Y17.154 E4.97774 F900.000
G1 X100.615 Y17.154 E5.00655
G1 X100.615 Y20.921 E5.06584
G1 X98.845 Y20.921 E5.09370
G1 X98.385 Y20.921 F9000.000
G1 X97.629 Y21.975 F9000.000
G1 X97.629 Y16.100 E5.25456 F900.000
G1 X102.188 Y16.100 E5.37937
G1 X102.188 Y21.975 E5.54024
G1 X97.689 Y21.975 E5.66341
G1 X97.110 Y22.494 F9000.000
G1 X97.110 Y15.581 E5.77220 F900.000
G1 X102.706 Y15.581 E5.86026
G1 X102.706 Y22.494 E5.96905
G1 X97.170 Y22.494 E6.05617
G1 X97.310 Y22.147 F9000.000
G1 X101.661 Y21.646 F9000.000
G1 X101.661 Y16.429 E6.19901 F1200.000
G1 E1.69901 F2400.00000
G92 E0
G1 X89.317 Y21.365 F9000.000
G1 E4.50000 F2400.00000
G1 X86.450 Y21.365 E4.57850 F900.000
G1 X86.450 Y16.560 E4.71005
G1 X89.317 Y16.560 E4.78855
G1 X89.317 Y21.305 E4.91845
G1 X88.799 Y20.846 F9000.000
G1 X86.969 Y20.846 E4.94726 F900.000
G1 X86.969 Y17.079 E5.00655
G1 X88.799 Y17.079 E5.03535
G1 X88.799 Y20.786 E5.09370
G1 X88.799 Y21.246 F9000.000
G1 X90.371 Y21.900 F9000.000
G1 X85.812 Y21.900 E5.21851 F900.000
G1 X85.812 Y16.025 E5.37937
G1 X90.371 Y16.025 E5.50419
G1 X90.371 Y21.840 E5.66341
G1 X90.890 Y22.419 F9000.000
G1 X85.294 Y22.419 E5.75148 F900.000
G1 X85.294 Y15.506 E5.86026
G1 X90.890 Y15.506 E5.94833
G1 X90.890 Y22.359 E6.05617
G1 X90.543 Y22.219 F9000.000
G1 X89.844 Y21.571 F9000.000
G1 X89.844 Y16.354 E6.19901 F1200.000
M106 S237.15
G1 Z0.600 F9000.000
G1 E1.69901 F2400.00000
G92 E0
G1 X98.266 Y21.440 F9000.000
G1 E4.50000 F2400.00000
G1 X98.266 Y16.635 E4.63154 F900.000
G1 X101.134 Y16.635 E4.71005
G1 X101.134 Y21.440 E4.84159
G1 X98.326 Y21.440 E4.91845
G1 X98.785 Y20.921 F9000.000
G1 X98.785 Y17.154 E4.97774 F900.000
G1 X100.615 Y17.154 E5.00655
G1 X100.615 Y20.921 E5.06584
G1 X98.845 Y20.921 E5.09370
G1 X98.385 Y20.921 F9000.000
G1 X97.629 Y21.975 F9000.000
G1 X97.629 Y16.100 E5.25456 F900.000
G1 X102.188 Y16.100 E5.37937
G1 X102.188 Y21.975 E5.54024
G1 X97.689 Y21.975 E5.66341
G1 X97.110 Y22.494 F9000.000
G1 X97.110 Y15.581 E5.77220 F900.000
G1 X102.706 Y15.581 E5.86026
G1 X102.706 Y22.494 E5.96905
G1 X97.170 Y22.494 E6.05617
G1 X97.310 Y22.147 F9000.000
G1 X101.661 Y21.646 F9000.000
G1 X101.661 Y16.429 E6.19901 F1200.000
G1 E1.69901 F2400.00000
G92 E0
G1 X89.317 Y21.365 F9000.000
G1 E4.50000 F2400.00000
G1 X86.450 Y21.365 E4.57850 F900.000
G1 X86.450 Y16.560 E4.71005
G1 X89.317 Y16.560 E4.78855
G1 X89.317 Y21.305 E4.91845
G1 X88.799 Y20.846 F9000.000
G1 X86.969 Y20.846 E4.94726 F900.000
G1 X86.969 Y17.079 E5.00655
G1 X88.799 Y17.079 E5.03535
G1 X88.799 Y20.786 E5.09370
G1 X88.799 Y21.246 F9000.000
G1 X90.371 Y21.900 F9000.000
G1 X85.812 Y21.900 E5.21851 F900.000
G1 X85.812 Y16.025 E5.37937
G1 X90.371 Y16.025 E5.50419
G1 X90.371 Y21.840 E5.66341
G1 X90.890 Y22.419 F9000.000
G1 X85.294 Y22.419 E5.75148 F900.000
G1 X85.294 Y15.506 E5.86026
G1 X90.890 Y15.506 E5.94833
G1 X90.890 Y22.359 E6.05617
G1 X90.543 Y22.219 F9000.000
G1 X89.844 Y21.571 F9000.000
G1 X89.844 Y16.354 E6.19901 F1200.000
G1 Z0.700 F9000.000
G1 E1.69901 F2400.00000
G92 E0
G1 X98.266 Y21.440 F9000.000
G1 E4.50000 F2400.00000
G1 X98.266 Y16.635 E4.63154 F900.000
G1 X101.134 Y16.635 E4.71005
G1 X101.134 Y21.440 E4.84159
G1 X98.326 Y21.440 E4.91845
G1 X98.785 Y20.921 F9000.000
G1 X98.785 Y17.154 E4.97774 F900.000
G1 X100.615 Y17.154 E5.00655
G1 X100.615 Y20.921 E5.06584
G1 X98.845 Y20.921 E5.09370
G1 X98.385 Y20.921 F9000.000
G1 X97.629 Y21.975 F9000.000
G1 X97.629 Y16.100 E5.25456 F900.000
G1 X102.188 Y16.100 E5.37937
G1 X102.188 Y21.975 E5.54024
G1 X97.689 Y21.975 E5.66341
G1 X97.110 Y22.494 F9000.000
G1 X97.110 Y15.581 E5.77220 F900.000
G1 X102.706 Y15.581 E5.86026
G1 X102.706 Y22.494 E5.96905
G1 X97.170 Y22.494 E6.05617
G1 X97.310 Y22.147 F9000.000
G1 X101.661 Y21.646 F9000.000
G1 X101.661 Y16.429 E6.19901 F1200.000
G1 E1.69901 F2400.00000
G92 E0
G1 X89.317 Y21.365 F9000.000
G1 E4.50000 F2400.00000
G1 X86.450 Y21.365 E4.57850 F900.000
G1 X86.450 Y16.560 E4.71005
G1 X89.317 Y16.560 E4.78855
G1 X89.317 Y21.305 E4.91845
G1 X88.799 Y20.846 F9000.000
G1 X86.969 Y20.846 E4.94726 F900.000
G1 X86.969 Y17.079 E5.00655
G1 X88.799 Y17.079 E5.03535
G1 X88.799 Y20.786 E5.09370
G1 X88.799 Y21.246 F9000.000
G1 X90.371 Y21.900 F9000.000
G1 X85.812 Y21.900 E5.21851 F900.000
G1 X85.812 Y16.025 E5.37937
G1 X90.371 Y16.025 E5.50419
G1 X90.371 Y21.840 E5.66341
G1 X90.890 Y22.419 F9000.000
G1 X85.294 Y22.419 E5.75148 F900.000
G1 X85.294 Y15.506 E5.86026
G1 X90.890 Y15.506 E5.94833
G1 X90.890 Y22.359 E6.05617
