; generated by Slic3r 1.2.9 on 2017-02-24 at 14:46:06

; external perimeters extrusion width = 0.40mm
; perimeters extrusion width = 0.68mm
; infill extrusion width = 1.28mm
; solid infill extrusion width = 0.68mm
; top infill extrusion width = 0.68mm
; support material extrusion width = 0.40mm

M107
M190 S70 ; set bed temperature
M104 S240 ; set temperature
G28 ; home all axes
G1 Z5 F5000 ; lift nozzle

M109 S240 ; wait for temperature to be reached
G21 ; set units to millimeters
G90 ; use absolute coordinates
M82 ; use absolute distances for extrusion
G92 E0
G1 Z0.300 F9000.000
G1 E-4.50000 F2400.00000
G92 E0
G1 X34.146 Y38.280 F9000.000
G1 E4.50000 F2400.00000
G1 X35.610 Y37.157 E4.62332 F1200.000
G1 X36.670 Y36.545 E4.70509
G1 X38.376 Y35.838 E4.82840
G1 X39.558 Y35.522 E4.91016
G1 X41.388 Y35.281 E5.03349
G1 X74.612 Y35.281 E7.25302
G1 X76.442 Y35.522 E7.37634
G1 X77.624 Y35.838 E7.45811 F1200.000
G1 X79.330 Y36.545 E7.58142
G1 X80.390 Y37.157 E7.66318
G1 X81.854 Y38.280 E7.78650
G1 X82.720 Y39.146 E7.86827
G1 X83.843 Y40.610 E7.99159
G1 X84.455 Y41.670 E8.07335
G1 X85.162 Y43.376 E8.19668
G1 X85.478 Y44.558 E8.27844
G1 X85.719 Y46.388 E8.40175
G1 X85.719 Y47.612 E8.48352
G1 X85.478 Y49.442 E8.60683
G1 X85.162 Y50.624 E8.68860
G1 X84.455 Y52.330 E8.81192
G1 X83.843 Y53.390 E8.89368
G1 X82.720 Y54.854 E9.01700
G1 X65.854 Y71.720 E10.61040
G1 X64.390 Y72.843 E10.73372
G1 X63.330 Y73.455 E10.81548
G1 X61.624 Y74.162 E10.93880
G1 X60.442 Y74.478 E11.02056
G1 X58.612 Y74.719 E11.14388
G1 X41.388 Y74.719 E12.29453
G1 X39.558 Y74.478 E12.41786
G1 X38.376 Y74.162 E12.49962
G1 X36.670 Y73.455 E12.62293
G1 X35.610 Y72.843 E12.70470
G1 X34.146 Y71.720 E12.82802
G1 X33.280 Y70.854 E12.90978
G1 X32.157 Y69.390 E13.03310
G1 X31.545 Y68.330 E13.11486
G1 X30.838 Y66.624 E13.23818
G1 X30.522 Y65.442 E13.31995
G1 X30.281 Y63.612 E13.44327
G1 X30.281 Y46.388 E14.59392
G1 X30.522 Y44.558 E14.71724
G1 X30.838 Y43.376 E14.79900
G1 X31.545 Y41.670 E14.92232
G1 X32.157 Y40.610 E15.00408
G1 X33.280 Y39.146 E15.12740
G1 X34.103 Y38.323 E15.20515
G1 X34.525 Y38.659 F9000.000
G1 X35.878 Y37.621 E15.31914 F1200.000
G1 X36.938 Y37.009 E15.40090
G1 X38.514 Y36.356 E15.51487
G1 X39.696 Y36.039 E15.59664
G1 X41.388 Y35.816 E15.71062
G1 X74.612 Y35.816 E17.93015
G1 X76.304 Y36.039 E18.04413
G1 X77.486 Y36.356 E18.12590 F1200.000
G1 X79.062 Y37.009 E18.23987
G1 X80.122 Y37.621 E18.32163
G1 X81.475 Y38.659 E18.43561
G1 X82.341 Y39.525 E18.51738
G1 X83.379 Y40.878 E18.63136
G1 X83.991 Y41.938 E18.71312
G1 X84.644 Y43.514 E18.82710
G1 X84.961 Y44.697 E18.90886
G1 X85.184 Y46.388 E19.02284
G1 X85.184 Y47.612 E19.10460
G1 X84.961 Y49.303 E19.21858
G1 X84.644 Y50.486 E19.30034
G1 X83.991 Y52.062 E19.41432
G1 X83.379 Y53.122 E19.49609
G1 X82.341 Y54.475 E19.61006
G1 X65.475 Y71.341 E21.20346
G1 X64.122 Y72.379 E21.31744
G1 X63.062 Y72.991 E21.39920
G1 X61.486 Y73.644 E21.51318
G1 X60.304 Y73.961 E21.59494
G1 X58.612 Y74.184 E21.70892
G1 X41.388 Y74.184 E22.85957
G1 X39.696 Y73.961 E22.97355
G1 X38.514 Y73.644 E23.05532
G1 X36.938 Y72.991 E23.16929
G1 X35.878 Y72.379 E23.25105
G1 X34.525 Y71.341 E23.36503
G1 X33.659 Y70.475 E23.44680
G1 X32.621 Y69.122 E23.56078
G1 X32.009 Y68.062 E23.64254
G1 X31.356 Y66.486 E23.75651
G1 X31.039 Y65.303 E23.83828
G1 X30.816 Y63.612 E23.95226
G1 X30.816 Y46.388 E25.10291
G1 X31.039 Y44.696 E25.21689
G1 X31.356 Y43.514 E25.29865
G1 X32.009 Y41.938 E25.41263
G1 X32.621 Y40.878 E25.49439
G1 X33.659 Y39.525 E25.60837
G1 X34.482 Y38.702 E25.68612
G1 X35.548 Y39.683 F9000.000
G1 X35.784 Y39.447 E25.70840 F1200.000
G1 X36.313 Y39.041 E25.75297
G1 X37.951 Y38.095 E25.87929
G1 X38.567 Y37.840 E25.92385
G1 X40.393 Y37.351 E26.05017
G1 X41.055 Y37.263 E26.09473
G1 X42.945 Y37.263 E26.22105
G1 X43.607 Y37.351 E26.26561
G1 X45.433 Y37.840 E26.39194 F1200.000
G1 X46.049 Y38.095 E26.43650
G1 X47.687 Y39.041 E26.56282
G1 X48.216 Y39.447 E26.60738
G1 X49.553 Y40.784 E26.73370
G1 X49.736 Y41.022 E26.75374
G1 X50.264 Y41.022 E26.78903
G1 X50.447 Y40.784 E26.80906
G1 X51.784 Y39.447 E26.93538
G1 X52.313 Y39.041 E26.97994
G1 X53.951 Y38.095 E27.10627
G1 X54.567 Y37.840 E27.15082
G1 X56.393 Y37.351 E27.27715
G1 X57.055 Y37.263 E27.32171
G1 X58.945 Y37.263 E27.44803
G1 X59.607 Y37.351 E27.49259
G1 X61.433 Y37.840 E27.61892
G1 X62.049 Y38.095 E27.66348
G1 X63.687 Y39.041 E27.78980
G1 X64.216 Y39.447 E27.83436
G1 X65.553 Y40.784 E27.96068
G1 X65.736 Y41.022 E27.98072
G1 X66.264 Y41.022 E28.01601
G1 X66.447 Y40.784 E28.03604
G1 X67.784 Y39.447 E28.16236
G1 X68.313 Y39.041 E28.20692
G1 X69.951 Y38.095 E28.33325
G1 X70.567 Y37.840 E28.37780
G1 X72.393 Y37.351 E28.50413
G1 X73.055 Y37.263 E28.54869
G1 X74.945 Y37.263 E28.67501
G1 X75.607 Y37.351 E28.71957
G1 X77.433 Y37.840 E28.84590
G1 X78.049 Y38.095 E28.89045
G1 X79.687 Y39.041 E29.01678
G1 X80.216 Y39.447 E29.06134
G1 X81.553 Y40.784 E29.18766
G1 X81.959 Y41.313 E29.23222
G1 X84.080 Y44.986 E29.51553
G1 X83.732 Y45.587 E29.56194
G1 X83.698 Y45.761 E29.57376
G1 X83.737 Y46.055 E29.59356
G1 X83.737 Y47.945 E29.71988
G1 X83.649 Y48.607 E29.76444
G1 X83.160 Y50.433 E29.89076
G1 X82.905 Y51.050 E29.93533
G1 X81.959 Y52.687 E30.06165
G1 X81.553 Y53.216 E30.10621
G1 X80.216 Y54.553 E30.23253
G1 X79.687 Y54.959 E30.27709
G1 X78.049 Y55.905 E30.40342
G1 X77.433 Y56.160 E30.44798
G1 X75.607 Y56.649 E30.57430
G1 X74.945 Y56.737 E30.61886
G1 X73.055 Y56.737 E30.74518
G1 X72.393 Y56.649 E30.78974
G1 X70.567 Y56.160 E30.91607
G1 X69.951 Y55.905 E30.96062
G1 X68.313 Y54.959 E31.08695
G1 X67.784 Y54.553 E31.13151
G1 X66.447 Y53.216 E31.25783
G1 X66.264 Y52.978 E31.27786
G1 X65.736 Y52.978 E31.31315
G1 X65.553 Y53.216 E31.33319
G1 X64.216 Y54.553 E31.45951
G1 X63.978 Y54.736 E31.47954
G1 X63.978 Y55.264 E31.51483
G1 X64.216 Y55.447 E31.53486
G1 X65.553 Y56.784 E31.66119
G1 X65.959 Y57.313 E31.70575
G1 X66.905 Y58.950 E31.83207
G1 X67.160 Y59.567 E31.87663
G1 X67.649 Y61.393 E32.00296
G1 X67.737 Y62.055 E32.04752
G1 X67.737 Y63.945 E32.17384
G1 X67.649 Y64.607 E32.21840
G1 X67.160 Y66.433 E32.34472
G1 X66.905 Y67.049 E32.38928
G1 X65.959 Y68.687 E32.51561
G1 X65.553 Y69.216 E32.56017
G1 X64.216 Y70.553 E32.68649
G1 X63.687 Y70.959 E32.73105
G1 X62.049 Y71.905 E32.85737
G1 X61.433 Y72.160 E32.90193
G1 X59.607 Y72.649 E33.02825
G1 X58.945 Y72.737 E33.07282
G1 X57.055 Y72.737 E33.19914
G1 X56.393 Y72.649 E33.24370
G1 X54.567 Y72.160 E33.37002
G1 X53.951 Y71.905 E33.41458
G1 X52.313 Y70.959 E33.54091
G1 X51.784 Y70.553 E33.58547
G1 X50.447 Y69.216 E33.71179
G1 X50.264 Y68.978 E33.73182
G1 X49.736 Y68.978 E33.76711
G1 X49.553 Y69.216 E33.78715
G1 X48.216 Y70.553 E33.91347
G1 X47.687 Y70.959 E33.95803
G1 X46.049 Y71.905 E34.08435
G1 X45.433 Y72.160 E34.12891
G1 X43.607 Y72.649 E34.25523
G1 X42.945 Y72.737 E34.29979
G1 X41.055 Y72.737 E34.42612
G1 X40.393 Y72.649 E34.47068
G1 X38.567 Y72.160 E34.59700
G1 X37.951 Y71.905 E34.64156
G1 X36.313 Y70.959 E34.76788
G1 X35.784 Y70.553 E34.81245
G1 X34.447 Y69.216 E34.93877
G1 X34.041 Y68.687 E34.98333
G1 X33.095 Y67.049 E35.10965
G1 X32.840 Y66.433 E35.15421
G1 X32.351 Y64.607 E35.28054
G1 X32.263 Y63.945 E35.32510
G1 X32.263 Y62.055 E35.45142
G1 X32.351 Y61.393 E35.49598
G1 X32.840 Y59.567 E35.62230
G1 X33.095 Y58.950 E35.66686
G1 X34.041 Y57.313 E35.79318
G1 X34.447 Y56.784 E35.83774
G1 X35.784 Y55.447 E35.96407
G1 X36.022 Y55.264 E35.98410
G1 X36.022 Y54.736 E36.01939
G1 X35.784 Y54.553 E36.03942
G1 X34.447 Y53.216 E36.16575
G1 X34.041 Y52.687 E36.21031
G1 X33.095 Y51.050 E36.33663
G1 X32.840 Y50.433 E36.38119
G1 X32.480 Y49.091 E36.47401
G1 X32.351 Y48.607 E36.50751
G1 X32.263 Y47.945 E36.55207
G1 X32.263 Y46.055 E36.67840
G1 X32.351 Y45.393 E36.72296
G1 X32.840 Y43.567 E36.84928
G1 X33.095 Y42.950 E36.89384
G1 X34.041 Y41.313 E37.02016
G1 X34.447 Y40.784 E37.06473
G1 X35.506 Y39.725 E37.16476
G1 X35.927 Y40.061 F9000.000
G1 X36.138 Y39.850 E37.18469 F1200.000
G1 X36.611 Y39.487 E37.22457
G1 X38.188 Y38.577 E37.34620
G1 X38.739 Y38.348 E37.38607
G1 X40.498 Y37.877 E37.50770
G1 X41.090 Y37.799 E37.54757
G1 X42.910 Y37.799 E37.66920
G1 X43.502 Y37.877 E37.70907 F1200.000
G1 X45.261 Y38.348 E37.83070
G1 X45.812 Y38.577 E37.87057
G1 X47.389 Y39.487 E37.99220
G1 X47.862 Y39.850 E38.03207
G1 X49.150 Y41.138 E38.15371
G1 X49.513 Y41.611 E38.19358
G1 X49.691 Y41.919 E38.21732
G1 X50.309 Y41.919 E38.25864
G1 X50.487 Y41.611 E38.28238
G1 X50.850 Y41.138 E38.32225
G1 X52.138 Y39.850 E38.44388
G1 X52.611 Y39.487 E38.48375
G1 X54.188 Y38.577 E38.60538
G1 X54.739 Y38.348 E38.64525
G1 X56.498 Y37.877 E38.76688
G1 X57.090 Y37.799 E38.80675
G1 X58.910 Y37.799 E38.92839
G1 X59.502 Y37.877 E38.96826
G1 X61.261 Y38.348 E39.08989
G1 X61.812 Y38.577 E39.12976
G1 X63.389 Y39.487 E39.25139
G1 X63.862 Y39.850 E39.29126
G1 X65.150 Y41.138 E39.41289
G1 X65.513 Y41.611 E39.45276
G1 X65.691 Y41.919 E39.47650
G1 X66.309 Y41.919 E39.51782
G1 X66.487 Y41.611 E39.54156
G1 X66.850 Y41.138 E39.58143
G1 X68.138 Y39.850 E39.70307
G1 X68.611 Y39.487 E39.74294
G1 X70.188 Y38.577 E39.86457
G1 X70.739 Y38.348 E39.90443
G1 X72.498 Y37.877 E40.02607
G1 X73.090 Y37.799 E40.06594
G1 X74.910 Y37.799 E40.18757
G1 X75.502 Y37.877 E40.22744
G1 X77.261 Y38.348 E40.34907
G1 X77.812 Y38.577 E40.38894
G1 X79.389 Y39.487 E40.51057
G1 X79.862 Y39.850 E40.55044
G1 X81.150 Y41.138 E40.67208
G1 X81.513 Y41.611 E40.71195
G1 X83.461 Y44.986 E40.97225
G1 X83.178 Y45.477 E41.01015
G1 X83.143 Y45.650 E41.02197
G1 X83.201 Y46.090 E41.05157
G1 X83.201 Y47.910 E41.17320
G1 X83.123 Y48.502 E41.21307
G1 X82.652 Y50.261 E41.33470
G1 X82.423 Y50.812 E41.37457
G1 X81.513 Y52.389 E41.49620
G1 X81.150 Y52.862 E41.53607
G1 X79.862 Y54.150 E41.65771
G1 X79.389 Y54.513 E41.69758
G1 X77.812 Y55.423 E41.81921
G1 X77.261 Y55.652 E41.85908
G1 X75.502 Y56.123 E41.98071
G1 X74.910 Y56.201 E42.02058
G1 X73.090 Y56.201 E42.14221
G1 X72.498 Y56.123 E42.18208
G1 X70.739 Y55.652 E42.30372
G1 X70.188 Y55.423 E42.34358
G1 X68.611 Y54.513 E42.46522
G1 X68.138 Y54.150 E42.50509
G1 X66.850 Y52.862 E42.62672
G1 X66.487 Y52.389 E42.66659
G1 X66.309 Y52.081 E42.69033
G1 X65.691 Y52.081 E42.73165
G1 X65.513 Y52.389 E42.75539
G1 X65.150 Y52.862 E42.79526
G1 X63.862 Y54.150 E42.91689
G1 X63.389 Y54.513 E42.95676
G1 X63.081 Y54.691 E42.98050
G1 X63.081 Y55.309 E43.02182
G1 X63.389 Y55.487 E43.04556
G1 X63.862 Y55.850 E43.08543
G1 X65.150 Y57.138 E43.20707
G1 X65.513 Y57.611 E43.24694
G1 X66.423 Y59.188 E43.36857
G1 X66.652 Y59.739 E43.40844
G1 X67.123 Y61.498 E43.53007
G1 X67.201 Y62.090 E43.56994
G1 X67.201 Y63.910 E43.69157
G1 X67.123 Y64.502 E43.73144
G1 X66.652 Y66.261 E43.85307
G1 X66.423 Y66.812 E43.89295
G1 X65.513 Y68.389 E44.01458
G1 X65.150 Y68.862 E44.05445
G1 X63.862 Y70.150 E44.17608
G1 X63.389 Y70.513 E44.21595
G1 X61.812 Y71.423 E44.33758
G1 X61.261 Y71.652 E44.37745
G1 X59.502 Y72.123 E44.49908
G1 X58.910 Y72.201 E44.53895
G1 X57.090 Y72.201 E44.66059
G1 X56.498 Y72.123 E44.70046
G1 X54.739 Y71.652 E44.82209
G1 X54.188 Y71.423 E44.86196
G1 X52.611 Y70.513 E44.98359
G1 X52.138 Y70.150 E45.02346
G1 X50.850 Y68.862 E45.14509
G1 X50.487 Y68.389 E45.18496
G1 X50.309 Y68.081 E45.20870
G1 X49.691 Y68.081 E45.25002
G1 X49.513 Y68.389 E45.27376
G1 X49.150 Y68.862 E45.31363
G1 X47.862 Y70.150 E45.43527
G1 X47.389 Y70.513 E45.47513
G1 X45.812 Y71.423 E45.59677
G1 X45.261 Y71.652 E45.63664
G1 X43.502 Y72.123 E45.75827
G1 X42.910 Y72.201 E45.79814
G1 X41.090 Y72.201 E45.91977
G1 X40.498 Y72.123 E45.95964
G1 X38.739 Y71.652 E46.08127
G1 X38.188 Y71.423 E46.12114
G1 X36.611 Y70.513 E46.24277
G1 X36.138 Y70.150 E46.28265
G1 X34.850 Y68.862 E46.40428
G1 X34.487 Y68.389 E46.44415
G1 X33.577 Y66.812 E46.56578
G1 X33.348 Y66.261 E46.60565
G1 X32.877 Y64.502 E46.72728
G1 X32.799 Y63.910 E46.76715
G1 X32.799 Y62.090 E46.88878
G1 X32.877 Y61.498 E46.92866
G1 X33.228 Y60.190 E47.01913
G1 X33.348 Y59.739 E47.05029
G1 X33.577 Y59.188 E47.09016
G1 X34.487 Y57.611 E47.21179
G1 X34.850 Y57.138 E47.25166
G1 X36.138 Y55.850 E47.37329
G1 X36.611 Y55.487 E47.41316
G1 X36.919 Y55.309 E47.43690
G1 X36.919 Y54.691 E47.47822
G1 X36.611 Y54.513 E47.50196
G1 X36.138 Y54.150 E47.54183
G1 X34.850 Y52.862 E47.66346
G1 X34.487 Y52.389 E47.70333
G1 X33.577 Y50.812 E47.82496
G1 X33.348 Y50.261 E47.86483
G1 X32.998 Y48.953 E47.95531
G1 X32.877 Y48.502 E47.98647
G1 X32.799 Y47.910 E48.02634
G1 X32.799 Y46.090 E48.14797
G1 X32.877 Y45.498 E48.18784
G1 X33.348 Y43.739 E48.30948
G1 X33.577 Y43.188 E48.34934
G1 X34.487 Y41.611 E48.47098
G1 X34.850 Y41.138 E48.51085
G1 X35.884 Y40.104 E48.60853
G1 X36.305 Y40.440 F9000.000
G1 X36.492 Y40.254 E48.62612 F1200.000
G1 X36.909 Y39.933 E48.66130
G1 X38.425 Y39.058 E48.77825
G1 X38.912 Y38.856 E48.81342
G1 X40.603 Y38.403 E48.93036
G1 X41.125 Y38.335 E48.96554
G1 X42.875 Y38.335 E49.08249
G1 X43.397 Y38.403 E49.11767
G1 X45.088 Y38.856 E49.23461 F1200.000
G1 X45.575 Y39.058 E49.26979
G1 X47.091 Y39.933 E49.38673
G1 X47.508 Y40.254 E49.42191
G1 X48.746 Y41.492 E49.53885
G1 X49.067 Y41.909 E49.57403
G1 X49.691 Y42.990 E49.65740
G1 X50.309 Y42.990 E49.69872
G1 X50.933 Y41.909 E49.78209
G1 X51.254 Y41.492 E49.81727
G1 X52.492 Y40.254 E49.93421
G1 X52.909 Y39.933 E49.96939
G1 X54.425 Y39.058 E50.08633
G1 X54.912 Y38.856 E50.12151
G1 X56.603 Y38.403 E50.23845
G1 X57.125 Y38.335 E50.27363
G1 X58.875 Y38.335 E50.39058
G1 X59.397 Y38.403 E50.42576
G1 X61.088 Y38.856 E50.54270
G1 X61.575 Y39.058 E50.57788
G1 X63.091 Y39.933 E50.69482
G1 X63.508 Y40.254 E50.73000
G1 X64.746 Y41.492 E50.84694
G1 X65.067 Y41.909 E50.88212
G1 X65.691 Y42.990 E50.96549
G1 X66.309 Y42.990 E51.00681
G1 X66.933 Y41.909 E51.09018
G1 X67.254 Y41.492 E51.12536
G1 X68.492 Y40.254 E51.24230
G1 X68.909 Y39.933 E51.27748
G1 X70.425 Y39.058 E51.39442
G1 X70.912 Y38.856 E51.42960
G1 X72.603 Y38.403 E51.54654
G1 X73.125 Y38.335 E51.58172
G1 X74.875 Y38.335 E51.69866
G1 X75.397 Y38.403 E51.73384
G1 X77.088 Y38.856 E51.85079
G1 X77.575 Y39.058 E51.88596
G1 X79.091 Y39.933 E52.00291
G1 X79.508 Y40.254 E52.03809
G1 X80.746 Y41.492 E52.15503
G1 X81.067 Y41.909 E52.19021
G1 X82.843 Y44.986 E52.42750
G1 X82.623 Y45.367 E52.45690
G1 X82.588 Y45.540 E52.46871
G1 X82.665 Y46.125 E52.50811
G1 X82.665 Y47.875 E52.62505
G1 X82.597 Y48.397 E52.66023
G1 X82.144 Y50.088 E52.77718
G1 X81.942 Y50.575 E52.81236
G1 X81.067 Y52.091 E52.92930
G1 X80.746 Y52.508 E52.96448
G1 X79.508 Y53.746 E53.08142
G1 X79.091 Y54.067 E53.11660
G1 X77.575 Y54.942 E53.23354
G1 X77.088 Y55.144 E53.26872
G1 X75.397 Y55.597 E53.38566
G1 X74.875 Y55.665 E53.42084
G1 X73.125 Y55.665 E53.53778
G1 X72.603 Y55.597 E53.57296
G1 X70.912 Y55.144 E53.68990
G1 X70.425 Y54.942 E53.72508
G1 X68.909 Y54.067 E53.84202
G1 X68.492 Y53.746 E53.87720
G1 X67.254 Y52.508 E53.99414
G1 X66.933 Y52.091 E54.02932
G1 X66.309 Y51.010 E54.11269
G1 X65.691 Y51.010 E54.15401
G1 X65.067 Y52.091 E54.23739
G1 X64.746 Y52.508 E54.27257
G1 X63.508 Y53.746 E54.38951
G1 X63.091 Y54.067 E54.42469
G1 X62.010 Y54.691 E54.50806
G1 X62.010 Y55.309 E54.54938
G1 X63.091 Y55.933 E54.63275
G1 X63.508 Y56.254 E54.66793
G1 X64.746 Y57.492 E54.78487
G1 X65.067 Y57.909 E54.82005
G1 X65.942 Y59.425 E54.93699
G1 X66.144 Y59.912 E54.97217
G1 X66.597 Y61.603 E55.08912
G1 X66.665 Y62.125 E55.12429
G1 X66.665 Y63.875 E55.24123
G1 X66.597 Y64.397 E55.27641
G1 X66.144 Y66.088 E55.39335
G1 X65.942 Y66.575 E55.42854
G1 X65.067 Y68.091 E55.54548
G1 X64.746 Y68.508 E55.58066
G1 X63.508 Y69.746 E55.69760
G1 X63.091 Y70.067 E55.73278
G1 X61.575 Y70.942 E55.84972
G1 X61.088 Y71.144 E55.88490
G1 X59.397 Y71.597 E56.00184
G1 X58.875 Y71.665 E56.03702
G1 X57.125 Y71.665 E56.15396
G1 X56.603 Y71.597 E56.18914
G1 X54.912 Y71.144 E56.30608
G1 X54.425 Y70.942 E56.34126
G1 X52.909 Y70.067 E56.45820
G1 X52.492 Y69.746 E56.49338
G1 X51.254 Y68.508 E56.61032
G1 X50.933 Y68.091 E56.64550
G1 X50.309 Y67.010 E56.72888
G1 X49.691 Y67.010 E56.77019
G1 X49.067 Y68.091 E56.85357
G1 X48.746 Y68.508 E56.88875
G1 X47.508 Y69.746 E57.00569
G1 X47.091 Y70.067 E57.04087
G1 X45.575 Y70.942 E57.15781
G1 X45.088 Y71.144 E57.19299
G1 X43.397 Y71.597 E57.30993
G1 X42.875 Y71.665 E57.34511
