; generated by Slic3r 1.2.9 on 2017-02-22 at 09:39:41

; external perimeters extrusion width = 0.40mm
; perimeters extrusion width = 0.68mm
; infill extrusion width = 1.28mm
; solid infill extrusion width = 0.68mm
; top infill extrusion width = 0.68mm
; support material extrusion width = 0.40mm

M107
M190 S70 ; set bed temperature
M104 S240 ; set temperature
G28 ; home all axes
G1 Z5 F5000 ; lift nozzle

M109 S240 ; wait for temperature to be reached
G21 ; set units to millimeters
G90 ; use absolute coordinates
M82 ; use absolute distances for extrusion
G92 E0
G1 Z0.300 F9000.000
G1 E-4.50000 F2400.00000
G92 E0
G1 X50.846 Y43.419 F9000.000
G1 E4.50000 F2400.00000
G1 X52.203 Y42.390 E4.61376 F1200.000
G1 X53.896 Y41.402 E4.74472
G1 X56.115 Y40.568 E4.90305
G1 X58.484 Y40.514 E5.06138
G1 X59.871 Y40.863 E5.15692
G1 X60.885 Y41.231 E5.22898 F1200.000
G1 X62.543 Y42.096 E5.35391
G1 X63.429 Y42.719 E5.42627
G1 X65.111 Y44.389 E5.58460
G1 X66.181 Y46.641 E5.75115
G1 X67.201 Y50.380 E6.01010
G1 X67.433 Y52.727 E6.16766
G1 X67.370 Y53.646 E6.22918
G1 X67.246 Y54.563 E6.29100
G1 X67.041 Y55.578 E6.36018
G1 X66.794 Y56.482 E6.42279
G1 X64.816 Y62.214 E6.82788
G1 X64.453 Y63.075 E6.89030
G1 X64.108 Y63.764 E6.94179
G1 X62.851 Y65.531 E7.08664
G1 X62.054 Y66.349 E7.16290
G1 X60.139 Y67.745 E7.32123
G1 X56.878 Y68.484 E7.54462
G1 X51.928 Y68.400 E7.87534
G1 X51.113 Y68.314 E7.93006
G1 X50.188 Y68.121 E7.99319
G1 X49.009 Y67.689 E8.07712
G1 X48.629 Y67.503 E8.10533
G1 X48.115 Y67.210 E8.14488
G1 X47.271 Y66.606 E8.21426
G1 X46.682 Y66.070 E8.26741
G1 X46.327 Y65.697 E8.30182
G1 X45.866 Y65.128 E8.35078
G1 X45.514 Y64.615 E8.39229
G1 X45.075 Y63.834 E8.45215
G1 X44.733 Y63.038 E8.51002
G1 X44.509 Y62.378 E8.55662
G1 X44.277 Y61.537 E8.61490
G1 X44.127 Y60.746 E8.66867
G1 X44.044 Y59.912 E8.72470
G1 X44.075 Y58.730 E8.80364
G1 X44.181 Y58.040 E8.85029
G1 X44.417 Y57.149 E8.91186
G1 X44.626 Y56.592 E8.95159
G1 X48.991 Y46.266 E9.70054
G1 X49.183 Y45.851 E9.73107
G1 X49.444 Y45.330 E9.77004
G1 X50.811 Y43.467 E9.92436
G1 X51.282 Y43.743 F9000.000
G1 X52.473 Y42.853 E10.02370 F1200.000
G1 X54.166 Y41.865 E10.15466
G1 X56.304 Y41.078 E10.30683
G1 X58.582 Y41.072 E10.45900
G1 X59.688 Y41.367 E10.53552
G1 X60.702 Y41.735 E10.60757 F1200.000
G1 X62.235 Y42.534 E10.72304
G1 X63.121 Y43.157 E10.79541
G1 X64.726 Y44.773 E10.94758
G1 X65.664 Y46.782 E11.09568
G1 X66.684 Y50.521 E11.35463
G1 X66.899 Y52.691 E11.50025
G1 X66.836 Y53.609 E11.56178
G1 X66.721 Y54.457 E11.61891
G1 X66.516 Y55.472 E11.68809
G1 X66.288 Y56.308 E11.74596
G1 X64.310 Y62.039 E12.15105
G1 X63.974 Y62.835 E12.20874
G1 X63.629 Y63.524 E12.26023
G1 X62.467 Y65.157 E12.39411
G1 X61.670 Y65.975 E12.47037
G1 X59.821 Y67.304 E12.62254
G1 X56.886 Y67.948 E12.82325
G1 X51.953 Y67.865 E13.15286
G1 X51.200 Y67.786 E13.20344
G1 X50.327 Y67.604 E13.26301
G1 X49.237 Y67.204 E13.34058
G1 X48.875 Y67.028 E13.36748
G1 X48.400 Y66.756 E13.40404
G1 X47.613 Y66.194 E13.46865
G1 X47.064 Y65.695 E13.51822
G1 X46.725 Y65.338 E13.55106
G1 X46.299 Y64.812 E13.59632
G1 X45.965 Y64.325 E13.63576
G1 X45.557 Y63.601 E13.69131
G1 X45.232 Y62.844 E13.74630
G1 X45.021 Y62.223 E13.79013
G1 X44.797 Y61.409 E13.84651
G1 X44.657 Y60.667 E13.89701
G1 X44.579 Y59.881 E13.94975
G1 X44.608 Y58.785 E14.02297
G1 X44.707 Y58.143 E14.06637
G1 X44.925 Y57.320 E14.12329
G1 X45.119 Y56.801 E14.16030
G1 X49.485 Y46.475 E14.90926
G1 X49.662 Y46.091 E14.93747
G1 X49.923 Y45.570 E14.97644
G1 X51.246 Y43.791 E15.12453
G1 X52.110 Y44.520 F9000.000
G1 X52.695 Y44.051 E15.17463 F1200.000
G1 X56.396 Y41.892 E15.46087
G1 X59.752 Y42.273 E15.68649
G1 X61.056 Y43.481 E15.80528 F1200.000
G1 X62.905 Y44.408 E15.94346
G1 X62.941 Y44.514 E15.95092
G1 X63.080 Y44.675 E15.96515
G1 X63.791 Y45.032 E16.01829
G1 X64.422 Y46.931 E16.15203
G1 X64.460 Y46.986 E16.15643
G1 X64.599 Y47.462 E16.18954
G1 X65.126 Y49.048 E16.30121
G1 X65.110 Y49.218 E16.31260
G1 X65.555 Y50.745 E16.41890
G1 X65.601 Y51.149 E16.44602
G1 X66.140 Y52.772 E16.56027
G1 X65.971 Y53.111 E16.58561
G1 X65.955 Y53.323 E16.59984
G1 X66.077 Y53.690 E16.62569
G1 X65.730 Y54.383 E16.67747
G1 X65.704 Y54.551 E16.68879
G1 X65.765 Y54.918 E16.71368
G1 X63.873 Y58.693 E16.99576
G1 X63.858 Y58.906 E17.01000
G1 X64.024 Y59.405 E17.04515
G1 X63.791 Y59.870 E17.07987
G1 X63.775 Y60.082 E17.09411
G1 X63.893 Y60.437 E17.11908
G1 X61.659 Y64.895 E17.45218
G1 X60.968 Y65.124 E17.50082
G1 X60.865 Y65.187 E17.50886
G1 X60.123 Y65.904 E17.57782
G1 X58.354 Y66.716 E17.70784
G1 X56.626 Y66.877 E17.82378
G1 X53.999 Y66.220 E18.00473
G1 X53.861 Y66.221 E18.01392
G1 X53.385 Y66.333 E18.04659
G1 X52.877 Y66.402 E18.08080
G1 X52.248 Y66.430 E18.12291
G1 X51.854 Y66.411 E18.14923
G1 X51.523 Y66.374 E18.17150
G1 X50.950 Y66.273 E18.21040
G1 X50.484 Y66.148 E18.24262
G1 X50.058 Y65.992 E18.27288
G1 X49.259 Y65.587 E18.33271
G1 X48.669 Y65.190 E18.38022
G1 X48.185 Y64.771 E18.42303
G1 X47.712 Y64.272 E18.46895
G1 X47.274 Y63.686 E18.51783
G1 X46.906 Y63.065 E18.56602
G1 X46.737 Y62.708 E18.59242
G1 X46.559 Y62.263 E18.62444
G1 X46.304 Y61.459 E18.68080
G1 X46.172 Y60.942 E18.71641
G1 X46.077 Y60.375 E18.75486
G1 X46.012 Y59.596 E18.80709
G1 X46.021 Y59.189 E18.83429
G1 X46.060 Y58.819 E18.85909
G1 X46.159 Y58.259 E18.89709
G1 X46.244 Y57.938 E18.91927
G1 X46.437 Y57.364 E18.95978
G1 X46.784 Y56.686 E19.01065
G1 X47.288 Y56.000 E19.06747
G1 X47.578 Y55.678 E19.09645
G1 X48.101 Y55.188 E19.14435
G1 X48.956 Y54.622 E19.21282
G1 X49.081 Y54.322 E19.23451
G1 X48.768 Y52.704 E19.34461
G1 X48.997 Y51.036 E19.45709
G1 X49.903 Y49.230 E19.59210
G1 X49.918 Y49.017 E19.60633
G1 X49.743 Y48.490 E19.64347
G1 X51.133 Y45.715 E19.85077
G1 X51.555 Y45.111 E19.89999
G1 X52.069 Y44.564 E19.95015
G1 E15.45015 F2400.00000
G92 E0
G1 X49.570 Y54.966 F9000.000
G1 E4.50000 F2400.00000
G1 X49.719 Y54.514 E4.53180 F1200.000
G1 X49.636 Y54.369 E4.54295
G1 X49.311 Y52.690 E4.65723
G1 X49.516 Y51.197 E4.75787
G1 X50.481 Y49.271 E4.90178
G1 X50.496 Y49.059 E4.91601
G1 X50.321 Y48.531 E4.95315
G1 X51.595 Y45.990 E5.14304
G1 X51.972 Y45.449 E5.18708
G1 X52.483 Y44.905 E5.23695
G1 X52.999 Y44.494 E5.28099
G1 X56.513 Y42.445 E5.55277
G1 X59.515 Y42.785 E5.75464
G1 X60.747 Y43.925 E5.86677
G1 X62.467 Y44.788 E5.99533
G1 X62.502 Y44.894 E6.00279
G1 X62.642 Y45.055 E6.01702
G1 X63.353 Y45.411 E6.07016
G1 X63.963 Y47.247 E6.19939
G1 X63.989 Y47.285 E6.20249
G1 X64.551 Y49.016 E6.32407
G1 X64.537 Y49.166 E6.33410
G1 X65.027 Y50.847 E6.45109
G1 X65.074 Y51.260 E6.47888
G1 X65.562 Y52.730 E6.58233
G1 X65.392 Y53.069 E6.60768
G1 X65.377 Y53.282 E6.62191
G1 X65.499 Y53.649 E6.64776
G1 X65.173 Y54.299 E6.69633
G1 X65.148 Y54.466 E6.70765
G1 X65.208 Y54.834 E6.73254
G1 X63.295 Y58.652 E7.01783
G1 X63.279 Y58.864 E7.03206
G1 X63.445 Y59.363 E7.06721
G1 X63.212 Y59.828 E7.10194
G1 X63.197 Y60.041 E7.11617
G1 X63.315 Y60.395 E7.14115
G1 X61.280 Y64.456 E7.44460
G1 X60.684 Y64.654 E7.48657
G1 X60.581 Y64.717 E7.49461
G1 X59.816 Y65.455 E7.56561
G1 X58.214 Y66.191 E7.68342
G1 X56.668 Y66.335 E7.78716
G1 X53.993 Y65.666 E7.97135
G1 X53.855 Y65.668 E7.98054
G1 X53.290 Y65.805 E8.01940
G1 X52.533 Y65.890 E8.07031
G1 X51.897 Y65.877 E8.11281
G1 X51.068 Y65.750 E8.16882
G1 X50.646 Y65.636 E8.19804
G1 X50.265 Y65.497 E8.22512
G1 X49.952 Y65.350 E8.24823
G1 X49.535 Y65.127 E8.27982
G1 X48.998 Y64.767 E8.32300
G1 X48.558 Y64.385 E8.36194
G1 X48.248 Y64.066 E8.39162
G1 X47.971 Y63.740 E8.42024
G1 X47.567 Y63.147 E8.46815
G1 X47.383 Y62.822 E8.49314
G1 X47.229 Y62.496 E8.51723
G1 X46.974 Y61.826 E8.56507
G1 X46.696 Y60.828 E8.63432
G1 X46.573 Y59.983 E8.69137
G1 X46.548 Y59.587 E8.71789
G1 X46.556 Y59.222 E8.74222
G1 X46.622 Y58.682 E8.77858
G1 X46.757 Y58.092 E8.81900
G1 X46.932 Y57.572 E8.85567
G1 X47.243 Y56.966 E8.90118
G1 X47.701 Y56.341 E8.95292
G1 X47.961 Y56.053 E8.97885
G1 X48.434 Y55.609 E9.02221
G1 X49.072 Y55.187 E9.07333
G1 X49.515 Y54.990 E9.10570
G1 X49.806 Y55.438 F9000.000
G1 X50.318 Y55.253 E9.14206 F1200.000
G1 X50.490 Y54.785 E9.17539
G1 X50.145 Y54.180 E9.22190
G1 X49.853 Y52.675 E9.32434
G1 X50.034 Y51.358 E9.41314
G1 X51.059 Y49.313 E9.56595
G1 X51.075 Y49.100 E9.58019
G1 X50.899 Y48.573 E9.61732
G1 X52.056 Y46.265 E9.78980
G1 X52.389 Y45.788 E9.82866
G1 X52.847 Y45.300 E9.87335
G1 X53.302 Y44.938 E9.91221
G1 X56.629 Y42.997 E10.16952
G1 X59.278 Y43.297 E10.34764
G1 X60.437 Y44.369 E10.45310 F1200.000
G1 X62.029 Y45.167 E10.57205
G1 X62.064 Y45.273 E10.57951
G1 X62.203 Y45.434 E10.59375
G1 X62.915 Y45.791 E10.64689
G1 X63.976 Y48.985 E10.87173
G1 X63.964 Y49.114 E10.88039
G1 X64.499 Y50.949 E11.00808
G1 X64.547 Y51.372 E11.03654
G1 X64.984 Y52.688 E11.12920
G1 X64.814 Y53.027 E11.15454
G1 X64.799 Y53.240 E11.16878
G1 X64.921 Y53.607 E11.19462
G1 X64.616 Y54.214 E11.23999
G1 X64.591 Y54.382 E11.25131
G1 X64.651 Y54.749 E11.27620
G1 X62.716 Y58.610 E11.56469
G1 X62.701 Y58.822 E11.57893
G1 X62.867 Y59.322 E11.61408
G1 X62.634 Y59.786 E11.64880
G1 X62.619 Y59.999 E11.66304
G1 X62.737 Y60.354 E11.68801
G1 X60.900 Y64.018 E11.96183
G1 X60.399 Y64.185 E11.99711
G1 X60.296 Y64.247 E12.00515
G1 X59.510 Y65.007 E12.07820
G1 X58.073 Y65.667 E12.18381
G1 X56.709 Y65.793 E12.27534
G1 X53.987 Y65.113 E12.46277
G1 X53.850 Y65.114 E12.47195
G1 X53.195 Y65.278 E12.51702
G1 X52.509 Y65.355 E12.56314
G1 X51.939 Y65.343 E12.60122
G1 X51.187 Y65.227 E12.65210
G1 X50.808 Y65.125 E12.67832
G1 X50.472 Y65.002 E12.70221
G1 X50.184 Y64.867 E12.72347
G1 X49.810 Y64.668 E12.75177
G1 X49.327 Y64.344 E12.79062
G1 X48.930 Y64.000 E12.82568
G1 X48.643 Y63.704 E12.85325
G1 X48.396 Y63.413 E12.87874
G1 X48.025 Y62.870 E12.92268
G1 X47.721 Y62.283 E12.96684
G1 X47.484 Y61.662 E13.01123
G1 X47.219 Y60.713 E13.07704
G1 X47.107 Y59.932 E13.12975
G1 X47.084 Y59.578 E13.15352
G1 X47.091 Y59.256 E13.17499
G1 X47.150 Y58.773 E13.20747
G1 X47.270 Y58.247 E13.24359
G1 X47.427 Y57.781 E13.27641
G1 X47.701 Y57.246 E13.31657
G1 X48.114 Y56.683 E13.36321
G1 X48.343 Y56.428 E13.38609
G1 X48.768 Y56.031 E13.42493
G1 X49.330 Y55.658 E13.47003
G1 X49.753 Y55.465 E13.50104
G1 X50.021 Y55.929 F9000.000
G1 X50.406 Y55.790 E13.52838 F1200.000
G1 X51.086 Y55.645 E13.57481
G1 X51.314 Y55.146 E13.61147
G1 X50.654 Y53.991 E13.70029
G1 X50.396 Y52.660 E13.79089
G1 X50.553 Y51.519 E13.86785
G1 X51.638 Y49.355 E14.02956
G1 X51.653 Y49.142 E14.04380
G1 X51.478 Y48.614 E14.08094
G1 X52.518 Y46.539 E14.23600
G1 X52.806 Y46.126 E14.26968
G1 X53.211 Y45.695 E14.30919
G1 X53.605 Y45.381 E14.34286
G1 X56.745 Y43.549 E14.58571
G1 X59.041 Y43.809 E14.74008 F1200.000
G1 X60.127 Y44.813 E14.83888
G1 X61.590 Y45.547 E14.94822
G1 X61.626 Y45.652 E14.95567
G1 X61.765 Y45.814 E14.96991
G1 X62.476 Y46.170 E15.02305
G1 X63.401 Y48.953 E15.21896
G1 X63.391 Y49.062 E15.22625
G1 X63.971 Y51.050 E15.36462
G1 X64.019 Y51.484 E15.39376
G1 X64.406 Y52.647 E15.47563
G1 X64.236 Y52.986 E15.50097
G1 X64.220 Y53.198 E15.51521
G1 X64.342 Y53.565 E15.54105
G1 X64.060 Y54.130 E15.58321
G1 X64.034 Y54.297 E15.59453
G1 X64.095 Y54.665 E15.61942
G1 X62.138 Y58.568 E15.91112
G1 X62.123 Y58.781 E15.92536
G1 X62.289 Y59.280 E15.96051
G1 X62.056 Y59.745 E15.99523
G1 X62.041 Y59.957 E16.00947
G1 X62.158 Y60.312 E16.03444
G1 X60.521 Y63.580 E16.27861
G1 X60.114 Y63.715 E16.30722
G1 X60.011 Y63.777 E16.31526
G1 X59.203 Y64.558 E16.39035
G1 X57.933 Y65.142 E16.48376
G1 X56.750 Y65.252 E16.56308
G1 X53.970 Y64.556 E16.75456
G1 X53.823 Y64.560 E16.76439
G1 X53.300 Y64.709 E16.80066
G1 X52.728 Y64.801 E16.83939
G1 X52.274 Y64.823 E16.86974
G1 X51.982 Y64.809 E16.88929
G1 X51.574 Y64.754 E16.91677
G1 X50.969 Y64.614 E16.95824
G1 X50.679 Y64.508 E16.97895
G1 X50.212 Y64.280 E17.01363
G1 X49.844 Y64.057 E17.04236
G1 X49.431 Y63.733 E17.07746
G1 X48.934 Y63.227 E17.12481
G1 X48.614 Y62.797 E17.16062
G1 X48.337 Y62.334 E17.19666
G1 X48.035 Y61.620 E17.24844
G1 X47.808 Y60.865 E17.30113
G1 X47.743 Y60.599 E17.31944
G1 X47.669 Y60.161 E17.34909
G1 X47.620 Y59.568 E17.38883
G1 X47.654 Y59.021 E17.42547
G1 X47.726 Y58.620 E17.45267
G1 X47.922 Y57.989 E17.49680
G1 X48.160 Y57.526 E17.53160
G1 X48.527 Y57.024 E17.57316
G1 X48.726 Y56.804 E17.59299
G1 X49.101 Y56.453 E17.62729
G1 X49.589 Y56.130 E17.66638
G1 X49.968 Y55.956 E17.69423
G1 E13.19423 F2400.00000
G92 E0
G1 X52.292 Y56.164 F9000.000
G1 E4.50000 F2400.00000
G1 X52.569 Y55.464 E4.55029 F1200.000
G1 X51.647 Y54.649 E4.63256
G1 X51.163 Y53.803 E4.69769
G1 X50.939 Y52.645 E4.77645
G1 X51.072 Y51.679 E4.84157
G1 X51.997 Y49.833 E4.97956
G1 X52.104 Y49.797 E4.98711
G1 X52.303 Y49.400 E5.01676
G1 X52.056 Y48.656 E5.06915
G1 X52.979 Y46.814 E5.20680
G1 X53.223 Y46.464 E5.23530
G1 X53.575 Y46.090 E5.26963
G1 X53.909 Y45.824 E5.29812
G1 X56.862 Y44.101 E5.52650
G1 X58.804 Y44.322 E5.65713
G1 X59.818 Y45.257 E5.74926
G1 X61.152 Y45.926 E5.84898
G1 X61.187 Y46.032 E5.85644
G1 X61.327 Y46.193 E5.87067
G1 X62.038 Y46.549 E5.92381
G1 X62.826 Y48.921 E6.09079
G1 X62.818 Y49.010 E6.09671
G1 X63.442 Y51.152 E6.24578
G1 X63.492 Y51.595 E6.27558
G1 X63.827 Y52.605 E6.34666
G1 X63.658 Y52.944 E6.37200
G1 X63.642 Y53.157 E6.38624
G1 X63.764 Y53.524 E6.41208
G1 X63.503 Y54.045 E6.45103
G1 X63.477 Y54.213 E6.46236
G1 X63.538 Y54.580 E6.48724
G1 X61.560 Y58.527 E6.78215
G1 X61.545 Y58.739 E6.79639
G1 X61.711 Y59.238 E6.83154
G1 X61.478 Y59.703 E6.86626
G1 X61.462 Y59.916 E6.88050
G1 X61.580 Y60.270 E6.90547
G1 X60.141 Y63.141 E7.12000
G1 X59.830 Y63.245 E7.14193
G1 X59.727 Y63.307 E7.14997
G1 X58.897 Y64.110 E7.22710
G1 X57.792 Y64.617 E7.30830
G1 X56.792 Y64.710 E7.37543
G1 X54.381 Y64.107 E7.54146
G1 X54.242 Y63.992 E7.55352
G1 X53.964 Y63.942 E7.57236
G1 X53.617 Y64.063 E7.59693
G1 X53.175 Y64.188 E7.62761
G1 X52.678 Y64.268 E7.66121
G1 X52.283 Y64.287 E7.68765
G1 X52.025 Y64.275 E7.70493
G1 X51.424 Y64.182 E7.74555
G1 X50.885 Y64.013 E7.78326
G1 X50.467 Y63.810 E7.81429
G1 X50.144 Y63.613 E7.83958
G1 X49.783 Y63.330 E7.87021
G1 X49.470 Y63.020 E7.89964
G1 X49.245 Y62.760 E7.92260
G1 X48.873 Y62.199 E7.96758
G1 X48.704 Y61.858 E7.99297
G1 X48.565 Y61.511 E8.01797
G1 X48.339 Y60.777 E8.06928
G1 X48.266 Y60.485 E8.08943
G1 X48.200 Y60.090 E8.11616
G1 X48.156 Y59.559 E8.15172
G1 X48.161 Y59.324 E8.16747
G1 X48.248 Y58.741 E8.20686
G1 X48.417 Y58.198 E8.24481
G1 X48.618 Y57.806 E8.27426
G1 X48.941 Y57.366 E8.31073
G1 X49.109 Y57.179 E8.32751
G1 X49.434 Y56.874 E8.35728
G1 X49.847 Y56.601 E8.39035
G1 X50.233 Y56.422 E8.41877
G1 X50.559 Y56.305 E8.44190
G1 X50.913 Y56.226 E8.46617
G1 X51.369 Y56.162 E8.49694
G1 X51.841 Y56.149 E8.52845
G1 X52.232 Y56.162 E8.55458
G1 X52.882 Y56.613 F9000.000
G1 X53.330 Y55.719 E8.62143 F1200.000
G1 X53.261 Y55.361 E8.64578
G1 X52.068 Y54.306 E8.75218
G1 X51.672 Y53.614 E8.80546
G1 X51.481 Y52.630 E8.87238
G1 X51.590 Y51.840 E8.92566
G1 X52.377 Y50.271 E9.04292
G1 X52.782 Y50.136 E9.07143
G1 X52.980 Y49.740 E9.10107
G1 X52.634 Y48.698 E9.17442
G1 X53.441 Y47.089 E9.29466
G1 X53.640 Y46.802 E9.31798
G1 X53.939 Y46.484 E9.34713
G1 X54.212 Y46.267 E9.37044
G1 X56.978 Y44.654 E9.58436
G1 X58.567 Y44.834 E9.69123
G1 X59.508 Y45.701 E9.77669
G1 X60.714 Y46.305 E9.86680
G1 X60.749 Y46.411 E9.87426
G1 X60.888 Y46.572 E9.88850
G1 X61.600 Y46.929 E9.94164
G1 X62.251 Y48.890 E10.07968
G1 X62.245 Y48.958 E10.08423
G1 X62.914 Y51.253 E10.24399
G1 X62.965 Y51.707 E10.27446
G1 X63.249 Y52.563 E10.33475
G1 X63.079 Y52.902 E10.36009
G1 X63.064 Y53.115 E10.37433
G1 X63.186 Y53.482 E10.40017
G1 X62.946 Y53.960 E10.43592
G1 X62.921 Y54.128 E10.44724
G1 X62.981 Y54.496 E10.47212
G1 X60.982 Y58.485 E10.77024
G1 X60.966 Y58.697 E10.78448
G1 X61.132 Y59.197 E10.81963
G1 X60.899 Y59.662 E10.85435
G1 X60.884 Y59.874 E10.86859
G1 X61.002 Y60.229 E10.89356
G1 X59.762 Y62.703 E11.07845
G1 X59.407 Y62.821 E11.10342
G1 X59.246 Y62.960 E11.11766
G1 X59.181 Y63.090 E11.12732
G1 X58.590 Y63.661 E11.18224
G1 X57.652 Y64.092 E11.25124
G1 X56.833 Y64.168 E11.30616
G1 X54.629 Y63.617 E11.45795
G1 X54.312 Y63.354 E11.48548
G1 X54.002 Y63.315 E11.50634
G1 X53.625 Y63.493 E11.53421
G1 X53.449 Y63.555 E11.54665
G1 X52.911 Y63.696 E11.58381
G1 X52.629 Y63.735 E11.60285
G1 X52.292 Y63.751 E11.62536
