; generated by Slic3r 1.2.9 on 2017-02-20 at 23:30:35

; external perimeters extrusion width = 0.40mm
; perimeters extrusion width = 0.42mm
; infill extrusion width = 0.42mm
; solid infill extrusion width = 0.42mm
; top infill extrusion width = 0.42mm
; support material extrusion width = 0.40mm

M107
M190 S70 ; set bed temperature
M104 S240 ; set temperature
G28 ; home all axes
G1 Z5 F5000 ; lift nozzle

M109 S240 ; wait for temperature to be reached
G21 ; set units to millimeters
G90 ; use absolute coordinates
M82 ; use absolute distances for extrusion
G92 E0
G1 Z0.400 F9000.000
G1 E-4.50000 F2400.00000
G92 E0
G1 X41.320 Y42.439 F9000.000
G1 E4.50000 F2400.00000
G1 X43.099 Y40.784 E4.78854 F1200.000
G1 X45.316 Y39.791 E5.07709
G1 X47.202 Y39.548 E5.30288
G1 X70.798 Y39.548 E8.10533
G1 X73.195 Y39.945 E8.39388
G1 X75.336 Y41.095 E8.68242 F1200.000
G1 X76.991 Y42.873 E8.97097
G1 X77.983 Y45.091 E9.25951
G1 X78.227 Y46.976 E9.48530
G1 X78.227 Y69.024 E12.10374
G1 X77.829 Y71.420 E12.39229
G1 X76.680 Y73.561 E12.68083
G1 X74.901 Y75.216 E12.96938
G1 X72.684 Y76.209 E13.25792
G1 X70.798 Y76.452 E13.48371
G1 X47.202 Y76.452 E16.28617
G1 X44.805 Y76.055 E16.57471
G1 X42.664 Y74.905 E16.86325
G1 X41.009 Y73.127 E17.15180
G1 X40.017 Y70.909 E17.44034
G1 X39.773 Y69.024 E17.66613
G1 X39.773 Y46.976 E20.28457
G1 X40.171 Y44.580 E20.57312
G1 X41.292 Y42.492 E20.85454
G1 X41.965 Y42.807 F9000.000
G1 X42.029 Y42.696 E20.86971 F1200.000
G1 X43.785 Y41.197 E21.14394
G1 X45.945 Y40.381 E21.41816
G1 X47.202 Y40.262 E21.56813
G1 X70.798 Y40.262 E24.37058
G1 X73.073 Y40.659 E24.64481
G1 X75.078 Y41.803 E24.91903 F1200.000
G1 X76.578 Y43.559 E25.19326
G1 X77.394 Y45.719 E25.46748
G1 X77.512 Y46.976 E25.61745
G1 X77.512 Y69.024 E28.23589
G1 X77.115 Y71.298 E28.51011
G1 X75.971 Y73.304 E28.78434
G1 X74.215 Y74.803 E29.05856
G1 X72.055 Y75.619 E29.33279
G1 X70.798 Y75.738 E29.48275
G1 X47.202 Y75.738 E32.28521
G1 X44.927 Y75.341 E32.55943
G1 X42.922 Y74.197 E32.83366
G1 X41.422 Y72.441 E33.10788
G1 X40.606 Y70.281 E33.38211
G1 X40.488 Y69.024 E33.53207
G1 X40.488 Y46.976 E36.15051
G1 X40.885 Y44.702 E36.42474
G1 X41.936 Y42.859 E36.67666
G1 E32.17666 F2400.00000
G92 E0
G1 X44.901 Y45.743 F9000.000
G1 E4.50000 F2400.00000
G1 X46.166 Y44.477 E4.71258 F1200.000
G1 X71.834 Y44.477 E7.76097
G1 X73.298 Y45.941 E8.00689
G1 X73.298 Y70.059 E10.87126 F1200.000
G1 X71.834 Y71.523 E11.11719
G1 X46.166 Y71.523 E14.16557
G1 X44.702 Y70.059 E14.41149
G1 X44.702 Y45.941 E17.27586
G1 X44.858 Y45.785 E17.30208
G1 X45.416 Y46.237 F9000.000
G1 X46.462 Y45.191 E17.47774 F1200.000
G1 X71.538 Y45.191 E20.45586
G1 X72.584 Y46.237 E20.63152 F1200.000
G1 X72.584 Y69.763 E23.42562
G1 X71.538 Y70.809 E23.60128
G1 X46.462 Y70.809 E26.57940
G1 X45.416 Y69.763 E26.75506
G1 X45.416 Y46.297 E29.54204
G1 X46.130 Y46.533 F9000.000
G1 X46.758 Y45.905 E29.64744 F1200.000
G1 X71.242 Y45.905 E32.55529
G1 X71.870 Y46.533 E32.66069
G1 X71.870 Y69.467 E35.38452 F1200.000
G1 X71.242 Y70.095 E35.48992
G1 X46.758 Y70.095 E38.39777
G1 X46.130 Y69.467 E38.50317
G1 X46.130 Y46.593 E41.21988
G1 X46.845 Y46.828 F9000.000
G1 X47.054 Y46.619 E41.25501 F1200.000
G1 X70.946 Y46.619 E44.09260
G1 X71.155 Y46.828 E44.12773 F1200.000
G1 X71.155 Y69.172 E46.78130
G1 X70.946 Y69.381 E46.81644
G1 X47.054 Y69.381 E49.65402
G1 X46.845 Y69.172 E49.68916
G1 X46.845 Y46.888 E52.33560
G1 E47.83560 F2400.00000
G92 E0
G1 X70.398 Y68.624 F9000.000
G1 E4.50000 F2400.00000
G1 X47.602 Y68.624 E7.20744 F1200.000
G1 X47.602 Y47.376 E9.73087
G1 X70.398 Y47.376 E12.43831
G1 X70.398 Y68.564 E14.95461
G1 X70.052 Y68.424 F9000.000
G1 X54.386 Y62.924 F9000.000
G1 X54.386 Y53.091 E16.12250 F1200.000
G1 X48.316 Y53.091 E16.84348
G1 X48.316 Y48.091 E17.43731
G1 X69.684 Y48.091 E19.97511
G1 X69.684 Y67.909 E22.32891
G1 X48.316 Y67.909 E24.86671
G1 X48.316 Y62.924 E25.45879
G1 X54.326 Y62.924 E26.17264
G1 X55.101 Y63.638 F9000.000
G1 X55.101 Y52.376 E27.51017 F1200.000
G1 X49.030 Y52.376 E28.23114
G1 X49.030 Y48.805 E28.65533
G1 X68.970 Y48.805 E31.02351
G1 X68.970 Y67.195 E33.20767
G1 X49.030 Y67.195 E35.57584
G1 X49.030 Y63.638 E35.99828
G1 X55.041 Y63.638 E36.71213
G1 X53.672 Y62.210 F9000.000
G1 X49.062 Y62.210 E37.25964 F1200.000
G1 X49.062 Y53.805 E38.25790
G1 X53.672 Y53.805 E38.80540
G1 X53.672 Y62.150 E39.79653
G1 X53.672 Y62.610 F9000.000
G1 X48.332 Y62.567 F9000.000
G1 X48.332 Y53.448 E42.09286 F1200.000
G1 X50.376 Y51.941 F9000.000
G1 X49.466 Y51.030 E42.24824 F1200.000
G1 X49.466 Y50.004 E42.37198
G1 X51.402 Y51.941 E42.70235
G1 X52.428 Y51.941 E42.82608
G1 X49.727 Y49.240 E43.28678
G1 X50.753 Y49.240 E43.41052
G1 X53.454 Y51.941 E43.87121
G1 X54.480 Y51.941 E43.99495
G1 X51.779 Y49.240 E44.45565
G1 X68.534 Y49.583 F9000.000
G1 X68.191 Y49.240 E44.51416 F1200.000
G1 X67.166 Y49.240 E44.63789
G1 X68.534 Y50.609 E44.87139
G1 X68.534 Y51.635 E44.99512
G1 X66.140 Y49.240 E45.40361
G1 X65.114 Y49.240 E45.52734
G1 X68.534 Y52.661 E46.11082
G1 X68.534 Y53.686 E46.23455
G1 X64.088 Y49.240 E46.99301
G1 X63.063 Y49.240 E47.11675
G1 X68.534 Y54.712 E48.05019
G1 X68.534 Y55.738 E48.17393
G1 X62.037 Y49.240 E49.28237
G1 X61.011 Y49.240 E49.40610
G1 X68.534 Y56.764 E50.68952
G1 X68.534 Y57.790 E50.81326
G1 X59.985 Y49.240 E52.27167
G1 X58.959 Y49.240 E52.39540
G1 X68.534 Y58.815 E54.02880
G1 X68.534 Y59.841 E54.15253
G1 X57.934 Y49.240 E55.96092
G1 X56.908 Y49.240 E56.08465
G1 X68.534 Y60.867 E58.06803
G1 X68.534 Y61.893 E58.19176
G1 X55.882 Y49.240 E60.35012
G1 X54.856 Y49.240 E60.47386
G1 X68.534 Y62.918 E62.80720
G1 X68.534 Y63.944 E62.93094
G1 X53.830 Y49.240 E65.43927
G1 X52.805 Y49.240 E65.56301
G1 X68.534 Y64.970 E68.24633
G1 X68.534 Y65.996 E68.37006
G1 X55.536 Y52.997 E70.58743
G1 X55.536 Y54.023 E70.71117
G1 X68.273 Y66.760 E72.88387
G1 X67.247 Y66.760 E73.00761
G1 X55.536 Y55.049 E75.00533
G1 X55.536 Y56.075 E75.12906
G1 X66.221 Y66.760 E76.95179
G1 X65.195 Y66.760 E77.07553
G1 X55.536 Y57.101 E78.72327
G1 X55.536 Y58.126 E78.84701
G1 X64.170 Y66.760 E80.31976
G1 X63.144 Y66.760 E80.44350
G1 X55.536 Y59.152 E81.74127
G1 X55.536 Y60.178 E81.86500
G1 X62.118 Y66.760 E82.98778
G1 X61.092 Y66.760 E83.11152
G1 X55.536 Y61.204 E84.05931
G1 X55.536 Y62.230 E84.18305
G1 X60.066 Y66.760 E84.95585
G1 X59.041 Y66.760 E85.07959
G1 X55.536 Y63.255 E85.67740
G1 X55.329 Y64.074 E85.77925
G1 X58.015 Y66.760 E86.23744
G1 X56.989 Y66.760 E86.36118
G1 X54.303 Y64.074 E86.81937
G1 X53.277 Y64.074 E86.94310
G1 X55.963 Y66.760 E87.40129
G1 X54.937 Y66.760 E87.52502
G1 X52.252 Y64.074 E87.98321
G1 X51.226 Y64.074 E88.10695
G1 X53.912 Y66.760 E88.56514
G1 X52.886 Y66.760 E88.68887
G1 X50.200 Y64.074 E89.14706
G1 X49.466 Y64.365 E89.24236
G1 X51.860 Y66.760 E89.65085
G1 X50.834 Y66.760 E89.77458
G1 X49.466 Y65.391 E90.00808
G1 X49.466 Y66.417 E90.13181
G1 X49.809 Y66.760 E90.19032
G1 Z0.400 F9000.000
M104 S220 ; set temperature
M140 S60 ; wait for bed temperature to be reached
G1 Z0.800 F9000.000
G1 X54.131 Y62.668 F9000.000
G1 X48.604 Y62.668 E90.49744 F900.000
G1 X48.604 Y53.346 E91.01547
G1 X54.131 Y53.346 E91.32259
G1 X54.131 Y62.608 E91.83728
G1 X53.796 Y62.334 F9000.000
G1 X48.938 Y62.334 E92.10727 F900.000
G1 X48.938 Y53.681 E92.58815
G1 X53.796 Y53.681 E92.85814
G1 X53.796 Y62.274 E93.33569
G1 X53.472 Y62.010 F9000.000
G1 X49.262 Y62.010 E93.55564 F900.000
G1 X49.262 Y54.005 E93.97388
G1 X53.472 Y54.005 E94.19383
G1 X53.472 Y61.950 E94.60893
G1 X53.472 Y62.410 F9000.000
G1 X48.060 Y68.165 F9000.000
G1 X48.060 Y47.835 E95.73872 F3600.000
G1 X69.940 Y47.835 E96.95461
G1 X69.940 Y68.165 E98.08440
G1 X48.120 Y68.165 E99.29695
G1 X47.726 Y68.499 F9000.000
G1 X47.726 Y47.501 E100.46388 F3600.000
G1 X70.274 Y47.501 E101.71691
G1 X70.274 Y68.499 E102.88383
G1 X47.786 Y68.499 E104.13353
G1 X47.402 Y68.824 F9000.000
G1 X47.402 Y47.176 E105.26448 F1800.000
G1 X70.598 Y47.176 E106.47639
G1 X70.598 Y68.824 E107.60734
G1 X47.462 Y68.824 E108.81611
G1 X47.602 Y68.477 F9000.000
G1 X48.332 Y62.835 F9000.000
G1 X48.332 Y53.179 E109.35271 F1200.000
G1 X48.435 Y48.028 F9000.000
G1 X48.253 Y48.210 E109.36714 F1200.000
G1 X48.253 Y48.687 E109.39397
G1 X48.912 Y48.028 E109.44634
G1 X49.390 Y48.028 E109.47316
G1 X48.253 Y49.165 E109.56347
G1 X48.253 Y49.642 E109.59029
G1 X49.868 Y48.028 E109.71853
G1 X50.345 Y48.028 E109.74536
G1 X48.253 Y50.120 E109.91153
G1 X48.253 Y50.598 E109.93836
G1 X50.823 Y48.028 E110.14247
G1 X51.301 Y48.028 E110.16929
G1 X48.253 Y51.075 E110.41134
G1 X48.253 Y51.553 E110.43816
G1 X51.778 Y48.028 E110.71814
G1 X52.256 Y48.028 E110.74497
G1 X48.253 Y52.030 E111.06288
G1 X48.253 Y52.508 E111.08971
G1 X52.733 Y48.028 E111.44556
G1 X53.211 Y48.028 E111.47238
G1 X48.253 Y52.986 E111.86617
G1 X48.730 Y52.986 E111.89296
G1 X53.689 Y48.028 E112.28679
G1 X54.166 Y48.028 E112.31361
G1 X49.041 Y53.153 E112.72071
G1 X49.518 Y53.153 E112.74753
G1 X54.644 Y48.028 E113.15463
G1 X55.121 Y48.028 E113.18145
G1 X49.996 Y53.153 E113.58855
G1 X50.474 Y53.153 E113.61537
G1 X55.599 Y48.028 E114.02247
G1 X56.077 Y48.028 E114.04929
G1 X50.951 Y53.153 E114.45639
G1 X51.429 Y53.153 E114.48321
G1 X56.554 Y48.028 E114.89031
G1 X57.032 Y48.028 E114.91713
G1 X51.906 Y53.153 E115.32423
G1 X52.384 Y53.153 E115.35105
G1 X57.509 Y48.028 E115.75815
G1 X57.987 Y48.028 E115.78497
G1 X52.862 Y53.153 E116.19207
G1 X53.339 Y53.153 E116.21889
G1 X58.465 Y48.028 E116.62599
G1 X58.942 Y48.028 E116.65281
G1 X53.817 Y53.153 E117.05991
G1 X54.295 Y53.153 E117.08673
G1 X59.420 Y48.028 E117.49383
G1 X59.898 Y48.028 E117.52065
G1 X54.324 Y53.602 E117.96336
G1 X54.324 Y54.079 E117.99019
G1 X60.375 Y48.028 E118.47083
G1 X60.853 Y48.028 E118.49765
G1 X54.324 Y54.557 E119.01623
G1 X54.324 Y55.034 E119.04306
G1 X61.330 Y48.028 E119.59957
G1 X61.808 Y48.028 E119.62640
G1 X54.324 Y55.512 E120.22084
G1 X54.324 Y55.990 E120.24767
G1 X62.286 Y48.028 E120.88005
G1 X62.763 Y48.028 E120.90688
G1 X54.324 Y56.467 E121.57720
G1 X54.324 Y56.945 E121.60402
G1 X63.241 Y48.028 E122.31228
G1 X63.718 Y48.028 E122.33910
G1 X54.324 Y57.423 E123.08529
G1 X54.324 Y57.900 E123.11212
G1 X64.196 Y48.028 E123.89624
G1 X64.674 Y48.028 E123.92306
G1 X54.324 Y58.378 E124.74512
G1 X54.324 Y58.855 E124.77195
G1 X65.151 Y48.028 E125.63194
G1 X65.629 Y48.028 E125.65877
G1 X54.324 Y59.333 E126.55670
G1 X54.324 Y59.811 E126.58352
G1 X66.106 Y48.028 E127.51939
G1 X66.584 Y48.028 E127.54621
G1 X54.324 Y60.288 E128.52001
G1 X54.324 Y60.766 E128.54684
G1 X67.062 Y48.028 E129.55857
G1 X67.539 Y48.028 E129.58540
G1 X54.324 Y61.243 E130.63507
G1 X54.324 Y61.721 E130.66189
G1 X68.017 Y48.028 E131.74950
G1 X68.495 Y48.028 E131.77632
G1 X54.324 Y62.199 E132.90186
G1 X54.324 Y62.676 F9000.000
G1 X68.972 Y48.028 E134.06534 F1200.000
G1 X69.450 Y48.028 E134.09216
G1 X49.505 Y67.972 E135.67628
G1 X49.983 Y67.972 E135.70310
G1 X69.747 Y48.208 E137.27288
G1 X69.747 Y48.686 E137.29971
G1 X50.461 Y67.972 E138.83155
G1 X50.938 Y67.972 E138.85837
G1 X69.747 Y49.164 E140.35228
G1 X69.747 Y49.641 E140.37911
G1 X51.416 Y67.972 E141.83508
G1 X51.893 Y67.972 E141.86190
G1 X69.747 Y50.119 E143.27994
G1 X69.747 Y50.596 E143.30677
G1 X52.371 Y67.972 E144.68687
G1 X52.849 Y67.972 E144.71369
G1 X69.747 Y51.074 E146.05586
G1 X69.747 Y51.552 E146.08268
G1 X53.326 Y67.972 E147.38692
G1 X53.804 Y67.972 E147.41374
G1 X69.747 Y52.029 E148.68004
G1 X69.747 Y52.507 E148.70686
G1 X54.282 Y67.972 E149.93522
G1 X54.759 Y67.972 E149.96205
G1 X69.747 Y52.984 E151.15248
G1 X69.747 Y53.462 E151.17930
G1 X55.237 Y67.972 E152.33179
G1 X55.714 Y67.972 E152.35862
G1 X69.747 Y53.940 E153.47317
G1 X69.747 Y54.417 E153.50000
G1 X56.192 Y67.972 E154.57662
G1 X56.670 Y67.972 E154.60344
G1 X69.747 Y54.895 E155.64213
G1 X69.747 Y55.373 E155.66895
G1 X57.147 Y67.972 E156.66970
G1 X57.625 Y67.972 E156.69653
G1 X69.747 Y55.850 E157.65935
G1 X69.747 Y56.328 E157.68617
G1 X58.102 Y67.972 E158.61105
G1 X58.580 Y67.972 E158.63787
G1 X69.747 Y56.805 E159.52482
G1 X69.747 Y57.283 E159.55164
G1 X59.058 Y67.972 E160.40066
G1 X59.535 Y67.972 E160.42748
G1 X69.747 Y57.761 E161.23856
G1 X69.747 Y58.238 E161.26538
G1 X60.013 Y67.972 E162.03852
G1 X60.490 Y67.972 E162.06534
G1 X69.747 Y58.716 E162.80055
G1 X69.747 Y59.193 E162.82737
G1 X60.968 Y67.972 E163.52464
G1 X61.446 Y67.972 E163.55147
G1 X69.747 Y59.671 E164.21080
G1 X69.747 Y60.149 E164.23763
G1 X61.923 Y67.972 E164.85903
G1 X62.401 Y67.972 E164.88585
G1 X69.747 Y60.626 E165.46932
G1 X69.747 Y61.104 E165.49614
G1 X62.879 Y67.972 E166.04167
G1 X63.356 Y67.972 E166.06849
G1 X69.747 Y61.581 E166.57609
G1 X69.747 Y62.059 E166.60291
G1 X63.834 Y67.972 E167.07257
G1 X64.311 Y67.972 E167.09940
G1 X69.747 Y62.537 E167.53112
G1 X69.747 Y63.014 E167.55794
G1 X64.789 Y67.972 E167.95173
G1 X65.267 Y67.972 E167.97856
G1 X69.747 Y63.492 E168.33441
G1 X69.747 Y63.969 E168.36124
G1 X65.744 Y67.972 E168.67915
G1 X66.222 Y67.972 E168.70598
G1 X69.747 Y64.447 E168.98596
G1 X69.747 Y64.925 E169.01279
G1 X66.699 Y67.972 E169.25484
G1 X67.177 Y67.972 E169.28166
G1 X69.747 Y65.402 E169.48577
G1 X69.747 Y65.880 E169.51260
G1 X67.655 Y67.972 E169.67878
G1 X68.132 Y67.972 E169.70560
G1 X69.747 Y66.358 E169.83384
G1 X69.747 Y66.835 E169.86067
G1 X68.610 Y67.972 E169.95097
G1 X69.087 Y67.972 E169.97780
G1 X69.747 Y67.313 E170.03017
G1 X69.747 Y67.790 E170.05700
G1 X69.565 Y67.972 E170.07143
G1 X54.139 Y62.861 F9000.000
G1 X49.028 Y67.972 E170.47736 F1200.000
G1 X48.550 Y67.972 E170.50419
G1 X53.661 Y62.861 E170.91011
G1 X53.183 Y62.861 E170.93694
G1 X48.253 Y67.792 E171.32853
G1 X48.253 Y67.314 E171.35535
G1 X52.706 Y62.861 E171.70900
G1 X52.228 Y62.861 E171.73583
G1 X48.253 Y66.836 E172.05154
G1 X48.253 Y66.359 E172.07837
G1 X51.750 Y62.861 E172.35615
G1 X51.273 Y62.861 E172.38298
G1 X48.253 Y65.881 E172.62282
G1 X48.253 Y65.404 E172.64965
G1 X50.795 Y62.861 E172.85156
G1 X50.318 Y62.861 E172.87838
G1 X48.253 Y64.926 E173.04236
G1 X48.253 Y64.448 E173.06919
G1 X49.840 Y62.861 E173.19523
G1 X49.362 Y62.861 E173.22205
G1 X48.253 Y63.971 E173.31016
G1 X48.253 Y63.493 E173.33698
G1 X48.885 Y62.861 E173.38716
G1 Z1.200 F9000.000
G1 X48.604 Y62.668 F9000.000
G1 X48.604 Y53.346 E173.90518 F900.000
G1 X54.131 Y53.346 E174.21230
G1 X54.131 Y62.668 E174.73033
G1 X48.664 Y62.668 E175.03412
G1 X48.938 Y62.334 F9000.000
G1 X48.938 Y53.681 E175.51501 F900.000
G1 X53.796 Y53.681 E175.78499
G1 X53.796 Y62.334 E176.26588
G1 X48.998 Y62.334 E176.53252
G1 X49.262 Y62.010 F9000.000
G1 X49.262 Y54.005 E176.95076 F900.000
G1 X53.472 Y54.005 E177.17071
G1 X53.472 Y62.010 E177.58895
G1 X49.322 Y62.010 E177.80576
G1 X48.862 Y62.010 F9000.000
G1 X48.060 Y68.165 F9000.000
G1 X48.060 Y47.835 E178.93555 F3600.000
G1 X69.940 Y47.835 E180.15144
G1 X69.940 Y68.165 E181.28123
G1 X48.120 Y68.165 E182.49378
G1 X47.726 Y68.499 F9000.000
G1 X47.726 Y47.501 E183.66071 F3600.000
G1 X70.274 Y47.501 E184.91374
G1 X70.274 Y68.499 E186.08067
G1 X47.786 Y68.499 E187.33036
G1 X47.402 Y68.824 F9000.000
G1 X47.402 Y47.176 E188.46132 F1800.000
G1 X70.598 Y47.176 E189.67322
G1 X70.598 Y68.824 E190.80418
G1 X47.462 Y68.824 E192.01295
G1 X47.602 Y68.477 F9000.000
G1 X48.332 Y62.835 F9000.000
G1 X48.332 Y53.179 E192.54954 F1200.000
G1 X48.900 Y53.153 F9000.000
G1 X48.253 Y52.507 E192.60088 F1200.000
G1 X48.253 Y52.029 E192.62771
G1 X49.377 Y53.153 E192.71698
G1 X49.855 Y53.153 E192.74381
G1 X48.253 Y51.552 E192.87102
G1 X48.253 Y51.074 E192.89784
G1 X50.332 Y53.153 E193.06299
G1 X50.810 Y53.153 E193.08981
G1 X48.253 Y50.596 E193.29289
G1 X48.253 Y50.119 E193.31972
G1 X51.288 Y53.153 E193.56073
G1 X51.765 Y53.153 E193.58756
G1 X48.253 Y49.641 E193.86651
G1 X48.253 Y49.164 E193.89333
G1 X52.243 Y53.153 E194.21022
G1 X52.720 Y53.153 E194.23704
G1 X48.253 Y48.686 E194.59186
G1 X48.253 Y48.208 E194.61869
G1 X53.198 Y53.153 E195.01144
G1 X53.676 Y53.153 E195.03827
G1 X48.550 Y48.028 E195.44536
G1 X54.153 Y53.153 F9000.000
G1 X49.028 Y48.028 E195.85246 F1200.000
G1 X49.505 Y48.028 E195.87928
G1 X69.450 Y67.972 E197.46340
G1 X69.747 Y67.792 E197.48292
G1 X49.983 Y48.028 E199.05270
G1 X50.461 Y48.028 E199.07953
G1 X69.747 Y67.314 E200.61137
G1 X69.747 Y66.836 E200.63819
