; generated by Slic3r 1.2.9 on 2017-02-25 at 13:06:29

; external perimeters extrusion width = 0.40mm
; perimeters extrusion width = 0.68mm
; infill extrusion width = 1.28mm
; solid infill extrusion width = 0.68mm
; top infill extrusion width = 0.68mm
; support material extrusion width = 0.40mm

M107
M190 S70 ; set bed temperature
M104 S240 ; set temperature
G28 ; home all axes
G1 Z5 F5000 ; lift nozzle

M109 S240 ; wait for temperature to be reached
G21 ; set units to millimeters
G90 ; use absolute coordinates
M82 ; use absolute distances for extrusion
G92 E0
G1 Z0.300 F9000.000
G1 E-4.50000 F2400.00000
G92 E0
G1 X52.512 Y47.632 F9000.000
G1 E4.50000 F2400.00000
G1 X54.294 Y46.069 E4.65833 F1200.000
G1 X56.492 Y45.183 E4.81666
G1 X58.859 Y45.072 E4.97499
G1 X61.130 Y45.750 E5.13332
G1 X63.488 Y47.632 E5.33487 F1200.000
G1 X74.715 Y61.450 E6.52424
G1 X75.880 Y63.514 E6.68257
G1 X76.298 Y65.846 E6.84090
G1 X75.921 Y68.186 E6.99923
G1 X74.793 Y70.270 E7.15756
G1 X73.039 Y71.865 E7.31589
G1 X70.857 Y72.790 E7.47422
G1 X69.227 Y72.980 E7.58385
G1 X46.773 Y72.980 E9.08388
G1 X44.437 Y72.583 E9.24221
G1 X42.363 Y71.436 E9.40054
G1 X40.784 Y69.668 E9.55887
G1 X39.878 Y67.478 E9.71720
G1 X39.747 Y65.112 E9.87553
G1 X40.405 Y62.835 E10.03386
G1 X41.285 Y61.450 E10.14349
G1 X52.474 Y47.679 E11.32886
G1 X52.928 Y47.970 F9000.000
G1 X54.650 Y46.479 E11.48103 F1200.000
G1 X56.779 Y45.671 E11.63320
G1 X59.057 Y45.642 E11.78537
G1 X61.206 Y46.396 E11.93754
G1 X63.072 Y47.970 E12.10062 F1200.000
G1 X74.299 Y61.787 E13.28999
G1 X75.406 Y63.779 E13.44216
G1 X75.761 Y66.028 E13.59433
G1 X75.323 Y68.264 E13.74650
G1 X74.145 Y70.213 E13.89868
G1 X72.369 Y71.640 E14.05085
G1 X69.227 Y72.444 E14.26754
G1 X46.773 Y72.444 E15.76756
G1 X44.530 Y72.047 E15.91973
G1 X42.560 Y70.905 E16.07190
G1 X41.101 Y69.155 E16.22407
G1 X40.331 Y67.012 E16.37625
G1 X40.344 Y64.734 E16.52842
G1 X41.701 Y61.787 E16.74511
G1 X52.890 Y48.016 E17.93048
G1 E13.43048 F2400.00000
G92 E0
G1 X40.798 Y65.194 F9000.000
G1 E4.50000 F2400.00000
G1 X55.578 Y47.003 E6.06585 F1200.000
G1 X60.422 Y47.003 E6.38944
G1 X75.202 Y65.194 E7.95529
G1 X72.440 Y70.997 E8.38464
G1 X43.560 Y70.997 E10.31401
G1 X40.823 Y65.248 E10.73935
G1 X41.427 Y65.269 F9000.000
G1 X55.833 Y47.538 E12.26557 F1200.000
G1 X60.167 Y47.538 E12.55511
G1 X74.573 Y65.269 E14.08132
G1 X72.102 Y70.462 E14.46548
G1 X43.898 Y70.462 E16.34966
G1 X41.452 Y65.324 E16.72981
G1 X42.056 Y65.345 F9000.000
G1 X56.088 Y48.074 E18.21640 F1200.000
G1 X59.912 Y48.074 E18.47187
G1 X73.944 Y65.345 E19.95846
G1 X71.764 Y69.926 E20.29742
G1 X44.236 Y69.926 E22.13640
G1 X42.081 Y65.399 E22.47135
G1 X42.685 Y65.420 F9000.000
G1 X56.343 Y48.610 E23.91831 F1200.000
G1 X59.657 Y48.610 E24.13972
G1 X73.315 Y65.420 E25.58668
G1 X71.425 Y69.390 E25.88045
G1 X44.575 Y69.390 E27.67424
G1 X42.710 Y65.474 E27.96399
G1 X43.314 Y65.495 F9000.000
G1 X56.598 Y49.145 E29.37133 F1200.000
G1 X59.402 Y49.145 E29.55867
G1 X72.686 Y65.495 E30.96600
G1 X71.087 Y68.855 E31.21457
G1 X44.913 Y68.855 E32.96317
G1 X43.339 Y65.549 E33.20773
G1 X43.943 Y65.570 F9000.000
G1 X56.853 Y49.681 E34.57543 F1200.000
G1 X59.147 Y49.681 E34.72872
G1 X72.057 Y65.570 E36.09642
G1 X70.749 Y68.319 E36.29980
G1 X45.251 Y68.319 E38.00320
G1 X43.968 Y65.624 E38.20256
G1 X44.572 Y65.645 F9000.000
G1 X57.108 Y50.217 E39.53064 F1200.000
G1 X58.892 Y50.217 E39.64986
G1 X71.428 Y65.645 E40.97793
G1 X70.411 Y67.783 E41.13611
G1 X45.589 Y67.783 E42.79432
G1 X44.597 Y65.700 E42.94849
G1 X45.201 Y65.721 F9000.000
G1 X57.363 Y50.752 E44.23694 F1200.000
G1 X58.637 Y50.752 E44.32210
G1 X70.799 Y65.721 E45.61054
G1 X70.072 Y67.248 E45.72353
G1 X45.928 Y67.248 E47.33654
G1 X45.226 Y65.775 E47.44552
G1 X45.830 Y65.796 F9000.000
G1 X57.618 Y51.288 E48.69433 F1200.000
G1 X58.382 Y51.288 E48.74543
G1 X70.170 Y65.796 E49.99425
G1 X69.734 Y66.712 E50.06204
G1 X46.266 Y66.712 E51.62985
G1 X45.855 Y65.850 E51.69364
G1 X46.459 Y65.871 F9000.000
G1 X57.873 Y51.823 E52.90282 F1200.000
G1 X58.127 Y51.823 E52.91986
G1 X69.541 Y65.871 E54.12904
G1 X69.396 Y66.177 E54.15164
G1 X46.604 Y66.177 E55.67426
G1 X46.484 Y65.925 E55.69285
G1 E51.19285 F2400.00000
G92 E0
G1 X68.597 Y65.609 F9000.000
G1 E4.50000 F2400.00000
G1 X47.403 Y65.609 E5.91581 F1200.000
G1 X58.000 Y52.567 E7.03841
G1 X68.559 Y65.562 E8.15700
G1 X68.214 Y65.492 F9000.000
G1 X66.880 Y64.726 F9000.000
G1 X49.110 Y64.726 E9.34417 F1200.000
G1 X57.995 Y53.790 E10.28549
G1 X66.843 Y64.679 E11.22279
G1 X66.971 Y65.116 F9000.000
G1 X67.597 Y65.133 F9000.000
G1 X67.443 Y65.167 E11.23334 F1200.000
G1 X48.547 Y65.167 E12.49568
G1 X48.398 Y65.135 E12.50587
G1 X48.457 Y64.921 E12.52075
G1 X57.905 Y53.292 E13.52167
G1 X58.000 Y53.221 E13.52960
G1 X58.088 Y53.290 E13.53708
G1 X67.536 Y64.918 E14.53800
G1 X67.581 Y65.075 E14.54892
G1 Z0.300 F9000.000
M104 S220 ; set temperature
M140 S60 ; wait for bed temperature to be reached
G1 Z0.400 F9000.000
G1 X66.670 Y64.626 F9000.000
G1 X49.320 Y64.626 E14.82198 F1800.000
G1 X57.995 Y53.949 E15.03849
G1 X66.633 Y64.579 E15.25405
G1 X66.761 Y65.016 F9000.000
G1 X68.807 Y65.709 F9000.000
G1 X47.193 Y65.709 E15.59420 F1800.000
G1 X58.000 Y52.408 E15.86390
G1 X68.769 Y65.662 E16.13266
G1 X68.424 Y65.592 F9000.000
G1 X67.509 Y65.091 F9000.000
G1 X67.215 Y65.167 E16.14954 F1200.000
G1 X48.775 Y65.167 E17.17572
G1 X48.486 Y65.093 E17.19231
G1 X48.601 Y64.744 E17.21280
G1 X57.821 Y53.396 E18.02646
G1 X58.000 Y53.260 E18.03898
G1 X58.172 Y53.394 E18.05112
G1 X67.392 Y64.741 E18.86478
G1 X67.504 Y65.031 E18.88207
G1 Z0.500 F9000.000
G1 X66.670 Y64.626 F9000.000
G1 X49.320 Y64.626 E19.15513 F1800.000
G1 X57.995 Y53.949 E19.37164
G1 X66.633 Y64.579 E19.58720
G1 X66.761 Y65.016 F9000.000
G1 X68.807 Y65.709 F9000.000
G1 X47.193 Y65.709 E19.92735 F1800.000
G1 X58.000 Y52.408 E20.19705
G1 X68.769 Y65.662 E20.46581
G1 X68.424 Y65.592 F9000.000
G1 X67.509 Y65.091 F9000.000
G1 X67.215 Y65.167 E20.48269 F1200.000
G1 X48.775 Y65.167 E21.50887
G1 X48.486 Y65.093 E21.52546
G1 X48.601 Y64.744 E21.54595
G1 X57.821 Y53.396 E22.35961
G1 X58.000 Y53.260 E22.37213
G1 X58.172 Y53.394 E22.38426
G1 X67.392 Y64.741 E23.19792
G1 X67.490 Y65.034 E23.21510
M106 S252.45
G1 Z0.600 F9000.000
G1 X66.670 Y64.626 F9000.000
G1 X49.320 Y64.626 E23.48816 F1800.000
G1 X57.995 Y53.949 E23.70467
G1 X66.633 Y64.579 E23.92023
G1 X66.761 Y65.016 F9000.000
G1 X68.807 Y65.709 F9000.000
G1 X47.193 Y65.709 E24.26038 F1800.000
G1 X58.000 Y52.408 E24.53008
G1 X68.769 Y65.662 E24.79884
G1 X68.424 Y65.592 F9000.000
G1 X67.509 Y65.091 F9000.000
G1 X67.215 Y65.167 E24.81572 F1200.000
G1 X48.775 Y65.167 E25.84190
G1 X48.486 Y65.093 E25.85849
G1 X48.601 Y64.744 E25.87898
G1 X57.821 Y53.396 E26.69264
G1 X58.000 Y53.260 E26.70516
G1 X58.172 Y53.394 E26.71729
G1 X67.392 Y64.741 E27.53095
G1 X67.490 Y65.034 E27.54813
G1 Z0.700 F9000.000
G1 X66.670 Y64.626 F9000.000
G1 X49.320 Y64.626 E27.82119 F1800.000
G1 X57.995 Y53.949 E28.03770
G1 X66.633 Y64.579 E28.25326
G1 X66.761 Y65.016 F9000.000
G1 X68.807 Y65.709 F9000.000
G1 X47.193 Y65.709 E28.59341 F1800.000
G1 X58.000 Y52.408 E28.86311
G1 X68.769 Y65.662 E29.13187
G1 X68.424 Y65.592 F9000.000
G1 X67.509 Y65.091 F9000.000
G1 X67.215 Y65.167 E29.14875 F1200.000
G1 X48.775 Y65.167 E30.17493
G1 X48.486 Y65.093 E30.19152
G1 X48.601 Y64.744 E30.21201
G1 X57.821 Y53.396 E31.02567
G1 X58.000 Y53.260 E31.03819
G1 X58.172 Y53.394 E31.05033
G1 X67.392 Y64.741 E31.86399
G1 X67.490 Y65.034 E31.88116
G1 Z0.800 F9000.000
G1 X66.670 Y64.626 F9000.000
G1 X49.320 Y64.626 E32.15422 F1800.000
G1 X57.995 Y53.949 E32.37073
G1 X66.633 Y64.579 E32.58629
G1 X66.761 Y65.016 F9000.000
G1 X68.807 Y65.709 F9000.000
G1 X47.193 Y65.709 E32.92644 F1800.000
G1 X58.000 Y52.408 E33.19614
G1 X68.769 Y65.662 E33.46490
G1 X68.424 Y65.592 F9000.000
G1 X67.509 Y65.091 F9000.000
G1 X67.215 Y65.167 E33.48178 F1200.000
G1 X48.775 Y65.167 E34.50796
G1 X48.486 Y65.093 E34.52455
G1 X48.601 Y64.744 E34.54504
G1 X57.821 Y53.396 E35.35870
G1 X58.000 Y53.260 E35.37122
G1 X58.172 Y53.394 E35.38336
G1 X67.392 Y64.741 E36.19702
G1 X67.490 Y65.034 E36.21419
G1 Z0.900 F9000.000
G1 X66.670 Y64.626 F9000.000
G1 X49.320 Y64.626 E36.48725 F1800.000
G1 X57.995 Y53.949 E36.70376
G1 X66.633 Y64.579 E36.91932
G1 X66.761 Y65.016 F9000.000
G1 X68.807 Y65.709 F9000.000
G1 X47.193 Y65.709 E37.25947 F1800.000
G1 X58.000 Y52.408 E37.52917
G1 X68.769 Y65.662 E37.79793
G1 X68.424 Y65.592 F9000.000
G1 X67.509 Y65.091 F9000.000
G1 X67.215 Y65.167 E37.81481 F1200.000
G1 X48.775 Y65.167 E38.84099
G1 X48.486 Y65.093 E38.85758
G1 X48.601 Y64.744 E38.87807
G1 X57.821 Y53.396 E39.69173
G1 X58.000 Y53.260 E39.70425
G1 X58.172 Y53.394 E39.71639
G1 X67.392 Y64.741 E40.53005
G1 X67.490 Y65.034 E40.54722
G1 Z1.000 F9000.000
G1 X66.670 Y64.626 F9000.000
G1 X49.320 Y64.626 E40.82028 F1800.000
G1 X57.995 Y53.949 E41.03679
G1 X66.633 Y64.579 E41.25236
G1 X66.761 Y65.016 F9000.000
G1 X68.807 Y65.709 F9000.000
G1 X47.193 Y65.709 E41.59250 F1800.000
G1 X58.000 Y52.408 E41.86220
G1 X68.769 Y65.662 E42.13096
G1 X68.424 Y65.592 F9000.000
G1 X67.509 Y65.091 F9000.000
G1 X67.215 Y65.167 E42.14784 F1200.000
G1 X48.775 Y65.167 E43.17402
G1 X48.486 Y65.093 E43.19061
G1 X48.601 Y64.744 E43.21110
G1 X57.821 Y53.396 E44.02476
G1 X58.000 Y53.260 E44.03728
G1 X58.172 Y53.394 E44.04942
G1 X67.392 Y64.741 E44.86308
G1 X67.490 Y65.034 E44.88025
G1 Z1.100 F9000.000
G1 X66.670 Y64.626 F9000.000
G1 X49.320 Y64.626 E45.15331 F1800.000
G1 X57.995 Y53.949 E45.36982
G1 X66.633 Y64.579 E45.58539
G1 X66.761 Y65.016 F9000.000
G1 X68.807 Y65.709 F9000.000
G1 X47.193 Y65.709 E45.92553 F1800.000
G1 X58.000 Y52.408 E46.19523
G1 X68.769 Y65.662 E46.46399
G1 X68.424 Y65.592 F9000.000
G1 X67.509 Y65.091 F9000.000
G1 X67.215 Y65.167 E46.48087 F1200.000
G1 X48.775 Y65.167 E47.50705
G1 X48.486 Y65.093 E47.52364
G1 X48.601 Y64.744 E47.54413
G1 X57.821 Y53.396 E48.35779
G1 X58.000 Y53.260 E48.37031
G1 X58.172 Y53.394 E48.38245
G1 X67.392 Y64.741 E49.19611
G1 X67.490 Y65.034 E49.21328
G1 Z1.200 F9000.000
G1 X66.670 Y64.626 F9000.000
G1 X49.320 Y64.626 E49.48634 F1800.000
G1 X57.995 Y53.949 E49.70285
G1 X66.633 Y64.579 E49.91842
G1 X66.761 Y65.016 F9000.000
G1 X68.807 Y65.709 F9000.000
G1 X47.193 Y65.709 E50.25856 F1800.000
G1 X58.000 Y52.408 E50.52827
G1 X68.769 Y65.662 E50.79702
G1 X68.424 Y65.592 F9000.000
G1 X67.509 Y65.091 F9000.000
G1 X67.215 Y65.167 E50.81390 F1200.000
G1 X48.775 Y65.167 E51.84008
G1 X48.486 Y65.093 E51.85668
G1 X48.601 Y64.744 E51.87716
G1 X57.821 Y53.396 E52.69082
G1 X58.000 Y53.260 E52.70334
G1 X58.172 Y53.394 E52.71548
G1 X67.392 Y64.741 E53.52914
G1 X67.490 Y65.034 E53.54632
G1 Z1.300 F9000.000
G1 X66.670 Y64.626 F9000.000
G1 X49.320 Y64.626 E53.81937 F1800.000
G1 X57.995 Y53.949 E54.03588
G1 X66.633 Y64.579 E54.25145
G1 X66.761 Y65.016 F9000.000
G1 X68.807 Y65.709 F9000.000
G1 X47.193 Y65.709 E54.59159 F1800.000
G1 X58.000 Y52.408 E54.86130
G1 X68.769 Y65.662 E55.13005
G1 X68.424 Y65.592 F9000.000
G1 X67.509 Y65.091 F9000.000
G1 X67.215 Y65.167 E55.14693 F1200.000
G1 X48.775 Y65.167 E56.17311
G1 X48.486 Y65.093 E56.18971
G1 X48.601 Y64.744 E56.21019
G1 X57.821 Y53.396 E57.02385
G1 X58.000 Y53.260 E57.03637
G1 X58.172 Y53.394 E57.04851
G1 X67.392 Y64.741 E57.86217
G1 X67.490 Y65.034 E57.87935
G1 Z1.400 F9000.000
G1 X66.670 Y64.626 F9000.000
G1 X49.320 Y64.626 E58.15240 F1800.000
G1 X57.995 Y53.949 E58.36891
G1 X66.633 Y64.579 E58.58448
G1 X66.761 Y65.016 F9000.000
G1 X68.807 Y65.709 F9000.000
G1 X47.193 Y65.709 E58.92462 F1800.000
G1 X58.000 Y52.408 E59.19433
G1 X68.769 Y65.662 E59.46309
G1 X68.424 Y65.592 F9000.000
G1 X67.509 Y65.091 F9000.000
G1 X67.215 Y65.167 E59.47997 F1200.000
G1 X48.775 Y65.167 E60.50614
G1 X48.486 Y65.093 E60.52274
G1 X48.601 Y64.744 E60.54322
G1 X57.821 Y53.396 E61.35688
G1 X58.000 Y53.260 E61.36940
G1 X58.172 Y53.394 E61.38154
G1 X67.392 Y64.741 E62.19520
G1 X67.490 Y65.034 E62.21238
G1 Z1.500 F9000.000
G1 X66.670 Y64.626 F9000.000
G1 X49.320 Y64.626 E62.48543 F1800.000
G1 X57.995 Y53.949 E62.70194
G1 X66.633 Y64.579 E62.91751
G1 X66.761 Y65.016 F9000.000
G1 X68.807 Y65.709 F9000.000
G1 X47.193 Y65.709 E63.25765 F1800.000
G1 X58.000 Y52.408 E63.52736
G1 X68.769 Y65.662 E63.79612
G1 X68.424 Y65.592 F9000.000
G1 X67.509 Y65.091 F9000.000
G1 X67.215 Y65.167 E63.81300 F1200.000
G1 X48.775 Y65.167 E64.83917
G1 X48.486 Y65.093 E64.85577
G1 X48.601 Y64.744 E64.87625
G1 X57.821 Y53.396 E65.68992
G1 X58.000 Y53.260 E65.70243
G1 X58.172 Y53.394 E65.71457
G1 X67.392 Y64.741 E66.52823
G1 X67.490 Y65.034 E66.54541
G1 Z1.600 F9000.000
G1 X66.670 Y64.626 F9000.000
G1 X49.320 Y64.626 E66.81847 F1800.000
G1 X57.995 Y53.949 E67.03497
G1 X66.633 Y64.579 E67.25054
G1 X66.761 Y65.016 F9000.000
G1 X68.807 Y65.709 F9000.000
G1 X47.193 Y65.709 E67.59068 F1800.000
G1 X58.000 Y52.408 E67.86039
G1 X68.769 Y65.662 E68.12915
G1 X68.424 Y65.592 F9000.000
G1 X67.509 Y65.091 F9000.000
G1 X67.215 Y65.167 E68.14603 F1200.000
G1 X48.775 Y65.167 E69.17220
G1 X48.486 Y65.093 E69.18880
G1 X48.601 Y64.744 E69.20928
G1 X57.821 Y53.396 E70.02295
G1 X58.000 Y53.260 E70.03546
G1 X58.172 Y53.394 E70.04760
G1 X67.392 Y64.741 E70.86126
G1 X67.490 Y65.034 E70.87844
G1 Z1.700 F9000.000
G1 X66.670 Y64.626 F9000.000
G1 X49.320 Y64.626 E71.15150 F1800.000
G1 X57.995 Y53.949 E71.36801
G1 X66.633 Y64.579 E71.58357
G1 X66.761 Y65.016 F9000.000
G1 X68.807 Y65.709 F9000.000
G1 X47.193 Y65.709 E71.92372 F1800.000
G1 X58.000 Y52.408 E72.19342
G1 X68.769 Y65.662 E72.46218
G1 X68.424 Y65.592 F9000.000
G1 X67.509 Y65.091 F9000.000
G1 X67.215 Y65.167 E72.47906 F1200.000
G1 X48.775 Y65.167 E73.50523
G1 X48.486 Y65.093 E73.52183
G1 X48.601 Y64.744 E73.54232
G1 X57.821 Y53.396 E74.35598
G1 X58.000 Y53.260 E74.36849
G1 X58.172 Y53.394 E74.38063
G1 X67.392 Y64.741 E75.19429
G1 X67.490 Y65.034 E75.21147
G1 Z1.800 F9000.000
G1 X66.670 Y64.626 F9000.000
G1 X49.320 Y64.626 E75.48453 F1800.000
G1 X57.995 Y53.949 E75.70104
G1 X66.633 Y64.579 E75.91660
G1 X66.761 Y65.016 F9000.000
G1 X68.807 Y65.709 F9000.000
G1 X47.193 Y65.709 E76.25675 F1800.000
G1 X58.000 Y52.408 E76.52645
G1 X68.769 Y65.662 E76.79521
G1 X68.424 Y65.592 F9000.000
G1 X67.509 Y65.091 F9000.000
G1 X67.215 Y65.167 E76.81209 F1200.000
G1 X48.775 Y65.167 E77.83826
G1 X48.486 Y65.093 E77.85486
G1 X48.601 Y64.744 E77.87535
G1 X57.821 Y53.396 E78.68901
G1 X58.000 Y53.260 E78.70152
G1 X58.172 Y53.394 E78.71366
G1 X67.392 Y64.741 E79.52732
G1 X67.490 Y65.034 E79.54450
G1 Z1.900 F9000.000
G1 X66.670 Y64.626 F9000.000
G1 X49.320 Y64.626 E79.81756 F1800.000
G1 X57.995 Y53.949 E80.03407
G1 X66.633 Y64.579 E80.24963
G1 X66.761 Y65.016 F9000.000
G1 X68.807 Y65.709 F9000.000
G1 X47.193 Y65.709 E80.58978 F1800.000
G1 X58.000 Y52.408 E80.85948
G1 X68.769 Y65.662 E81.12824
G1 X68.424 Y65.592 F9000.000
G1 X67.509 Y65.091 F9000.000
G1 X67.215 Y65.167 E81.14512 F1200.000
G1 X48.775 Y65.167 E82.17129
G1 X48.486 Y65.093 E82.18789
G1 X48.601 Y64.744 E82.20838
G1 X57.821 Y53.396 E83.02204
G1 X58.000 Y53.260 E83.03456
G1 X58.172 Y53.394 E83.04669
G1 X67.392 Y64.741 E83.86035
G1 X67.490 Y65.034 E83.87753
G1 Z2.000 F9000.000
G1 X66.670 Y64.626 F9000.000
G1 X49.320 Y64.626 E84.15059 F1800.000
G1 X57.995 Y53.949 E84.36710
G1 X66.633 Y64.579 E84.58266
G1 X66.761 Y65.016 F9000.000
G1 X68.807 Y65.709 F9000.000
G1 X47.193 Y65.709 E84.92281 F1800.000
G1 X58.000 Y52.408 E85.19251
G1 X68.769 Y65.662 E85.46127
G1 X68.424 Y65.592 F9000.000
G1 X67.509 Y65.091 F9000.000
G1 X67.215 Y65.167 E85.47815 F1200.000
G1 X48.775 Y65.167 E86.50433
G1 X48.486 Y65.093 E86.52092
G1 X48.601 Y64.744 E86.54141
G1 X57.821 Y53.396 E87.35507
G1 X58.000 Y53.260 E87.36759
G1 X58.172 Y53.394 E87.37972
G1 X67.392 Y64.741 E88.19338
G1 X67.490 Y65.034 E88.21056
G1 Z2.100 F9000.000
G1 X66.670 Y64.626 F9000.000
G1 X49.320 Y64.626 E88.48362 F1800.000
G1 X57.995 Y53.949 E88.70013
G1 X66.633 Y64.579 E88.91569
G1 X66.761 Y65.016 F9000.000
G1 X68.807 Y65.709 F9000.000
G1 X47.193 Y65.709 E89.25584 F1800.000
G1 X58.000 Y52.408 E89.52554
G1 X68.769 Y65.662 E89.79430
G1 X68.424 Y65.592 F9000.000
G1 X67.509 Y65.091 F9000.000
