; generated by Slic3r 1.2.9 on 2017-02-20 at 17:45:39

; external perimeters extrusion width = 0.40mm
; perimeters extrusion width = 0.68mm
; infill extrusion width = 1.28mm
; solid infill extrusion width = 0.68mm
; top infill extrusion width = 0.68mm
; support material extrusion width = 0.40mm

M107
M190 S70 ; set bed temperature
M104 S240 ; set temperature
G28 ; home all axes
G1 Z5 F5000 ; lift nozzle

M109 S240 ; wait for temperature to be reached
G21 ; set units to millimeters
G90 ; use absolute coordinates
M82 ; use absolute distances for extrusion
G92 E0
G1 Z0.300 F9000.000
G1 X3.436 Y6.076 F9000.000
G1 X5.626 Y5.171 E0.15833 F1200.000
G1 X6.957 Y4.998 E0.24800
G1 X56.341 Y3.335 E3.54900
G1 X60.174 Y3.331 E3.80506
G1 X109.037 Y4.998 E7.07127 F1200.000
G1 X111.359 Y5.475 E7.22960
G1 X113.392 Y6.692 E7.38793
G1 X114.909 Y8.513 E7.54626
G1 X115.850 Y11.578 E7.76042
G1 X116.987 Y28.153 E8.87035
G1 X117.037 Y30.595 E9.03350
G1 X117.042 Y61.664 E11.10907
G1 X116.792 Y63.529 E11.23475
G1 X115.626 Y67.798 E11.53041
G1 X114.627 Y69.947 E11.68874
G1 X112.974 Y71.646 E11.84707
G1 X110.853 Y72.703 E12.00540
G1 X108.805 Y73.006 E12.14373
G1 X7.205 Y73.006 E18.93116
G1 X4.868 Y72.609 E19.08949
G1 X2.794 Y71.462 E19.24782
G1 X1.216 Y69.694 E19.40615
G1 X0.310 Y67.504 E19.56448
G1 X0.134 Y65.937 E19.66983
G1 X0.124 Y12.066 E23.26871
G1 X0.521 Y9.729 E23.42704
G1 X1.668 Y7.655 E23.58537
G1 X3.391 Y6.116 E23.73969
G1 X3.802 Y6.516 F9000.000
G1 X3.949 Y6.393 E23.75244 F1200.000
G1 X6.975 Y5.534 E23.96263
G1 X56.359 Y3.870 E27.26363
G1 X60.174 Y3.866 E27.51848
G1 X109.019 Y5.534 E30.78347 F1200.000
G1 X111.247 Y6.007 E30.93564
G1 X113.177 Y7.216 E31.08781
G1 X114.575 Y9.015 E31.23998
G1 X115.315 Y11.615 E31.42058
G1 X116.452 Y28.165 E32.52879
G1 X116.501 Y30.595 E32.69120
G1 X116.507 Y61.664 E34.76677
G1 X116.276 Y63.387 E34.88293
G1 X115.109 Y67.657 E35.17859
G1 X114.135 Y69.716 E35.33076
G1 X112.514 Y71.316 E35.48293
G1 X110.442 Y72.262 E35.63510
G1 X108.805 Y72.470 E35.74536
G1 X7.205 Y72.470 E42.53279
G1 X4.962 Y72.073 E42.68496
G1 X2.991 Y70.931 E42.83713
G1 X1.533 Y69.181 E42.98930
G1 X0.669 Y65.937 E43.21360
G1 X0.660 Y12.066 E46.81247
G1 X1.057 Y9.823 E46.96464
G1 X2.199 Y7.852 E47.11681
G1 X3.756 Y6.554 E47.25222
G1 X4.676 Y7.389 F9000.000
G1 X5.088 Y6.977 E47.29114 F1200.000
G1 X52.090 Y6.977 E50.43115
G1 X52.349 Y6.817 E50.45147
G1 X52.707 Y6.103 E50.50484
G1 X56.707 Y4.774 E50.78645
G1 X57.127 Y4.985 E50.81785
G1 X57.249 Y5.014 E50.82620 F1200.000
G1 X59.752 Y5.014 E50.99342
G1 X60.755 Y4.866 E51.06119
G1 X63.105 Y5.669 E51.22705
G1 X64.272 Y6.891 E51.33994
G1 X64.474 Y6.977 E51.35460
G1 X110.903 Y6.977 E54.45629
G1 X113.883 Y9.957 E54.73788
G1 X113.886 Y24.420 E55.70406
G1 X114.045 Y24.679 E55.72436
G1 X114.350 Y24.831 E55.74711
G1 X115.679 Y28.832 E56.02872
G1 X115.346 Y29.496 E56.07836
G1 X115.318 Y29.629 E56.08748
G1 X115.380 Y31.092 E56.18531
G1 X115.251 Y31.693 E56.22636
G1 X115.257 Y31.830 E56.23549
G1 X115.318 Y32.031 E56.24952
G1 X115.380 Y33.482 E56.34659
G1 X115.252 Y34.083 E56.38764
G1 X115.258 Y34.220 E56.39676
G1 X115.319 Y34.421 E56.41080
G1 X115.381 Y35.872 E56.50787
G1 X115.217 Y36.638 E56.56015
G1 X115.225 Y36.781 E56.56972
G1 X115.728 Y38.296 E56.67642
G1 X115.348 Y39.055 E56.73315
G1 X115.319 Y39.189 E56.74228
G1 X115.382 Y40.652 E56.84011
G1 X115.253 Y41.253 E56.88116
G1 X115.259 Y41.389 E56.89028
G1 X115.320 Y41.590 E56.90432
G1 X115.382 Y43.042 E57.00139
G1 X115.110 Y44.311 E57.08807
G1 X114.826 Y44.877 E57.13041
G1 X114.811 Y45.090 E57.14465
G1 X115.730 Y47.856 E57.33936
G1 X115.350 Y48.615 E57.39609
G1 X115.321 Y48.749 E57.40522
G1 X115.383 Y50.212 E57.50305
G1 X115.255 Y50.813 E57.54410
G1 X115.261 Y50.949 E57.55322
G1 X115.322 Y51.150 E57.56726
G1 X115.384 Y52.602 E57.66433
G1 X115.255 Y53.202 E57.70538
G1 X115.261 Y53.339 E57.71450
G1 X115.322 Y53.540 E57.72853
G1 X115.384 Y54.992 E57.82561
G1 X115.220 Y55.757 E57.87789
G1 X115.228 Y55.900 E57.88746
G1 X115.732 Y57.415 E57.99415
G1 X115.351 Y58.175 E58.05089
G1 X115.323 Y58.308 E58.06001
G1 X115.385 Y59.771 E58.15784
G1 X115.256 Y60.372 E58.19889
G1 X115.262 Y60.509 E58.20802
G1 X115.324 Y60.710 E58.22205
G1 X115.385 Y62.161 E58.31912
G1 X115.114 Y63.430 E58.40580
G1 X113.922 Y65.808 E58.58350
G1 X113.893 Y65.930 E58.59186
G1 X113.894 Y68.040 E58.73284
G1 X110.913 Y71.023 E59.01456
G1 X5.098 Y71.023 E66.08362
G1 X2.117 Y68.043 E66.36517
G1 X2.107 Y9.958 E70.24558
G1 X4.633 Y7.432 E70.48426
G1 X5.054 Y7.768 F9000.000
G1 X5.309 Y7.513 E70.50836 F1200.000
G1 X52.421 Y7.513 E73.65564
G1 X52.679 Y7.353 E73.67595
G1 X53.086 Y6.542 E73.73659
G1 X56.665 Y5.352 E73.98856
G1 X57.000 Y5.520 E74.01361 F1200.000
G1 X57.122 Y5.549 E74.02196
G1 X59.792 Y5.549 E74.20031
G1 X60.706 Y5.415 E74.26203
G1 X62.808 Y6.134 E74.41043
G1 X64.043 Y7.427 E74.52989
G1 X64.245 Y7.513 E74.54455
G1 X110.681 Y7.513 E77.64672
G1 X113.348 Y10.179 E77.89867
G1 X113.350 Y24.751 E78.87211
G1 X113.510 Y25.009 E78.89242
G1 X113.912 Y25.211 E78.92243
G1 X115.101 Y28.790 E79.17440
G1 X114.776 Y29.438 E79.22281
G1 X114.759 Y29.643 E79.23659
G1 X114.786 Y29.732 E79.24277
G1 X114.842 Y31.047 E79.33072
G1 X114.698 Y31.717 E79.37648
G1 X114.704 Y31.853 E79.38560
G1 X114.786 Y32.122 E79.40435
G1 X114.842 Y33.437 E79.49230
G1 X114.699 Y34.107 E79.53806
G1 X114.705 Y34.243 E79.54718
G1 X114.787 Y34.512 E79.56593
G1 X114.843 Y35.827 E79.65388
G1 X114.663 Y36.668 E79.71134
G1 X114.670 Y36.811 E79.72091
G1 X115.150 Y38.255 E79.82253
G1 X114.778 Y38.997 E79.87804
G1 X114.760 Y39.203 E79.89182
G1 X114.787 Y39.291 E79.89800
G1 X114.844 Y40.607 E79.98595
G1 X114.700 Y41.276 E80.03171
G1 X114.706 Y41.413 E80.04084
G1 X114.788 Y41.681 E80.05958
G1 X114.844 Y42.997 E80.14753
G1 X114.601 Y44.132 E80.22509
G1 X114.248 Y44.836 E80.27769
G1 X114.233 Y45.048 E80.29192
G1 X115.152 Y47.814 E80.48663
G1 X114.780 Y48.557 E80.54214
G1 X114.762 Y48.763 E80.55592
G1 X114.789 Y48.851 E80.56211
G1 X114.845 Y50.166 E80.65006
G1 X114.702 Y50.836 E80.69582
G1 X114.708 Y50.973 E80.70494
G1 X114.790 Y51.241 E80.72369
G1 X114.846 Y52.556 E80.81163
G1 X114.702 Y53.226 E80.85739
G1 X114.708 Y53.363 E80.86652
G1 X114.790 Y53.631 E80.88527
G1 X114.846 Y54.946 E80.97321
G1 X114.666 Y55.787 E81.03068
G1 X114.674 Y55.930 E81.04025
G1 X115.154 Y57.374 E81.14186
G1 X114.781 Y58.117 E81.19737
G1 X114.764 Y58.322 E81.21115
G1 X114.791 Y58.411 E81.21734
G1 X114.847 Y59.726 E81.30529
G1 X114.704 Y60.396 E81.35105
G1 X114.709 Y60.532 E81.36017
G1 X114.791 Y60.801 E81.37892
G1 X114.847 Y62.116 E81.46686
G1 X114.604 Y63.251 E81.54442
G1 X113.386 Y65.681 E81.72602
G1 X113.358 Y65.803 E81.73438
G1 X113.359 Y67.819 E81.86902
G1 X110.691 Y70.487 E82.12108
G1 X5.319 Y70.487 E89.16050
G1 X2.653 Y67.821 E89.41241
G1 X2.642 Y10.180 E93.26318
G1 X5.012 Y7.810 E93.48703
G1 X5.433 Y8.147 F9000.000
G1 X5.531 Y8.048 E93.49631 F1200.000
G1 X52.751 Y8.048 E96.65086
G1 X53.010 Y7.889 E96.67117
G1 X53.465 Y6.980 E96.73908
G1 X56.624 Y5.931 E96.96140
G1 X56.908 Y6.073 E96.98266
G1 X57.108 Y6.092 E96.99607 F1200.000
G1 X59.832 Y6.085 E97.17804
G1 X60.656 Y5.964 E97.23370
G1 X62.511 Y6.598 E97.36464
G1 X63.814 Y7.962 E97.49067
G1 X64.016 Y8.048 E97.50533
G1 X110.459 Y8.048 E100.60799
G1 X112.812 Y10.401 E100.83029
G1 X112.815 Y25.081 E101.81100
G1 X112.974 Y25.340 E101.83131
G1 X113.473 Y25.590 E101.86859
G1 X114.523 Y28.748 E102.09091
G1 X114.201 Y29.389 E102.13881
G1 X114.184 Y29.595 E102.15259
G1 X114.254 Y29.823 E102.16853
G1 X114.304 Y31.002 E102.24735
G1 X114.146 Y31.740 E102.29782
G1 X114.151 Y31.877 E102.30694
G1 X114.254 Y32.213 E102.33041
G1 X114.304 Y33.392 E102.40923
G1 X114.146 Y34.130 E102.45970
G1 X114.152 Y34.267 E102.46883
G1 X114.254 Y34.603 E102.49229
G1 X114.305 Y35.781 E102.57111
G1 X114.108 Y36.698 E102.63375
G1 X114.116 Y36.841 E102.64332
G1 X114.572 Y38.213 E102.73987
G1 X114.203 Y38.949 E102.79486
G1 X114.186 Y39.154 E102.80864
G1 X114.255 Y39.383 E102.82458
G1 X114.306 Y40.561 E102.90340
G1 X114.147 Y41.300 E102.95387
G1 X114.153 Y41.437 E102.96300
G1 X114.256 Y41.772 E102.98646
G1 X114.306 Y42.951 E103.06528
G1 X114.091 Y43.953 E103.13371
G1 X113.670 Y44.794 E103.19657
G1 X113.655 Y45.007 E103.21081
G1 X114.574 Y47.773 E103.40552
G1 X114.205 Y48.509 E103.46052
G1 X114.187 Y48.714 E103.47430
G1 X114.257 Y48.942 E103.49023
G1 X114.307 Y50.121 E103.56905
G1 X114.149 Y50.860 E103.61953
G1 X114.155 Y50.996 E103.62865
G1 X114.257 Y51.332 E103.65211
G1 X114.308 Y52.511 E103.73093
G1 X114.149 Y53.250 E103.78141
G1 X114.155 Y53.386 E103.79053
G1 X114.258 Y53.722 E103.81399
G1 X114.308 Y54.901 E103.89281
G1 X114.112 Y55.818 E103.95546
G1 X114.120 Y55.961 E103.96503
G1 X114.575 Y57.332 E104.06157
G1 X114.206 Y58.068 E104.11657
G1 X114.189 Y58.274 E104.13035
G1 X114.259 Y58.502 E104.14628
G1 X114.309 Y59.681 E104.22510
G1 X114.151 Y60.419 E104.27558
G1 X114.157 Y60.556 E104.28470
G1 X114.259 Y60.892 E104.30816
G1 X114.309 Y62.071 E104.38699
G1 X114.095 Y63.072 E104.45542
G1 X112.851 Y65.555 E104.64092
G1 X112.822 Y65.676 E104.64928
G1 X112.823 Y67.597 E104.77758
G1 X110.469 Y69.952 E104.99999
G1 X5.541 Y69.952 E112.00976
G1 X3.188 Y67.599 E112.23203
G1 X3.178 Y10.402 E116.05315
G1 X5.391 Y8.189 E116.26218
G1 X5.753 Y8.584 F9000.000
G1 X53.082 Y8.584 E119.42400 F1200.000
G1 X53.341 Y8.424 E119.44431
G1 X53.845 Y7.418 E119.51949
G1 X56.582 Y6.509 E119.71217
G1 X56.854 Y6.645 E119.73251 F1200.000
G1 X57.054 Y6.664 E119.74592
G1 X57.208 Y6.620 E119.75662
G1 X59.872 Y6.620 E119.93457
G1 X60.606 Y6.513 E119.98417
G1 X62.214 Y7.063 E120.09765
G1 X63.585 Y8.498 E120.23026
G1 X63.787 Y8.584 E120.24491
G1 X110.237 Y8.584 E123.34805
G1 X112.277 Y10.623 E123.54071
G1 X112.279 Y25.412 E124.52869
G1 X112.439 Y25.671 E124.54900
G1 X113.035 Y25.969 E124.59354
G1 X113.944 Y28.707 E124.78622
G1 X113.626 Y29.341 E124.83361
G1 X113.609 Y29.546 E124.84739
G1 X113.721 Y29.914 E124.87307
G1 X113.766 Y30.956 E124.94277
G1 X113.593 Y31.764 E124.99796
G1 X113.599 Y31.900 E125.00708
G1 X113.722 Y32.304 E125.03525
G1 X113.766 Y33.346 E125.10495
G1 X113.593 Y34.154 E125.16014
G1 X113.599 Y34.290 E125.16926
G1 X113.722 Y34.694 E125.19744
G1 X113.767 Y35.736 E125.26713
G1 X113.554 Y36.729 E125.33496
G1 X113.562 Y36.872 E125.34453
G1 X113.994 Y38.171 E125.43600
G1 X113.628 Y38.900 E125.49048
G1 X113.611 Y39.106 E125.50426
G1 X113.723 Y39.474 E125.52995
G1 X113.768 Y40.516 E125.59964
G1 X113.595 Y41.324 E125.65483
G1 X113.600 Y41.460 E125.66395
G1 X113.723 Y41.863 E125.69213
G1 X113.768 Y42.906 E125.76182
G1 X113.582 Y43.774 E125.82113
G1 X113.092 Y44.752 E125.89425
G1 X113.076 Y44.965 E125.90849
G1 X113.995 Y47.731 E126.10320
G1 X113.630 Y48.460 E126.15769
G1 X113.613 Y48.666 E126.17147
G1 X113.725 Y49.033 E126.19715
G1 X113.769 Y50.076 E126.26685
G1 X113.596 Y50.883 E126.32203
G1 X113.602 Y51.020 E126.33116
G1 X113.725 Y51.423 E126.35933
G1 X113.770 Y52.465 E126.42903
G1 X113.597 Y53.273 E126.48421
G1 X113.602 Y53.410 E126.49334
G1 X113.726 Y53.813 E126.52151
G1 X113.770 Y54.855 E126.59121
G1 X113.557 Y55.848 E126.65904
G1 X113.565 Y55.991 E126.66861
G1 X113.997 Y57.291 E126.76007
G1 X113.632 Y58.020 E126.81456
G1 X113.614 Y58.225 E126.82834
G1 X113.726 Y58.593 E126.85402
G1 X113.771 Y59.635 E126.92372
G1 X113.598 Y60.443 E126.97890
G1 X113.604 Y60.579 E126.98803
G1 X113.727 Y60.983 E127.01620
G1 X113.771 Y62.025 E127.08590
G1 X113.585 Y62.893 E127.14521
G1 X112.315 Y65.428 E127.33462
G1 X112.286 Y65.550 E127.34297
G1 X112.287 Y67.375 E127.46493
G1 X110.247 Y69.416 E127.65768
G1 X5.763 Y69.416 E134.63781
G1 X3.724 Y67.377 E134.83045
G1 X3.714 Y10.623 E138.62191
G1 X5.711 Y8.626 E138.81058
G1 X5.975 Y9.120 F9000.000
G1 X53.413 Y9.120 E141.97967 F1200.000
G1 X53.671 Y8.960 E141.99998
G1 X54.224 Y7.857 E142.08243
G1 X56.540 Y7.087 E142.24547
G1 X56.800 Y7.217 E142.26488
G1 X57.000 Y7.236 E142.27830
G1 X57.283 Y7.156 E142.29792
G1 X59.912 Y7.156 E142.47356
G1 X60.557 Y7.062 E142.51711
G1 X61.917 Y7.527 E142.61313
G1 X63.356 Y9.033 E142.75230 F1200.000
G1 X63.558 Y9.120 E142.76696
G1 X110.015 Y9.120 E145.87057
G1 X111.741 Y10.845 E146.03360
G1 X111.744 Y25.743 E147.02885
G1 X111.903 Y26.001 E147.04915
G1 X112.597 Y26.349 E147.10096
G1 X113.366 Y28.665 E147.26400
G1 X113.052 Y29.292 E147.31087
G1 X113.034 Y29.498 E147.32465
G1 X113.189 Y30.005 E147.36008
G1 X113.228 Y30.911 E147.42066
G1 X113.052 Y31.682 E147.47350
G1 X113.035 Y31.888 E147.48728
G1 X113.190 Y32.395 E147.52271
G1 X113.228 Y33.301 E147.58328
G1 X113.052 Y34.072 E147.63613
G1 X113.035 Y34.278 E147.64991
G1 X113.190 Y34.785 E147.68534
G1 X113.229 Y35.691 E147.74591
G1 X113.071 Y36.425 E147.79609
G1 X112.989 Y36.589 E147.80832
G1 X112.974 Y36.801 E147.82255
G1 X113.415 Y38.130 E147.91606
G1 X113.053 Y38.852 E147.97003
G1 X113.036 Y39.057 E147.98381
G1 X113.191 Y39.565 E148.01924
G1 X113.229 Y40.471 E148.07981
G1 X113.054 Y41.242 E148.13266
G1 X113.036 Y41.447 E148.14644
G1 X113.191 Y41.955 E148.18187
G1 X113.230 Y42.860 E148.24244
G1 X113.073 Y43.595 E148.29262
G1 X112.416 Y44.906 E148.39059
G1 X112.555 Y45.327 E148.42023
G1 X112.648 Y45.373 E148.42712
G1 X113.417 Y47.689 E148.59016
G1 X113.055 Y48.412 E148.64413
G1 X113.038 Y48.617 E148.65791
G1 X113.193 Y49.124 E148.69334
G1 X113.231 Y50.030 E148.75391
G1 X113.055 Y50.801 E148.80676
G1 X113.038 Y51.007 E148.82054
G1 X113.193 Y51.514 E148.85597
G1 X113.232 Y52.420 E148.91654
G1 X113.056 Y53.191 E148.96938
G1 X113.039 Y53.397 E148.98316
G1 X113.193 Y53.904 E149.01859
G1 X113.232 Y54.810 E149.07917
G1 X113.075 Y55.545 E149.12935
G1 X112.993 Y55.708 E149.14157
G1 X112.977 Y55.921 E149.15581
G1 X113.419 Y57.249 E149.24931
G1 X113.057 Y57.971 E149.30329
G1 X113.039 Y58.177 E149.31707
G1 X113.194 Y58.684 E149.35250
G1 X113.233 Y59.590 E149.41307
G1 X113.057 Y60.361 E149.46591
G1 X113.040 Y60.567 E149.47969
G1 X113.195 Y61.074 E149.51512
G1 X113.233 Y61.980 E149.57570
G1 X113.076 Y62.714 E149.62588
G1 X111.779 Y65.301 E149.81920
G1 X111.751 Y65.423 E149.82755
G1 X111.751 Y67.154 E149.94316
G1 X110.025 Y68.880 E150.10626
G1 X5.985 Y68.880 E157.05674
G1 X4.259 Y67.155 E157.21974
G1 X4.249 Y10.845 E160.98156
G1 X5.933 Y9.162 E161.14058
G1 E156.64058 F2400.00000
G92 E0
G1 X111.697 Y45.145 F9000.000
G1 E4.50000 F2400.00000
G1 X111.837 Y45.566 E4.52964 F1200.000
G1 X112.209 Y45.753 E4.55749
G1 X112.839 Y47.648 E4.69088
G1 X112.480 Y48.363 E4.74435
G1 X112.463 Y48.569 E4.75812
G1 X112.660 Y49.215 E4.80330
G1 X112.693 Y49.985 E4.85475
G1 X112.564 Y50.586 E4.89581
G1 X112.481 Y50.753 E4.90830
G1 X112.463 Y50.958 E4.92208
G1 X112.661 Y51.605 E4.96726
G1 X112.694 Y52.375 E5.01871
G1 X112.565 Y52.976 E5.05977
G1 X112.481 Y53.143 E5.07226
G1 X112.464 Y53.348 E5.08604
G1 X112.661 Y53.995 E5.13122
G1 X112.694 Y54.765 E5.18267
G1 X112.565 Y55.366 E5.22373
G1 X112.414 Y55.666 E5.24621
G1 X112.399 Y55.879 E5.26044
G1 X112.841 Y57.207 E5.35395
G1 X112.482 Y57.923 E5.40741
G1 X112.465 Y58.128 E5.42119
G1 X112.662 Y58.775 E5.46637
G1 X112.695 Y59.544 E5.51782
G1 X112.566 Y60.145 E5.55888
G1 X112.482 Y60.313 E5.57137
G1 X112.465 Y60.518 E5.58515
G1 X112.662 Y61.165 E5.63032
G1 X112.695 Y61.934 E5.68177
G1 X112.567 Y62.535 E5.72283
G1 X111.244 Y65.175 E5.92006
G1 X111.215 Y65.296 E5.92841
G1 X111.216 Y66.932 E6.03768
G1 X109.804 Y68.345 E6.17112
G1 X6.207 Y68.345 E13.09196
G1 X4.795 Y66.933 E13.22532
G1 X4.785 Y11.067 E16.95748
G1 X6.197 Y9.655 E17.09088
G1 X53.743 Y9.655 E20.26724
G1 X54.002 Y9.496 E20.28755
G1 X54.604 Y8.295 E20.37726
G1 X56.499 Y7.665 E20.51066
G1 X56.746 Y7.789 E20.52915
G1 X56.946 Y7.808 E20.54257
G1 X57.357 Y7.692 E20.57111
G1 X59.906 Y7.702 E20.74138
G1 X60.507 Y7.611 E20.78200
G1 X61.620 Y7.992 E20.86057
G1 X63.127 Y9.569 E21.00631
G1 X63.329 Y9.655 E21.02096
G1 X109.793 Y9.655 E24.12506
G1 X111.205 Y11.067 E24.25844
G1 X111.208 Y26.074 E25.26096
G1 X111.368 Y26.332 E25.28127
G1 X112.158 Y26.728 E25.34034
G1 X112.788 Y28.623 E25.47373
G1 X112.477 Y29.244 E25.52010
G1 X112.459 Y29.449 E25.53388
G1 X112.657 Y30.096 E25.57905
G1 X112.690 Y30.865 E25.63050
G1 X112.561 Y31.466 E25.67156
G1 X112.477 Y31.634 E25.68406
G1 X112.460 Y31.839 E25.69783
