; generated by Slic3r 1.2.9 on 2017-02-21 at 11:28:32

; external perimeters extrusion width = 0.40mm
; perimeters extrusion width = 0.68mm
; infill extrusion width = 1.28mm
; solid infill extrusion width = 0.68mm
; top infill extrusion width = 0.68mm
; support material extrusion width = 0.40mm

M107
M190 S70 ; set bed temperature
M104 S240 ; set temperature
G28 ; home all axes
G1 Z5 F5000 ; lift nozzle

M109 S240 ; wait for temperature to be reached
G21 ; set units to millimeters
G90 ; use absolute coordinates
M82 ; use absolute distances for extrusion
G92 E0
G1 Z0.300 F9000.000
G1 E-4.50000 F2400.00000
G92 E0
G1 X35.891 Y71.319 F9000.000
G1 E4.50000 F2400.00000
G1 X38.081 Y70.413 E4.65833 F1200.000
G1 X39.650 Y70.237 E4.76383
G1 X52.350 Y70.237 E5.61226
G1 X54.687 Y70.634 E5.77059
G1 X56.761 Y71.781 E5.92892 F1200.000
G1 X58.339 Y73.548 E6.08725
G1 X59.245 Y75.739 E6.24558
G1 X59.421 Y77.308 E6.35107
G1 X59.421 Y106.692 E8.31411
G1 X59.024 Y109.029 E8.47244
G1 X57.877 Y111.103 E8.63077
G1 X56.109 Y112.681 E8.78910
G1 X53.919 Y113.587 E8.94743
G1 X52.350 Y113.763 E9.05292
G1 X39.650 Y113.763 E9.90135
G1 X37.313 Y113.366 E10.05968
G1 X35.239 Y112.219 E10.21801
G1 X33.661 Y110.452 E10.37634
G1 X32.755 Y108.261 E10.53467
G1 X32.579 Y106.692 E10.64017
G1 X32.579 Y77.308 E12.60320
G1 X32.976 Y74.971 E12.76153
G1 X34.123 Y72.897 E12.91986
G1 X35.846 Y71.359 E13.07419
G1 X36.257 Y71.758 F9000.000
G1 X36.403 Y71.636 E13.08694 F1200.000
G1 X39.650 Y70.772 E13.31137
G1 X52.350 Y70.772 E14.15980
G1 X54.593 Y71.169 E14.31197
G1 X56.563 Y72.312 E14.46414 F1200.000
G1 X58.022 Y74.061 E14.61631
G1 X58.886 Y77.308 E14.84074
G1 X58.886 Y106.692 E16.80377
G1 X58.489 Y108.935 E16.95594
G1 X57.346 Y110.906 E17.10812
G1 X55.597 Y112.364 E17.26029
G1 X52.350 Y113.228 E17.48472
G1 X39.650 Y113.228 E18.33315
G1 X37.407 Y112.831 E18.48532
G1 X35.437 Y111.688 E18.63749
G1 X33.978 Y109.939 E18.78966
G1 X33.114 Y106.692 E19.01409
G1 X33.114 Y77.308 E20.97712
G1 X33.511 Y75.065 E21.12929
G1 X34.654 Y73.094 E21.28147
G1 X36.211 Y71.796 E21.41688
G1 X37.130 Y72.631 F9000.000
G1 X37.542 Y72.219 E21.45580 F1200.000
G1 X54.458 Y72.219 E22.58584
G1 X57.438 Y75.200 E22.86744
G1 X57.438 Y108.800 E25.11209 F1200.000
G1 X54.458 Y111.781 E25.39369
G1 X37.542 Y111.781 E26.52373
G1 X34.562 Y108.800 E26.80534
G1 X34.562 Y75.200 E29.04998
G1 X37.088 Y72.674 E29.28866
G1 X37.509 Y73.010 F9000.000
G1 X37.764 Y72.755 E29.31276 F1200.000
G1 X54.236 Y72.755 E30.41316
G1 X56.903 Y75.422 E30.66512 F1200.000
G1 X56.903 Y108.578 E32.88012
G1 X54.236 Y111.245 E33.13209
G1 X37.764 Y111.245 E34.23248
G1 X35.097 Y108.578 E34.48445
G1 X35.097 Y75.422 E36.69945
G1 X37.467 Y73.053 E36.92330
G1 X37.888 Y73.389 F9000.000
G1 X37.986 Y73.291 E36.93258 F1200.000
G1 X54.014 Y73.291 E38.00333
G1 X56.367 Y75.644 E38.22566
G1 X56.367 Y108.356 E40.41101 F1200.000
G1 X54.014 Y110.709 E40.63334
G1 X37.986 Y110.709 E41.70409
G1 X35.633 Y108.356 E41.92641
G1 X35.633 Y75.644 E44.11177
G1 X37.845 Y73.431 E44.32080
G1 X38.208 Y73.826 F9000.000
G1 X53.792 Y73.826 E45.36191 F1200.000
G1 X55.832 Y75.866 E45.55459 F1200.000
G1 X55.832 Y108.134 E47.71030
G1 X53.792 Y110.174 E47.90298
G1 X38.208 Y110.174 E48.94409
G1 X36.168 Y108.134 E49.13677
G1 X36.168 Y75.866 E51.29248
G1 X38.165 Y73.869 E51.48115
G1 X38.430 Y74.362 F9000.000
G1 X53.570 Y74.362 E52.49262 F1200.000
G1 X55.296 Y76.088 E52.65566
G1 X55.296 Y107.912 E54.78173 F1200.000
G1 X53.570 Y109.638 E54.94476
G1 X38.430 Y109.638 E55.95623
G1 X36.704 Y107.912 E56.11926
G1 X36.704 Y76.088 E58.24534
G1 X38.387 Y74.404 E58.40436
G1 X38.652 Y74.898 F9000.000
G1 X53.348 Y74.898 E59.38619 F1200.000
G1 X54.760 Y76.309 E59.51958 F1200.000
G1 X54.760 Y107.691 E61.61601
G1 X53.348 Y109.102 E61.74940
G1 X38.652 Y109.102 E62.73122
G1 X37.240 Y107.691 E62.86462
G1 X37.240 Y76.309 E64.96104
G1 X38.609 Y74.940 E65.09043
G1 X38.873 Y75.433 F9000.000
G1 X53.127 Y75.433 E66.04261 F1200.000
G1 X54.225 Y76.531 E66.14636
G1 X54.225 Y107.469 E68.21315 F1200.000
G1 X53.127 Y108.567 E68.31690
G1 X38.873 Y108.567 E69.26907
G1 X37.775 Y107.469 E69.37283
G1 X37.775 Y76.531 E71.43961
G1 X38.831 Y75.476 E71.53935
G1 X39.095 Y75.969 F9000.000
G1 X52.905 Y75.969 E72.46189 F1200.000
G1 X53.689 Y76.753 E72.53600 F1200.000
G1 X53.689 Y107.247 E74.57314
G1 X52.905 Y108.031 E74.64725
G1 X39.095 Y108.031 E75.56978
G1 X38.311 Y107.247 E75.64389
G1 X38.311 Y76.753 E77.68103
G1 X39.053 Y76.011 E77.75113
G1 X39.317 Y76.504 F9000.000
G1 X52.683 Y76.504 E78.64402 F1200.000
G1 X53.153 Y76.975 E78.68849
G1 X53.153 Y107.025 E80.69599 F1200.000
G1 X52.683 Y107.496 E80.74045
G1 X39.317 Y107.496 E81.63335
G1 X38.847 Y107.025 E81.67781
G1 X38.847 Y76.975 E83.68531
G1 X39.275 Y76.547 E83.72577
G1 X39.382 Y77.197 F9000.000
G1 X39.539 Y77.040 E83.74059 F1200.000
G1 X52.461 Y77.040 E84.60384
G1 X52.618 Y77.197 E84.61866
G1 X52.618 Y106.803 E86.59651
G1 X52.461 Y106.960 E86.61134
G1 X39.539 Y106.960 E87.47459
G1 X39.382 Y106.803 E87.48941
G1 X39.382 Y77.257 E89.46326
G1 E84.96326 F2400.00000
G92 E0
G1 X52.050 Y106.392 F9000.000
G1 E4.50000 F2400.00000
G1 X39.950 Y106.392 E5.30835 F1200.000
G1 X39.950 Y77.608 E7.23130
G1 X52.050 Y77.608 E8.03964
G1 X52.050 Y106.332 E9.95859
G1 X51.704 Y106.192 F9000.000
G1 X51.514 Y105.857 F9000.000
G1 X40.486 Y105.857 E10.69537 F1200.000
G1 X40.486 Y78.143 E12.54675
G1 X51.514 Y78.143 E13.28353
G1 X51.514 Y105.797 E15.13091
G1 E10.63091 F2400.00000
G92 E0
G1 X46.596 Y84.056 F9000.000
G1 E4.50000 F2400.00000
G1 X46.000 Y84.135 E4.54016 F1200.000
G1 X45.404 Y84.056 E4.58031
G1 X44.849 Y83.826 E4.62047
G1 X44.372 Y83.460 E4.66063
G1 X44.006 Y82.983 E4.70078
G1 X43.776 Y82.428 E4.74094
G1 X43.697 Y81.830 E4.78121
G1 X43.786 Y81.212 E4.82296
G1 X44.006 Y80.681 E4.86136
G1 X44.372 Y80.204 E4.90151
G1 X44.849 Y79.838 E4.94167
G1 X45.404 Y79.608 E4.98182
G1 X45.974 Y79.533 E5.02022 F1200.000
G1 X46.594 Y79.607 E5.06197
G1 X47.151 Y79.838 E5.10224
G1 X47.628 Y80.204 E5.14240
G1 X47.994 Y80.681 E5.18255
G1 X48.224 Y81.236 E5.22271
G1 X48.303 Y81.832 E5.26287
G1 X48.224 Y82.428 E5.30302
G1 X47.994 Y82.983 E5.34318
G1 X47.628 Y83.460 E5.38334
G1 X47.151 Y83.826 E5.42349
G1 X46.651 Y84.033 E5.45964
G1 X46.476 Y84.438 F9000.000
G1 X46.801 Y84.551 F9000.000
G1 X46.736 Y84.578 E5.46435 F1200.000
G1 X46.000 Y84.675 E5.51393
G1 X45.264 Y84.578 E5.56351
G1 X44.579 Y84.294 E5.61309
G1 X43.990 Y83.842 E5.66266
G1 X43.538 Y83.254 E5.71224
G1 X43.254 Y82.568 E5.76182
G1 X43.157 Y81.827 E5.81173
G1 X43.265 Y81.069 E5.86290
G1 X43.538 Y80.411 E5.91050
G1 X43.990 Y79.822 E5.96008
G1 X44.579 Y79.370 E6.00966
G1 X45.264 Y79.086 E6.05924
G1 X45.971 Y78.993 E6.10684 F1200.000
G1 X46.731 Y79.084 E6.15801
G1 X47.421 Y79.370 E6.20792
G1 X48.010 Y79.822 E6.25750
G1 X48.462 Y80.411 E6.30707
G1 X48.746 Y81.096 E6.35665
G1 X48.843 Y81.832 E6.40623
G1 X48.746 Y82.568 E6.45581
G1 X48.462 Y83.254 E6.50539
G1 X48.010 Y83.842 E6.55497
G1 X47.421 Y84.294 E6.60454
G1 X46.856 Y84.528 E6.64540
G1 X50.256 Y86.081 F9000.000
G1 X41.021 Y86.081 E7.26235 F1200.000
G1 X41.021 Y78.679 E7.75683
G1 X44.241 Y78.679 E7.97194
G1 X44.315 Y78.897 E7.98733
G1 X43.608 Y79.440 E8.04690
G1 X43.070 Y80.141 E8.10590
G1 X42.745 Y80.926 E8.16271
G1 X42.616 Y81.824 E8.22330
G1 X42.732 Y82.708 E8.28285
G1 X43.070 Y83.524 E8.34185
G1 X43.608 Y84.224 E8.40085
G1 X44.308 Y84.762 E8.45985
G1 X45.124 Y85.100 E8.51885
G1 X46.000 Y85.215 E8.57785
G1 X46.876 Y85.100 E8.63685
G1 X47.692 Y84.762 E8.69585
G1 X48.392 Y84.224 E8.75485
G1 X48.930 Y83.524 E8.81385
G1 X49.268 Y82.708 E8.87285
G1 X49.383 Y81.832 E8.93185
G1 X49.268 Y80.957 E8.99085
G1 X48.930 Y80.141 E9.04985
G1 X48.392 Y79.440 E9.10885
G1 X47.685 Y78.897 E9.16842
G1 X47.759 Y78.679 E9.18380
G1 X50.979 Y78.679 E9.39892
G1 X50.979 Y105.321 E11.17874
G1 X47.738 Y105.321 E11.39522
G1 X47.664 Y105.103 E11.41060
G1 X48.392 Y104.544 E11.47189
G1 X48.930 Y103.844 E11.53089
G1 X49.255 Y103.058 E11.58770
G1 X49.384 Y102.160 E11.64830
G1 X49.268 Y101.277 E11.70784
G1 X48.930 Y100.461 E11.76684
G1 X48.392 Y99.760 E11.82584
G1 X47.692 Y99.222 E11.88484
G1 X46.868 Y98.881 E11.94438
G1 X45.968 Y98.773 E12.00498
G1 X45.124 Y98.884 E12.06179
G1 X44.308 Y99.222 E12.12079
G1 X43.608 Y99.760 E12.17979
G1 X43.070 Y100.461 E12.23879
G1 X42.745 Y101.246 E12.29560
G1 X42.616 Y102.144 E12.35619
G1 X42.732 Y103.028 E12.41573
G1 X43.070 Y103.844 E12.47473
G1 X43.608 Y104.544 E12.53373
G1 X44.336 Y105.103 E12.59502
G1 X44.262 Y105.321 E12.61041
G1 X41.021 Y105.321 E12.82688
G1 X41.021 Y97.866 E13.32494
G1 X50.256 Y97.866 E13.94188
G1 X50.256 Y86.141 E14.72517
G1 X49.185 Y87.152 F9000.000
G1 X49.185 Y96.794 E15.36933 F1200.000
G1 X42.337 Y96.794 E15.82684
G1 X42.337 Y87.152 E16.47101
G1 X49.125 Y87.152 E16.92451
G1 X49.585 Y87.152 F9000.000
G1 X49.721 Y86.616 F9000.000
G1 X49.721 Y97.330 E17.64024 F1200.000
G1 X41.801 Y97.330 E18.16931
G1 X41.801 Y86.616 E18.88504
G1 X49.661 Y86.616 E19.41011
G1 E14.91011 F2400.00000
G92 E0
G1 X46.594 Y99.927 F9000.000
G1 E4.50000 F2400.00000
G1 X47.151 Y100.158 E4.54028 F1200.000
G1 X47.628 Y100.524 E4.58043
G1 X47.994 Y101.001 E4.62059
G1 X48.224 Y101.556 E4.66075
G1 X48.303 Y102.154 E4.70102
G1 X48.214 Y102.773 E4.74277
G1 X47.994 Y103.303 E4.78116
G1 X47.628 Y103.780 E4.82132
G1 X47.151 Y104.146 E4.86147
G1 X46.620 Y104.366 E4.89987
G1 X46.002 Y104.455 E4.94162
G1 X45.404 Y104.376 E4.98189
G1 X44.849 Y104.146 E5.02205
G1 X44.372 Y103.780 E5.06220
G1 X44.006 Y103.303 E5.10236
G1 X43.776 Y102.748 E5.14252
G1 X43.697 Y102.150 E5.18279
G1 X43.786 Y101.532 E5.22454
G1 X44.006 Y101.001 E5.26293
G1 X44.372 Y100.524 E5.30309
G1 X44.849 Y100.158 E5.34325
G1 X45.404 Y99.928 E5.38340
G1 X45.974 Y99.853 E5.42179 F1200.000
G1 X46.535 Y99.920 E5.45953
G1 X46.888 Y99.656 F9000.000
G1 X46.799 Y99.433 F9000.000
G1 X47.421 Y99.690 E5.50452 F1200.000
G1 X48.010 Y100.142 E5.55410
G1 X48.462 Y100.731 E5.60368
G1 X48.746 Y101.416 E5.65326
G1 X48.843 Y102.157 E5.70317
G1 X48.735 Y102.915 E5.75434
G1 X48.462 Y103.574 E5.80194
G1 X48.010 Y104.162 E5.85152
G1 X47.421 Y104.614 E5.90109
G1 X46.763 Y104.887 E5.94870
G1 X46.005 Y104.996 E5.99987
G1 X45.264 Y104.898 E6.04978
G1 X44.579 Y104.614 E6.09935
G1 X43.990 Y104.162 E6.14893
G1 X43.538 Y103.574 E6.19851
G1 X43.254 Y102.888 E6.24809
G1 X43.157 Y102.147 E6.29800
G1 X43.265 Y101.389 E6.34917
G1 X43.538 Y100.731 E6.39677
G1 X43.990 Y100.142 E6.44635
G1 X44.579 Y99.690 E6.49593
G1 X45.264 Y99.406 E6.54551
G1 X45.971 Y99.313 E6.59311 F1200.000
G1 X46.744 Y99.410 E6.64516
G1 X47.496 Y98.478 F9000.000
G1 X46.966 Y98.377 E6.72170 F1200.000
G1 X45.988 Y98.319 E6.86040
G1 X45.022 Y98.380 E6.99745
G1 X44.504 Y98.478 E7.07225
G1 X44.147 Y98.460 F9000.000
G1 X43.874 Y98.187 E7.10032 F1200.000
G1 X43.049 Y98.187 E7.16036
G1 X43.985 Y99.123 E7.25664
G1 X43.518 Y99.481 E7.29947
G1 X42.224 Y98.187 E7.43262
G1 X41.399 Y98.187 E7.49266
G1 X43.135 Y99.923 E7.67130
G1 X42.785 Y100.399 E7.71425
G1 X41.343 Y98.956 E7.86271
G1 X41.343 Y99.781 E7.92275
G1 X42.544 Y100.982 E8.04634
G1 X42.378 Y101.642 E8.09582
G1 X41.343 Y100.606 E8.20237
G1 X41.343 Y101.432 E8.26242
G1 X42.309 Y102.398 E8.36183
G1 X41.343 Y102.257 E8.43288
G1 X42.479 Y103.393 E8.54977
G1 X41.343 Y103.082 E8.63547
G1 X43.260 Y104.999 E8.83280
G1 X42.435 Y104.999 E8.89285
G1 X41.343 Y103.907 E9.00527
G1 X41.343 Y104.732 E9.06531
G1 X41.610 Y104.999 E9.09282
G1 X44.566 Y105.257 F9000.000
G1 X45.166 Y105.373 E9.17938 F1200.000
G1 X45.891 Y105.421 E9.28233
G1 X46.099 Y105.422 F9000.000
G1 X46.866 Y105.367 E9.39121 F1200.000
G1 X47.434 Y105.257 E9.47313
G1 X48.853 Y104.999 F9000.000
G1 X48.592 Y104.738 E9.49949 F1200.000
G1 X48.942 Y104.281 E9.54057
G1 X49.661 Y104.999 E9.61301
G1 X50.469 Y104.999 E9.67060
G1 X49.262 Y103.792 E9.79231
G1 X49.498 Y103.220 E9.83639
G1 X50.657 Y104.379 E9.95317
G1 X50.657 Y103.571 E10.01077
G1 X49.638 Y102.552 E10.11351
G1 X49.674 Y101.780 E10.16855
G1 X50.657 Y102.763 E10.26760
G1 X50.657 Y101.955 E10.32519
G1 X49.456 Y100.753 E10.44630
G1 X50.657 Y98.722 F9000.000
G1 X50.390 Y98.455 E10.47324 F1200.000
G1 X50.657 Y99.530 E10.55221
G1 X49.314 Y98.187 E10.68759
G1 X48.506 Y98.187 E10.74518
G1 X50.657 Y100.339 E10.96201
G1 X50.657 Y101.147 E11.01960
G1 X47.835 Y98.324 E11.30408
G1 X50.617 Y98.133 F9000.000
G1 X50.617 Y85.813 E12.12715 F1200.000
G1 X48.217 Y85.759 F9000.000
G1 X47.944 Y85.486 E12.15477 F1200.000
G1 X48.081 Y84.811 E12.20411
G1 X49.029 Y85.759 E12.30012
G1 X49.841 Y85.759 E12.35826
G1 X48.540 Y84.459 E12.48998
G1 X48.904 Y84.010 E12.53131
G1 X50.385 Y85.491 E12.68128
G1 X50.657 Y84.951 E12.72457
G1 X49.237 Y83.531 E12.86838
G1 X49.475 Y82.957 E12.91288
G1 X50.657 Y84.139 E13.03260
G1 X50.657 Y83.328 E13.09074
G1 X49.632 Y82.302 E13.19459
G1 X49.685 Y81.544 E13.24901
G1 X50.657 Y82.516 E13.34741
G1 X50.657 Y81.704 E13.40555
G1 X49.504 Y80.551 E13.52229
G1 X48.766 Y79.001 F9000.000
G1 X50.657 Y80.892 E13.71380 F1200.000
G1 X50.657 Y80.080 E13.77194
G1 X49.578 Y79.001 E13.88122
G1 X50.390 Y79.001 E13.93936
G1 X50.657 Y79.268 E13.96643
G1 X47.455 Y78.739 F9000.000
G1 X46.824 Y78.618 E14.05748 F1200.000
G1 X46.200 Y78.581 E14.14600
G1 X45.773 Y78.579 F9000.000
G1 X45.167 Y78.619 E14.23197 F1200.000
G1 X44.545 Y78.739 E14.32178
G1 X43.396 Y79.262 F9000.000
G1 X43.135 Y79.001 E14.34880 F1200.000
G1 X43.037 Y79.731 E14.40262
G1 X42.307 Y79.001 E14.47806
G1 X41.478 Y79.001 E14.53857
G1 X42.718 Y80.241 E14.66668
G1 X42.476 Y80.826 E14.71300
G1 X41.343 Y79.694 E14.83003
G1 X41.343 Y80.522 E14.89054
G1 X42.349 Y81.528 E14.99445
G1 X42.345 Y82.352 E15.05471
G1 X41.343 Y81.350 E15.15825
G1 X41.343 Y82.179 E15.21876
G1 X42.650 Y83.486 E15.35378
G1 X41.343 Y83.835 F9000.000
G1 X43.267 Y85.759 E15.55254 F1200.000
G1 X44.053 Y85.717 E15.61003
G1 X41.343 Y83.007 E15.88998
G1 X41.343 Y84.664 F9000.000
G1 X42.438 Y85.759 E16.00317 F1200.000
G1 X41.610 Y85.759 E16.06368
G1 X41.343 Y85.492 E16.09129
G1 X41.143 Y86.349 F9000.000
G1 X41.143 Y97.598 E17.68464 F1200.000
G1 E13.18464 F2400.00000
G92 E0
G1 X44.412 Y85.468 F9000.000
G1 E4.50000 F2400.00000
G1 X45.025 Y85.586 E4.58840 F1200.000
G1 X45.922 Y85.645 E4.71569
G1 X46.078 Y85.645 F9000.000
G1 X46.975 Y85.586 E4.84299 F1200.000
G1 X47.588 Y85.468 E4.93139
G1 Z0.300 F9000.000
M104 S220 ; set temperature
M140 S60 ; wait for bed temperature to be reached
G1 Z0.400 F9000.000
G1 E0.43139 F2400.00000
G92 E0
G1 X46.754 Y99.541 F9000.000
G1 E4.50000 F2400.00000
G1 X47.362 Y99.792 E4.51801 F900.000
G1 X47.927 Y100.226 E4.53749
G1 X48.360 Y100.790 E4.55696
G1 X48.632 Y101.447 E4.57644
G1 X48.725 Y102.152 E4.59591
G1 X48.632 Y102.857 E4.61539
G1 X48.360 Y103.515 E4.63486
G1 X47.927 Y104.079 E4.65434
G1 X47.362 Y104.512 E4.67381
G1 X46.705 Y104.784 E4.69329
G1 X46.000 Y104.877 E4.71276
G1 X45.295 Y104.784 E4.73224
G1 X44.638 Y104.512 E4.75171
G1 X44.073 Y104.079 E4.77118
G1 X43.640 Y103.515 E4.79066
G1 X43.582 Y103.374 E4.79482
G1 X43.368 Y102.857 E4.81013
G1 X43.275 Y102.152 E4.82961
G1 X43.368 Y101.447 E4.84908
G1 X43.640 Y100.790 E4.86856
G1 X44.073 Y100.226 E4.88803
G1 X44.638 Y99.792 E4.90751
G1 X45.295 Y99.520 E4.92698
G1 X45.849 Y99.447 E4.94229
G1 X46.000 Y99.427 E4.94646 F900.000
G1 X46.699 Y99.519 E4.96575
G1 X46.570 Y100.025 F9000.000
G1 X47.101 Y100.245 E4.97479 F900.000
G1 X47.557 Y100.595 E4.98384
G1 X47.907 Y101.051 E4.99288
G1 X48.127 Y101.582 E5.00193
G1 X48.202 Y102.152 E5.01098
G1 X48.127 Y102.722 E5.02002
G1 X47.907 Y103.253 E5.02907
G1 X47.557 Y103.709 E5.03811
G1 X47.101 Y104.059 E5.04716
G1 X46.570 Y104.279 E5.05620
G1 X46.000 Y104.354 E5.06525
G1 X45.430 Y104.279 E5.07430
G1 X44.899 Y104.059 E5.08334
G1 X44.443 Y103.709 E5.09239
G1 X44.093 Y103.253 E5.10143
G1 X44.061 Y103.176 E5.10275
G1 X43.873 Y102.722 E5.11048
G1 X43.798 Y102.152 E5.11952
G1 X43.873 Y101.582 E5.12857
G1 X44.093 Y101.051 E5.13761
G1 X44.443 Y100.595 E5.14666
G1 X44.899 Y100.245 E5.15571
G1 X45.430 Y100.025 E5.16475
G1 X45.917 Y99.961 E5.17248
G1 X46.000 Y99.950 E5.17380 F900.000
G1 X46.510 Y100.018 E5.18190
G1 X46.865 Y99.755 F9000.000
G1 X49.604 Y97.213 F9000.000
G1 X41.918 Y97.213 E5.39232 F900.000
G1 X41.918 Y86.733 E5.67923
